; generated by AnycubicSlicer 1.1.1 on 2024-09-27 at 01:56:23 UTC

; 

; external perimeters extrusion width = 0.45mm
; perimeters extrusion width = 0.40mm
; infill extrusion width = 0.45mm
; solid infill extrusion width = 0.50mm
; top infill extrusion width = 0.45mm
; first layer extrusion width = 0.56mm

M73 P0 R28
M201 X2500 Y2500 Z800 E2500 ; sets maximum accelerations, mm/sec^2
M203 X300 Y250 Z8 E80 ; sets maximum feedrates, mm / sec
M204 P2500 R2500 T2500 ; sets acceleration (P, T) and retract acceleration (R), mm/sec^2
M205 X15.00 Y10.00 Z2.00 E10.00 ; sets the jerk limits, mm/sec
M205 S0 T0 ; sets the minimum extruding and travel feed rate, mm/sec
M107
;TYPE:Custom
G90 ; use absolute coordinates
M83 ; extruder relative mode
M104 S195 ; set extruder temp
M140 S40 ; set bed temp
M190 S40 ; wait for bed temp
M109 S195 ; wait for extruder temp
G28                                        ; move X/Y/Z to min endstops
G1 Z0.28                                   ; lift nozzle a bit 
G92 E0 
G1 Y3 F1800                                    ; zero the extruded length 
G1 X60  E25 F500                       ; Extrude 25mm of filament in a 5cm line. 
G92 E0                                     ; zero the extruded length again 
G1 E-2 F500                                ; Retract a little 
G1 X70 F4000                              ; Quickly wipe away from the filament line
M117
G21 ; set units to millimeters
G90 ; use absolute coordinates
M82 ; use absolute distances for extrusion
G92 E0
; Filament gcode
M107
;LAYER_CHANGE
;Z:0.28
;HEIGHT:0.28
; BEFORE_LAYER_CHANGE 0 @ 0.28mm
G1 E-2 F4800
G92 E0
G1 Z.28 F7200
; AFTER_LAYER_CHANGE 0 @ 0.28mm
G1 X77.897 Y74.46
G1 E2 F4800
M204 S2000
;TYPE:Skirt/Brim
;WIDTH:0.56
G1 F3000
G1 X78.312 Y74.05 E2.03395
G1 X78.754 Y73.751 E2.065
G1 X79.311 Y73.523 E2.10003
G1 X79.847 Y73.425 E2.13174
G1 X150.208 Y73.43 E6.22639
G1 X150.753 Y73.544 E6.25879
G1 X151.302 Y73.781 E6.29359
G1 X151.692 Y74.054 E6.32129
G1 X152.102 Y74.46 E6.35487
G1 X152.408 Y74.901 E6.38611
G1 X152.625 Y75.397 E6.41762
G1 X152.75 Y76.023 E6.45477
G1 X152.75 Y153.977 E10.9913
G1 X152.625 Y154.603 E11.02845
G1 X152.408 Y155.099 E11.05996
G1 X152.103 Y155.54 E11.09116
G1 X151.688 Y155.95 E11.12511
G1 X151.246 Y156.249 E11.15616
G1 X150.689 Y156.477 E11.19119
G1 X150.153 Y156.575 E11.2229
G1 X79.848 Y156.575 E15.31429
G1 X79.222 Y156.45 E15.35144
G1 X78.726 Y156.233 E15.38295
G1 X78.285 Y155.928 E15.41415
G1 X77.875 Y155.513 E15.4481
G1 X77.576 Y155.071 E15.47915
G1 X77.348 Y154.514 E15.51418
G1 X77.25 Y153.978 E15.54589
G1 X77.25 Y76.023 E20.08248
G1 X77.375 Y75.397 E20.11963
G1 X77.592 Y74.901 E20.15114
G1 X77.863 Y74.509 E20.17887
M204 S2500
G1 X78.269 Y74.795 F7200
M204 S2000
G1 F3000
G1 X78.617 Y74.447 E20.20751
G1 X78.972 Y74.201 E20.23264
G1 X79.432 Y74.009 E20.26165
G1 X79.871 Y73.925 E20.28766
G1 X150.18 Y73.93 E24.37929
G1 X150.621 Y74.026 E24.40556
G1 X151.075 Y74.227 E24.43445
G1 X151.383 Y74.447 E24.45648
G1 X151.731 Y74.795 E24.48512
G1 X151.981 Y75.161 E24.51091
G1 X152.154 Y75.568 E24.53665
G1 X152.25 Y76.048 E24.56514
G1 X152.25 Y153.952 E29.09876
G1 X152.154 Y154.432 E29.12725
M73 P1 R28
G1 X151.981 Y154.839 E29.15299
G1 X151.731 Y155.205 E29.17878
G1 X151.383 Y155.553 E29.20742
G1 X151.028 Y155.799 E29.23255
G1 X150.568 Y155.991 E29.26156
G1 X150.129 Y156.075 E29.28757
G1 X79.873 Y156.075 E33.37611
G1 X79.393 Y155.979 E33.4046
G1 X78.986 Y155.806 E33.43034
G1 X78.62 Y155.556 E33.45613
G1 X78.272 Y155.208 E33.48477
G1 X78.026 Y154.853 E33.5099
G1 X77.834 Y154.393 E33.53891
G1 X77.75 Y153.954 E33.56492
G1 X77.75 Y76.048 E38.09865
G1 X77.846 Y75.568 E38.12714
G1 X78.019 Y75.161 E38.15288
G1 X78.235 Y74.845 E38.17516
M204 S2500
G1 X78.64 Y75.131 F7200
M204 S2000
G1 F3000
G1 X78.955 Y74.816 E38.20108
G1 X79.194 Y74.649 E38.21805
G1 X79.558 Y74.493 E38.2411
G1 X79.897 Y74.425 E38.26122
G1 X150.152 Y74.43 E42.34971
G1 X150.441 Y74.493 E42.36692
G1 X150.848 Y74.673 E42.39282
G1 X151.043 Y74.814 E42.40682
G1 X151.36 Y75.131 E42.43291
G1 X151.55 Y75.416 E42.45284
G1 X151.683 Y75.736 E42.47301
G1 X151.75 Y76.072 E42.49295
G1 X151.75 Y153.928 E47.02377
G1 X151.683 Y154.264 E47.04371
G1 X151.55 Y154.584 E47.06388
G1 X151.36 Y154.869 E47.08381
G1 X151.045 Y155.184 E47.10973
G1 X150.806 Y155.351 E47.1267
G1 X150.442 Y155.507 E47.14975
G1 X150.103 Y155.575 E47.16987
G1 X79.897 Y155.575 E51.2555
G1 X79.561 Y155.508 E51.27544
G1 X79.241 Y155.375 E51.29561
G1 X78.956 Y155.185 E51.31554
G1 X78.641 Y154.87 E51.34146
G1 X78.474 Y154.631 E51.35843
G1 X78.318 Y154.267 E51.38148
G1 X78.25 Y153.928 E51.4016
G1 X78.25 Y76.072 E55.93242
G1 X78.317 Y75.736 E55.95236
G1 X78.45 Y75.416 E55.97253
G1 X78.607 Y75.18 E55.98903
M204 S2500
G1 X79.011 Y75.467 F7200
M204 S2000
G1 F3000
G1 X79.294 Y75.184 E56.01232
G1 X79.416 Y75.098 E56.02101
G1 X79.731 Y74.963 E56.04095
G1 X79.922 Y74.925 E56.05228
G1 X150.124 Y74.93 E60.13768
G1 X150.266 Y74.962 E60.14615
G1 X150.584 Y75.098 E60.16628
G1 X150.706 Y75.184 E60.17497
G1 X150.989 Y75.467 E60.19826
G1 X151.098 Y75.63 E60.20967
G1 X151.212 Y75.904 E60.22694
G1 X151.25 Y76.097 E60.23839
G1 X151.25 Y153.903 E64.76631
G1 X151.212 Y154.096 E64.77776
G1 X151.098 Y154.37 E64.79503
G1 X150.989 Y154.533 E64.80644
G1 X150.706 Y154.816 E64.82973
G1 X150.584 Y154.902 E64.83842
G1 X150.269 Y155.037 E64.85836
G1 X150.078 Y155.075 E64.86969
G1 X79.922 Y155.075 E68.95241
G1 X79.729 Y155.037 E68.96386
G1 X79.455 Y154.923 E68.98113
G1 X79.292 Y154.814 E68.99254
G1 X79.009 Y154.531 E69.01583
G1 X78.923 Y154.409 E69.02452
G1 X78.788 Y154.094 E69.04446
G1 X78.75 Y153.903 E69.05579
G1 X78.75 Y76.097 E73.58371
G1 X78.788 Y75.904 E73.59516
G1 X78.902 Y75.63 E73.61243
G1 X78.978 Y75.517 E73.62035
M204 S2500
G1 X79.382 Y75.803 F7200
M204 S2000
G1 F3000
G1 X79.628 Y75.557 E73.6406
G1 X79.946 Y75.425 E73.66064
G1 X150.054 Y75.425 E77.74057
G1 X150.372 Y75.557 E77.76061
M73 P2 R28
G1 X150.618 Y75.803 E77.78086
G1 X150.75 Y76.121 E77.8009
G1 X150.75 Y153.879 E82.32602
G1 X150.618 Y154.197 E82.34606
M73 P2 R27
G1 X150.372 Y154.443 E82.36631
G1 X150.054 Y154.575 E82.38635
G1 X79.946 Y154.575 E86.46628
G1 X79.628 Y154.443 E86.48632
G1 X79.382 Y154.197 E86.50657
G1 X79.25 Y153.879 E86.52661
G1 X79.25 Y76.121 E91.05173
G1 X79.351 Y75.854 E91.06834
M204 S2500
G1 X79.788 Y76.104 F7200
M204 S2000
G1 F3000
G1 X79.929 Y75.963 E91.07994
G1 X80.021 Y75.925 E91.08573
G1 X149.979 Y75.925 E95.15693
G1 X150.071 Y75.963 E95.16272
G1 X150.212 Y76.104 E95.17432
G1 X150.25 Y76.196 E95.18011
G1 X150.25 Y153.804 E99.6965
G1 X150.212 Y153.896 E99.70229
G1 X150.071 Y154.037 E99.71389
G1 X149.979 Y154.075 E99.71968
G1 X80.021 Y154.075 E103.79088
G1 X79.929 Y154.037 E103.79667
G1 X79.788 Y153.896 E103.80827
G1 X79.75 Y153.804 E103.81406
G1 X79.75 Y76.196 E108.33045
G1 X79.765 Y76.159 E108.33277
M204 S2500
G1 E106.93277 F4800
;WIPE_START
G1 F5760
G1 X79.929 Y75.963 E106.73045
G1 X80.021 Y75.925 E106.65165
G1 X80.424 Y75.925 E106.33277
;WIPE_END
G92 E0
G1 X149.6 Y153.425 F7200
G1 E2 F4800
M204 S2000
;TYPE:External perimeter
G1 F3000
G1 X80.4 Y153.425 E6.02709
G1 X80.4 Y76.575 E10.49937
G1 X149.6 Y76.575 E14.52646
G1 X149.6 Y153.365 E18.99525
M204 S2500
G1 X149.215 Y153.315 F7200
M73 P3 R27
G1 X149.1 Y152.925
M204 S2000
;TYPE:Perimeter
G1 F3000
G1 X80.9 Y152.925 E22.96414
G1 X80.9 Y77.075 E27.37823
G1 X149.1 Y77.075 E31.34712
G1 X149.1 Y152.865 E35.75771
M204 S2500
G1 X148.6 Y152.425 F7200
M204 S2000
G1 F3000
G1 X81.4 Y152.425 E39.66841
G1 X81.4 Y77.575 E44.0243
G1 X148.6 Y77.575 E47.935
G1 X148.6 Y152.365 E52.2874
M204 S2500
G1 E50.8874 F4800
;WIPE_START
G1 F5760
G1 X147.842 Y152.366 E50.2874
;WIPE_END
G92 E0
G1 X113.021 Y84.06 F7200
G1 E2 F4800
M204 S2000
;TYPE:External perimeter
G1 F3000
G1 X113.418 Y83.875 E2.02549
G1 X113.818 Y83.74 E2.05006
G1 X114.23 Y83.649 E2.07461
G1 X114.65 Y83.603 E2.0992
G1 X115.073 Y83.603 E2.12382
G1 X115.493 Y83.649 E2.14841
G1 X115.905 Y83.74 E2.17296
G1 X116.295 Y83.871 E2.1969
G1 X116.688 Y84.052 E2.22208
G1 X117.05 Y84.27 E2.24667
G1 X117.387 Y84.525 E2.27126
G1 X117.693 Y84.816 E2.29583
G1 X117.967 Y85.138 E2.32043
G1 X118.204 Y85.487 E2.34498
G1 X118.402 Y85.86 E2.36956
G1 X118.558 Y86.253 E2.39417
G1 X118.671 Y86.66 E2.41875
G1 X118.739 Y87.077 E2.44334
G1 X118.762 Y87.498 E2.46788
G1 X118.739 Y87.92 E2.49247
G1 X118.671 Y88.337 E2.51706
G1 X118.558 Y88.744 E2.54164
G1 X118.402 Y89.136 E2.56619
G1 X118.204 Y89.509 E2.59077
G1 X117.967 Y89.859 E2.61537
G1 X117.693 Y90.181 E2.63997
G1 X117.387 Y90.471 E2.6645
G1 X117.05 Y90.727 E2.68913
G1 X116.689 Y90.944 E2.71364
G1 X116.305 Y91.122 E2.73827
G1 X115.905 Y91.257 E2.76284
G1 X115.493 Y91.347 E2.78738
G1 X115.073 Y91.393 E2.81197
G1 X114.65 Y91.393 E2.83659
G1 X114.23 Y91.347 E2.86118
G1 X113.818 Y91.257 E2.88572
G1 X113.418 Y91.122 E2.91029
G1 X113.034 Y90.944 E2.93492
G1 X112.673 Y90.727 E2.95943
G1 X112.336 Y90.471 E2.98406
G1 X112.03 Y90.181 E3.00859
G1 X111.756 Y89.859 E3.03319
G1 X111.519 Y89.509 E3.05779
G1 X111.326 Y89.145 E3.08177
G1 X111.165 Y88.744 E3.10692
G1 X111.052 Y88.337 E3.1315
G1 X110.984 Y87.92 E3.15609
G1 X110.961 Y87.498 E3.18068
G1 X110.984 Y87.077 E3.20522
G1 X111.052 Y86.66 E3.22981
G1 X111.165 Y86.253 E3.25439
G1 X111.321 Y85.86 E3.279
G1 X111.519 Y85.487 E3.30358
G1 X111.756 Y85.138 E3.32813
G1 X112.023 Y84.824 E3.35212
G1 X112.336 Y84.526 E3.37727
G1 X112.673 Y84.27 E3.4019
G1 X112.97 Y84.091 E3.42208
M204 S2500
G1 X113.034 Y83.66 F7200
G1 X112.779 Y83.622
M204 S2000
;TYPE:Perimeter
G1 F3000
G1 X113.232 Y83.41 E3.45119
G1 X113.684 Y83.257 E3.47896
G1 X114.149 Y83.155 E3.50666
G1 X114.623 Y83.103 E3.53441
G1 X115.1 Y83.103 E3.56217
G1 X115.574 Y83.155 E3.58992
G1 X116.039 Y83.257 E3.61762
G1 X116.48 Y83.406 E3.64471
G1 X116.922 Y83.609 E3.67302
G1 X117.331 Y83.855 E3.7008
G1 X117.711 Y84.144 E3.72858
G1 X118.057 Y84.472 E3.75633
G1 X118.365 Y84.835 E3.78403
G1 X118.633 Y85.229 E3.81176
G1 X118.856 Y85.65 E3.83948
G1 X119.032 Y86.093 E3.86722
G1 X119.16 Y86.552 E3.89495
G1 X119.237 Y87.022 E3.92267
G1 X119.263 Y87.498 E3.95041
G1 X119.237 Y87.974 E3.97815
G1 X119.16 Y88.444 E4.00587
G1 X119.032 Y88.904 E4.03366
G1 X118.856 Y89.346 E4.06135
G1 X118.633 Y89.767 E4.08907
G1 X118.365 Y90.162 E4.11685
G1 X118.057 Y90.525 E4.14455
G1 X117.711 Y90.853 E4.1723
G1 X117.331 Y91.141 E4.20005
G1 X116.923 Y91.387 E4.22778
G1 X116.491 Y91.587 E4.25548
G1 X116.039 Y91.739 E4.28323
G1 X115.574 Y91.842 E4.31095
G1 X115.1 Y91.893 E4.33869
G1 X114.623 Y91.893 E4.36645
G1 X114.149 Y91.842 E4.39419
G1 X113.684 Y91.739 E4.42191
G1 X113.232 Y91.587 E4.44966
G1 X112.8 Y91.387 E4.47736
G1 X112.392 Y91.141 E4.50509
G1 X112.012 Y90.853 E4.53284
G1 X111.666 Y90.525 E4.56059
G1 X111.358 Y90.162 E4.58829
G1 X111.09 Y89.767 E4.61607
G1 X110.872 Y89.356 E4.64314
G1 X110.691 Y88.905 E4.67142
G1 X110.563 Y88.444 E4.69926
G1 X110.486 Y87.974 E4.72698
G1 X110.46 Y87.498 E4.75472
G1 X110.486 Y87.022 E4.78246
G1 X110.563 Y86.552 E4.81018
G1 X110.691 Y86.093 E4.83791
G1 X110.867 Y85.65 E4.86565
G1 X111.09 Y85.229 E4.89337
G1 X111.358 Y84.835 E4.9211
G1 X111.659 Y84.48 E4.94819
G1 X112.011 Y84.145 E4.97647
G1 X112.392 Y83.855 E5.00433
G1 X112.728 Y83.653 E5.02715
M204 S2500
G1 X112.523 Y83.193 F7200
M204 S2000
G1 F3000
G1 X113.047 Y82.945 E5.06089
G1 X113.55 Y82.775 E5.09179
G1 X114.068 Y82.661 E5.12266
G1 X114.596 Y82.604 E5.15357
G1 X115.127 Y82.604 E5.18447
G1 X115.655 Y82.661 E5.21538
G1 X116.173 Y82.775 E5.24625
G1 X116.665 Y82.941 E5.27647
G1 X117.156 Y83.166 E5.3079
G1 X117.612 Y83.441 E5.33889
G1 X118.035 Y83.762 E5.36979
G1 X118.42 Y84.127 E5.40066
G1 X118.764 Y84.532 E5.43158
G1 X119.062 Y84.971 E5.46246
G1 X119.31 Y85.44 E5.49333
G1 X119.507 Y85.933 E5.52423
G1 X119.649 Y86.445 E5.55515
G1 X119.735 Y86.968 E5.58599
G1 X119.763 Y87.498 E5.61688
G1 X119.735 Y88.028 E5.64777
G1 X119.649 Y88.552 E5.67867
G1 X119.507 Y89.063 E5.70953
G1 X119.31 Y89.557 E5.74048
G1 X119.062 Y90.025 E5.7713
G1 X118.764 Y90.465 E5.80223
G1 X118.42 Y90.869 E5.83311
G1 X118.035 Y91.234 E5.86398
G1 X117.612 Y91.555 E5.89488
G1 X117.158 Y91.829 E5.92574
G1 X116.676 Y92.052 E5.95665
G1 X116.173 Y92.221 E5.98753
G1 X115.655 Y92.336 E6.01841
G1 X115.127 Y92.393 E6.04932
G1 X114.596 Y92.393 E6.08022
G1 X114.069 Y92.336 E6.11107
G1 X113.55 Y92.221 E6.14201
G1 X113.047 Y92.052 E6.17289
G1 X112.565 Y91.829 E6.2038
G1 X112.111 Y91.555 E6.23466
G1 X111.688 Y91.234 E6.26556
G1 X111.303 Y90.869 E6.29643
G1 X110.959 Y90.465 E6.32731
G1 X110.661 Y90.025 E6.35824
G1 X110.418 Y89.567 E6.38841
G1 X110.217 Y89.065 E6.41988
G1 X110.074 Y88.552 E6.45087
G1 X109.988 Y88.028 E6.48177
G1 X109.96 Y87.498 E6.51266
G1 X109.988 Y86.968 E6.54355
G1 X110.074 Y86.444 E6.57445
G1 X110.216 Y85.933 E6.60531
G1 X110.413 Y85.44 E6.63621
G1 X110.661 Y84.971 E6.66708
G1 X110.959 Y84.532 E6.69796
G1 X111.295 Y84.136 E6.72818
G1 X111.687 Y83.763 E6.75967
G1 X112.111 Y83.441 E6.79065
G1 X112.472 Y83.224 E6.81516
M204 S2500
G1 E5.41516 F4800
;WIPE_START
G1 F5760
G1 X113.047 Y82.945 E4.9092
G1 X113.16 Y82.907 E4.81516
;WIPE_END
G92 E0
G1 X116.029 Y96.727 F7200
G1 E2 F4800
M204 S2000
;TYPE:External perimeter
G1 F3000
G1 X116.431 Y96.861 E2.02466
G1 X116.824 Y97.042 E2.04984
G1 X117.186 Y97.26 E2.07443
G1 X117.522 Y97.515 E2.09898
G1 X117.829 Y97.806 E2.1236
G1 X118.102 Y98.128 E2.14817
G1 X118.339 Y98.477 E2.17272
G1 X118.532 Y98.841 E2.1967
G1 X118.693 Y99.242 E2.22185
G1 X118.806 Y99.65 E2.24649
G1 X118.875 Y100.067 E2.27109
G1 X118.898 Y100.488 E2.29563
G1 X118.875 Y100.91 E2.32022
G1 X118.806 Y101.327 E2.34482
G1 X118.693 Y101.734 E2.3694
G1 X118.537 Y102.126 E2.39395
G1 X118.339 Y102.499 E2.41853
G1 X118.102 Y102.849 E2.44313
G1 X117.829 Y103.171 E2.4677
G1 X117.522 Y103.461 E2.49228
G1 X117.186 Y103.717 E2.51686
G1 X116.824 Y103.935 E2.54145
G1 X116.441 Y104.112 E2.566
G1 X116.041 Y104.247 E2.59057
G1 X115.628 Y104.338 E2.61518
G1 X115.208 Y104.383 E2.63976
G1 X114.786 Y104.383 E2.66432
G1 X114.366 Y104.338 E2.6889
G1 X113.954 Y104.247 E2.71345
G1 X113.553 Y104.112 E2.73807
G1 X113.17 Y103.935 E2.76262
G1 X112.808 Y103.717 E2.78721
G1 X112.472 Y103.461 E2.81179
G1 X112.165 Y103.171 E2.83637
G1 X111.892 Y102.849 E2.86094
G1 X111.655 Y102.499 E2.88554
G1 X111.457 Y102.126 E2.91012
G1 X111.301 Y101.734 E2.93467
G1 X111.188 Y101.327 E2.95925
G1 X111.119 Y100.91 E2.98385
G1 X111.096 Y100.488 E3.00844
G1 X111.119 Y100.067 E3.03298
G1 X111.188 Y99.65 E3.05758
G1 X111.301 Y99.243 E3.08216
G1 X111.453 Y98.86 E3.10614
G1 X111.655 Y98.478 E3.13129
G1 X111.892 Y98.128 E3.15589
G1 X112.165 Y97.806 E3.18046
G1 X112.472 Y97.515 E3.20508
G1 X112.808 Y97.26 E3.22963
G1 X113.17 Y97.042 E3.25422
G1 X113.553 Y96.865 E3.27877
G1 X113.954 Y96.73 E3.30339
G1 X114.366 Y96.639 E3.32794
G1 X114.786 Y96.593 E3.35253
G1 X115.208 Y96.593 E3.37709
G1 X115.628 Y96.639 E3.40168
G1 X115.971 Y96.715 E3.42212
M204 S2500
G1 X116.314 Y96.447 F7200
G1 X116.151 Y96.242
M204 S2000
;TYPE:Perimeter
G1 F3000
G1 X116.615 Y96.396 E3.45057
G1 X117.058 Y96.599 E3.47893
G1 X117.467 Y96.845 E3.50671
G1 X117.846 Y97.134 E3.53445
G1 X118.192 Y97.462 E3.5622
G1 X118.501 Y97.825 E3.58994
G1 X118.768 Y98.219 E3.61764
G1 X118.986 Y98.63 E3.64471
G1 X119.168 Y99.082 E3.67307
G1 X119.295 Y99.542 E3.70084
G1 X119.373 Y100.012 E3.72857
G1 X119.398 Y100.488 E3.75631
G1 X119.373 Y100.964 E3.78405
G1 X119.295 Y101.434 E3.81178
G1 X119.168 Y101.894 E3.83955
G1 X118.992 Y102.336 E3.86724
G1 X118.768 Y102.757 E3.89499
G1 X118.501 Y103.152 E3.92274
G1 X118.192 Y103.515 E3.95048
G1 X117.846 Y103.843 E3.97823
G1 X117.467 Y104.131 E4.00593
G1 X117.059 Y104.377 E4.03366
G1 X116.626 Y104.577 E4.06142
G1 X116.175 Y104.729 E4.08912
G1 X115.709 Y104.832 E4.11689
G1 X115.235 Y104.883 E4.14463
G1 X114.759 Y104.883 E4.17233
G1 X114.285 Y104.832 E4.20007
G1 X113.82 Y104.729 E4.22779
G1 X113.368 Y104.577 E4.25554
G1 X112.936 Y104.377 E4.28324
G1 X112.527 Y104.131 E4.31102
G1 X112.148 Y103.843 E4.33872
G1 X111.802 Y103.515 E4.36647
G1 X111.493 Y103.152 E4.39421
G1 X111.226 Y102.757 E4.42196
G1 X111.003 Y102.336 E4.44968
G1 X110.826 Y101.894 E4.47739
G1 X110.699 Y101.434 E4.50516
