; generated by AnycubicSlicer 1.1.1 on 2024-09-29 at 23:28:31 UTC

; 

; external perimeters extrusion width = 0.45mm
; perimeters extrusion width = 0.40mm
; infill extrusion width = 0.45mm
; solid infill extrusion width = 0.50mm
; top infill extrusion width = 0.45mm
; first layer extrusion width = 0.56mm

M73 P0 R40
M201 X2500 Y2500 Z800 E2500 ; sets maximum accelerations, mm/sec^2
M203 X300 Y250 Z8 E80 ; sets maximum feedrates, mm / sec
M204 P2500 R2500 T2500 ; sets acceleration (P, T) and retract acceleration (R), mm/sec^2
M205 X15.00 Y10.00 Z2.00 E10.00 ; sets the jerk limits, mm/sec
M205 S0 T0 ; sets the minimum extruding and travel feed rate, mm/sec
M107
;TYPE:Custom
G90 ; use absolute coordinates
M83 ; extruder relative mode
M104 S195 ; set extruder temp
M140 S40 ; set bed temp
M190 S40 ; wait for bed temp
M109 S195 ; wait for extruder temp
G28                                        ; move X/Y/Z to min endstops
G1 Z0.28                                   ; lift nozzle a bit 
G92 E0 
G1 Y3 F1800                                    ; zero the extruded length 
G1 X60  E25 F500                       ; Extrude 25mm of filament in a 5cm line. 
G92 E0                                     ; zero the extruded length again 
G1 E-2 F500                                ; Retract a little 
G1 X70 F4000                              ; Quickly wipe away from the filament line
M117
G21 ; set units to millimeters
G90 ; use absolute coordinates
M82 ; use absolute distances for extrusion
G92 E0
; Filament gcode
M107
;LAYER_CHANGE
;Z:0.28
;HEIGHT:0.28
; BEFORE_LAYER_CHANGE 0 @ 0.28mm
G1 E-2 F4800
G92 E0
G1 Z.28 F7200
; AFTER_LAYER_CHANGE 0 @ 0.28mm
G1 X48.699 Y98.956
G1 E2 F4800
M204 S2000
;TYPE:Skirt/Brim
;WIDTH:0.56
G1 F3000
G1 X50.408 Y98.254 E2.10752
G1 X52.217 Y97.725 E2.2172
G1 X54.049 Y97.393 E2.32555
G1 X55.973 Y97.254 E2.43781
G1 X57.922 Y97.326 E2.55131
G1 X59.838 Y97.609 E2.66402
G1 X61.698 Y98.095 E2.7759
G1 X63.476 Y98.771 E2.8866
G1 X65.171 Y99.633 E2.99726
G1 X66.761 Y100.669 E3.1077
G1 X68.113 Y101.763 E3.20891
G1 X68.608 Y102.25 E3.24932
G1 X133.539 Y102.25 E7.02798
G1 X133.544 Y99.81 E7.16998
G1 X133.643 Y99.289 E7.20084
G1 X133.845 Y98.794 E7.23195
G1 X134.108 Y98.38 E7.26049
G1 X134.642 Y97.842 E7.3046
G1 X135.055 Y97.57 E7.33338
G1 X135.511 Y97.376 E7.36222
G1 X136.137 Y97.25 E7.39938
G1 X188.897 Y97.255 E10.46974
G1 X189.443 Y97.369 E10.5022
G1 X189.992 Y97.606 E10.537
G1 X190.381 Y97.879 E10.56466
G1 X190.792 Y98.285 E10.59828
G1 X191.098 Y98.726 E10.62952
G1 X191.314 Y99.222 E10.661
G1 X191.439 Y99.848 E10.69815
G1 X191.439 Y130.152 E12.46169
G1 X191.314 Y130.778 E12.49884
G1 X191.098 Y131.274 E12.53032
G1 X190.791 Y131.716 E12.56164
G1 X190.412 Y132.095 E12.59283
G1 X190.038 Y132.368 E12.61978
G1 X189.492 Y132.615 E12.65465
G1 X189.071 Y132.724 E12.67996
G1 X136.137 Y132.75 E15.76045
G1 X135.511 Y132.624 E15.79761
G1 X135.055 Y132.43 E15.82645
G1 X134.642 Y132.158 E15.85523
G1 X134.108 Y131.62 E15.89934
G1 X133.845 Y131.206 E15.92788
G1 X133.643 Y130.711 E15.95899
G1 X133.544 Y130.19 E15.98985
G1 X133.539 Y127.75 E16.13185
G1 X68.608 Y127.75 E19.91051
G1 X68.113 Y128.237 E19.95092
G1 X66.761 Y129.331 E20.05213
G1 X65.171 Y130.367 E20.16257
G1 X63.476 Y131.229 E20.27323
G1 X61.699 Y131.905 E20.38387
G1 X59.866 Y132.385 E20.49414
G1 X57.979 Y132.668 E20.60518
G1 X56.085 Y132.748 E20.7155
G1 X54.187 Y132.624 E20.82619
G1 X52.144 Y132.258 E20.94698
G1 X50.405 Y131.745 E21.05249
G1 X48.722 Y131.055 E21.15834
G1 X46.901 Y130.063 E21.27902
G1 X45.386 Y129.005 E21.38656
G1 X43.983 Y127.789 E21.49461
G1 X42.711 Y126.431 E21.60289
G1 X41.585 Y124.941 E21.71158
G1 X40.529 Y123.164 E21.83187
G1 X39.774 Y121.502 E21.9381
G1 X39.195 Y119.776 E22.04405
G1 X38.755 Y117.755 E22.16442
G1 X38.563 Y115.891 E22.27347
G1 X38.569 Y113.996 E22.38375
G1 X38.773 Y112.134 E22.49276
G1 X39.172 Y110.305 E22.6017
G1 X39.762 Y108.528 E22.71066
G1 X40.549 Y106.798 E22.82127
G1 X41.502 Y105.183 E22.9304
G1 X42.611 Y103.69 E23.03863
G1 X44.037 Y102.158 E23.16043
G1 X45.483 Y100.92 E23.27121
G1 X47.05 Y99.845 E23.3818
G1 X48.646 Y98.984 E23.48733
M204 S2500
G1 X48.883 Y99.423 F7200
M204 S2000
G1 F3000
G1 X50.586 Y98.721 E23.59453
G1 X52.344 Y98.209 E23.70109
G1 X54.124 Y97.887 E23.80636
G1 X55.995 Y97.753 E23.91552
G1 X57.863 Y97.823 E24.0243
G1 X59.725 Y98.097 E24.13383
G1 X61.534 Y98.568 E24.24261
G1 X63.262 Y99.223 E24.35015
G1 X64.91 Y100.06 E24.45772
G1 X66.457 Y101.066 E24.56511
G1 X67.789 Y102.143 E24.66479
G1 X68.401 Y102.75 E24.71495
G1 X134.04 Y102.75 E28.53481
G1 X134.04 Y99.876 E28.70206
G1 X134.117 Y99.449 E28.72731
G1 X134.282 Y99.037 E28.75314
G1 X134.486 Y98.708 E28.77567
G1 X134.943 Y98.241 E28.81369
G1 X135.273 Y98.02 E28.8368
G1 X135.683 Y97.846 E28.86272
G1 X136.162 Y97.75 E28.89115
G1 X188.869 Y97.755 E31.95843
G1 X189.31 Y97.851 E31.9847
G1 X189.764 Y98.052 E32.01359
G1 X190.072 Y98.272 E32.03562
G1 X190.421 Y98.62 E32.0643
G1 X190.67 Y98.986 E32.09006
G1 X190.844 Y99.393 E32.11582
G1 X190.939 Y99.873 E32.1443
G1 X190.939 Y130.127 E33.90493
G1 X190.844 Y130.607 E33.93341
G1 X190.67 Y131.014 E33.95917
G1 X190.421 Y131.38 E33.98493
G1 X190.071 Y131.729 E34.01369
G1 X189.807 Y131.923 E34.03276
G1 X189.307 Y132.15 E34.06472
G1 X188.981 Y132.232 E34.08428
G1 X136.162 Y132.25 E37.15808
G1 X135.683 Y132.154 E37.18651
G1 X135.273 Y131.98 E37.21243
G1 X134.943 Y131.759 E37.23554
G1 X134.486 Y131.292 E37.27356
G1 X134.282 Y130.963 E37.29609
G1 X134.117 Y130.551 E37.32192
G1 X134.04 Y130.124 E37.34717
G1 X134.04 Y127.25 E37.51442
G1 X68.401 Y127.25 E41.33428
G1 X67.789 Y127.857 E41.38444
G1 X66.457 Y128.934 E41.48412
G1 X64.91 Y129.94 E41.59151
G1 X63.262 Y130.777 E41.69908
G1 X61.534 Y131.432 E41.80662
G1 X59.753 Y131.898 E41.91375
G1 X57.918 Y132.172 E42.02172
G1 X56.078 Y132.248 E42.12889
G1 X54.234 Y132.126 E42.23644
G1 X52.272 Y131.775 E42.35243
G1 X50.559 Y131.269 E42.45638
G1 X48.925 Y130.598 E42.55918
G1 X47.176 Y129.645 E42.67509
G1 X45.683 Y128.603 E42.78104
G1 X44.321 Y127.42 E42.88603
G1 X43.086 Y126.099 E42.99127
G1 X41.992 Y124.651 E43.09688
G1 X40.978 Y122.944 E43.21242
G1 X40.244 Y121.33 E43.3156
G1 X39.673 Y119.63 E43.41996
G1 X39.251 Y117.69 E43.5355
G1 X39.063 Y115.878 E43.64152
G1 X39.067 Y114.037 E43.74866
G1 X39.264 Y112.227 E43.85461
G1 X39.651 Y110.449 E43.9605
G1 X40.223 Y108.722 E44.06637
G1 X40.987 Y107.04 E44.17388
G1 X41.911 Y105.471 E44.27984
G1 X43.004 Y103.999 E44.38654
G1 X44.373 Y102.528 E44.50348
G1 X45.777 Y101.324 E44.61111
G1 X47.3 Y100.279 E44.7186
G1 X48.83 Y99.452 E44.81981
M204 S2500
G1 X49.068 Y99.89 F7200
M204 S2000
G1 F3000
G1 X50.763 Y99.189 E44.92655
G1 X52.471 Y98.693 E45.03005
G1 X54.199 Y98.382 E45.13223
G1 X56.017 Y98.253 E45.23829
G1 X57.83 Y98.322 E45.34387
G1 X59.613 Y98.584 E45.44875
G1 X61.37 Y99.04 E45.55439
G1 X63.048 Y99.675 E45.6588
G1 X64.649 Y100.486 E45.76324
G1 X66.153 Y101.463 E45.86761
G1 X67.464 Y102.524 E45.96576
G1 X68.195 Y103.25 E46.02572
G1 X134.54 Y103.25 E49.88666
G1 X134.54 Y99.898 E50.08173
M73 P1 R40
G1 X134.591 Y99.611 E50.09869
G1 X134.739 Y99.242 E50.12183
G1 X134.866 Y99.034 E50.13601
G1 X135.244 Y98.641 E50.16774
G1 X135.53 Y98.45 E50.18775
G1 X135.85 Y98.317 E50.20792
G1 X136.186 Y98.25 E50.22786
G1 X188.842 Y98.255 E53.29217
G1 X189.131 Y98.318 E53.30938
G1 X189.538 Y98.498 E53.33528
G1 X189.733 Y98.639 E53.34928
G1 X190.049 Y98.956 E53.37533
G1 X190.239 Y99.241 E53.39526
G1 X190.372 Y99.561 E53.41543
G1 X190.439 Y99.897 E53.43537
G1 X190.439 Y130.103 E55.19321
G1 X190.372 Y130.439 E55.21315
G1 X190.239 Y130.759 E55.23332
G1 X190.049 Y131.044 E55.25325
G1 X189.733 Y131.361 E55.2793
G1 X189.538 Y131.502 E55.2933
G1 X189.128 Y131.683 E55.31938
G1 X188.894 Y131.739 E55.33338
G1 X136.186 Y131.75 E58.40072
G1 X135.85 Y131.683 E58.42066
G1 X135.53 Y131.55 E58.44083
G1 X135.244 Y131.359 E58.46084
G1 X134.866 Y130.966 E58.49257
G1 X134.739 Y130.758 E58.50675
G1 X134.591 Y130.389 E58.52989
G1 X134.54 Y130.102 E58.54685
G1 X134.54 Y126.75 E58.74192
G1 X68.195 Y126.75 E62.60286
G1 X67.464 Y127.476 E62.66282
G1 X66.153 Y128.537 E62.76097
G1 X64.649 Y129.514 E62.86534
G1 X63.048 Y130.325 E62.96978
G1 X61.37 Y130.96 E63.07419
G1 X59.64 Y131.411 E63.17823
G1 X57.858 Y131.676 E63.28307
G1 X56.072 Y131.748 E63.38709
G1 X54.281 Y131.628 E63.49155
G1 X52.4 Y131.291 E63.60276
G1 X50.737 Y130.802 E63.70364
G1 X49.127 Y130.141 E63.80492
G1 X47.45 Y129.227 E63.91607
G1 X46 Y128.216 E64.01894
G1 X44.677 Y127.069 E64.12084
G1 X43.46 Y125.768 E64.22451
G1 X42.4 Y124.361 E64.32703
G1 X41.428 Y122.725 E64.43777
G1 X40.704 Y121.135 E64.53944
G1 X40.151 Y119.484 E64.64077
G1 X39.747 Y117.624 E64.75154
G1 X39.562 Y115.866 E64.85441
G1 X39.565 Y114.078 E64.95846
G1 X39.76 Y112.295 E65.06284
G1 X40.137 Y110.569 E65.16565
G1 X40.693 Y108.892 E65.26847
G1 X41.436 Y107.259 E65.37288
G1 X42.335 Y105.737 E65.47575
G1 X43.397 Y104.309 E65.57931
G1 X44.71 Y102.898 E65.69148
G1 X46.071 Y101.729 E65.79589
G1 X47.549 Y100.712 E65.9003
G1 X49.015 Y99.919 E65.9973
M204 S2500
G1 X49.253 Y100.357 F7200
M204 S2000
G1 F3000
G1 X50.916 Y99.665 E66.10212
G1 X52.573 Y99.182 E66.20256
G1 X54.275 Y98.876 E66.3032
G1 X56.012 Y98.753 E66.40454
G1 X57.772 Y98.818 E66.50703
G1 X59.501 Y99.071 E66.60872
G1 X61.206 Y99.512 E66.71121
G1 X62.835 Y100.127 E66.81254
G1 X64.388 Y100.913 E66.91383
G1 X65.848 Y101.86 E67.0151
G1 X67.14 Y102.904 E67.11177
G1 X67.988 Y103.75 E67.18148
G1 X135.039 Y103.75 E71.08351
G1 X135.039 Y99.919 E71.30645
G1 X135.065 Y99.772 E71.31514
G1 X135.193 Y99.451 E71.33525
G1 X135.272 Y99.326 E71.34386
G1 X135.582 Y99.011 E71.36958
G1 X135.744 Y98.902 E71.38094
G1 X136.019 Y98.788 E71.39826
G1 X136.211 Y98.75 E71.40965
G1 X188.813 Y98.755 E74.47082
G1 X188.956 Y98.787 E74.47935
G1 X189.274 Y98.923 E74.49948
G1 X189.395 Y99.009 E74.50812
G1 X189.678 Y99.292 E74.53141
G1 X189.787 Y99.455 E74.54282
G1 X189.901 Y99.729 E74.56009
G1 X189.939 Y99.922 E74.57154
G1 X189.939 Y130.078 E76.32647
G1 X189.901 Y130.271 E76.33792
G1 X189.787 Y130.545 E76.35519
G1 X189.678 Y130.708 E76.3666
G1 X189.395 Y130.991 E76.38989
G1 X189.274 Y131.077 E76.39853
G1 X188.956 Y131.213 E76.41866
G1 X188.813 Y131.245 E76.42719
G1 X136.211 Y131.25 E79.48836
G1 X136.019 Y131.212 E79.49975
G1 X135.744 Y131.098 E79.51707
G1 X135.582 Y130.989 E79.52843
G1 X135.272 Y130.674 E79.55415
G1 X135.193 Y130.549 E79.56276
G1 X135.065 Y130.228 E79.58287
G1 X135.039 Y130.081 E79.59156
G1 X135.039 Y126.25 E79.8145
G1 X67.988 Y126.25 E83.71653
G1 X67.14 Y127.096 E83.78624
G1 X65.848 Y128.14 E83.88291
G1 X64.388 Y129.087 E83.98418
G1 X62.835 Y129.873 E84.08547
G1 X61.206 Y130.488 E84.1868
G1 X59.527 Y130.923 E84.28774
G1 X57.798 Y131.179 E84.38946
G1 X56.066 Y131.248 E84.49033
G1 X54.329 Y131.131 E84.59164
G1 X52.528 Y130.808 E84.69812
G1 X50.89 Y130.326 E84.79748
G1 X49.33 Y129.684 E84.89565
G1 X47.724 Y128.809 E85.00208
G1 X46.318 Y127.83 E85.10178
G1 X45.014 Y126.7 E85.20219
G1 X43.835 Y125.436 E85.30278
G1 X42.808 Y124.071 E85.40219
G1 X41.877 Y122.505 E85.50821
G1 X41.174 Y120.964 E85.60678
G1 X40.63 Y119.338 E85.70656
G1 X40.243 Y117.558 E85.81257
G1 X40.062 Y115.853 E85.91235
G1 X40.064 Y114.118 E86.01332
G1 X40.251 Y112.388 E86.11458
G1 X40.616 Y110.714 E86.21429
G1 X41.154 Y109.087 E86.31402
G1 X41.874 Y107.502 E86.41533
G1 X42.759 Y106.002 E86.51668
G1 X43.79 Y104.618 E86.61711
G1 X45.046 Y103.268 E86.72442
G1 X46.366 Y102.133 E86.82573
G1 X47.8 Y101.145 E86.92707
G1 X49.2 Y100.385 E87.01977
M204 S2500
G1 X49.438 Y100.824 F7200
M204 S2000
G1 F3000
G1 X51.069 Y100.141 E87.12267
G1 X52.674 Y99.672 E87.21998
G1 X54.35 Y99.371 E87.31908
G1 X56.033 Y99.253 E87.41726
G1 X57.713 Y99.315 E87.51509
G1 X59.389 Y99.559 E87.61365
G1 X61.043 Y99.985 E87.71305
G1 X62.622 Y100.58 E87.81125
G1 X64.128 Y101.34 E87.90942
G1 X65.544 Y102.257 E88.00759
G1 X66.815 Y103.285 E88.10272
G1 X67.781 Y104.25 E88.18218
G1 X135.539 Y104.25 E92.12535
G1 X135.539 Y99.946 E92.37582
G1 X135.671 Y99.628 E92.39586
G1 X135.917 Y99.382 E92.41611
G1 X136.235 Y99.25 E92.43615
G1 X188.791 Y99.26 E95.49464
G1 X189.061 Y99.382 E95.51188
G1 X189.307 Y99.628 E95.53213
G1 X189.439 Y99.946 E95.55217
G1 X189.43 Y130.102 E97.3071
G1 X189.307 Y130.372 E97.32437
G1 X189.061 Y130.618 E97.34462
G1 X188.743 Y130.75 E97.36466
G1 X136.235 Y130.75 E100.42036
G1 X135.917 Y130.618 E100.4404
G1 X135.671 Y130.372 E100.46065
G1 X135.539 Y130.054 E100.48069
G1 X135.539 Y125.75 E100.73116
G1 X67.781 Y125.75 E104.67433
G1 X66.815 Y126.715 E104.75379
G1 X65.544 Y127.743 E104.84892
G1 X64.128 Y128.66 E104.94709
G1 X62.622 Y129.42 E105.04526
G1 X61.042 Y130.015 E105.14351
G1 X59.415 Y130.436 E105.24131
G1 X57.739 Y130.682 E105.33989
G1 X56.06 Y130.748 E105.43767
G1 X54.376 Y130.633 E105.5359
G1 X52.656 Y130.325 E105.63759
G1 X51.069 Y129.859 E105.73384
G1 X49.533 Y129.227 E105.8305
G1 X47.998 Y128.391 E105.93222
G1 X46.634 Y127.443 E106.02889
G1 X45.37 Y126.349 E106.12617
M73 P1 R39
G1 X44.226 Y125.125 E106.22367
G1 X43.215 Y123.782 E106.3215
G1 X42.326 Y122.285 E106.42282
G1 X41.634 Y120.768 E106.51985
G1 X41.108 Y119.193 E106.61648
G1 X40.738 Y117.492 E106.71778
G1 X40.561 Y115.814 E106.81597
G1 X40.564 Y114.133 E106.9138
G1 X40.747 Y112.456 E107.01197
G1 X41.101 Y110.833 E107.10864
G1 X41.624 Y109.257 E107.20527
G1 X42.323 Y107.721 E107.30348
G1 X43.182 Y106.268 E107.40171
G1 X44.182 Y104.928 E107.49901
G1 X45.383 Y103.638 E107.60158
G1 X46.661 Y102.536 E107.69978
G1 X48.05 Y101.578 E107.79797
G1 X49.385 Y100.852 E107.88641
M204 S2500
G1 X49.624 Y101.291 F7200
M204 S2000
G1 F3000
G1 X49.736 Y101.23 E107.89383
G1 X51.247 Y100.608 E107.98892
G1 X52.801 Y100.156 E108.0831
G1 X54.424 Y99.865 E108.17906
G1 X56.054 Y99.752 E108.27415
G1 X57.68 Y99.814 E108.36884
G1 X59.304 Y100.051 E108.46435
G1 X60.879 Y100.458 E108.55902
G1 X62.409 Y101.032 E108.65412
G1 X63.868 Y101.767 E108.74919
G1 X65.241 Y102.654 E108.84432
G1 X66.49 Y103.665 E108.93783
G1 X67.574 Y104.75 E109.02708
G1 X136.039 Y104.75 E113.0114
G1 X136.039 Y100.021 E113.2866
G1 X136.077 Y99.929 E113.29239
G1 X136.218 Y99.788 E113.30399
G1 X136.31 Y99.75 E113.30978
G1 X188.669 Y99.75 E116.35681
G1 X188.761 Y99.788 E116.3626
G1 X188.901 Y99.929 E116.37416
G1 X188.939 Y100.021 E116.37995
G1 X188.939 Y129.979 E118.12335
G1 X188.901 Y130.071 E118.12914
M73 P2 R39
G1 X188.761 Y130.212 E118.1407
G1 X188.669 Y130.25 E118.14649
G1 X136.31 Y130.25 E121.19352
G1 X136.218 Y130.212 E121.19931
G1 X136.077 Y130.071 E121.21091
G1 X136.039 Y129.979 E121.2167
G1 X136.039 Y125.25 E121.4919
G1 X67.574 Y125.25 E125.47622
G1 X66.49 Y126.335 E125.56547
G1 X65.241 Y127.346 E125.65898
G1 X63.868 Y128.233 E125.75411
G1 X62.409 Y128.968 E125.84918
G1 X60.879 Y129.542 E125.94428
G1 X59.304 Y129.949 E126.03895
G1 X57.68 Y130.186 E126.13446
G1 X56.054 Y130.248 E126.22915
G1 X54.424 Y130.135 E126.32424
G1 X52.784 Y129.841 E126.4212
G1 X51.222 Y129.383 E126.51593
G1 X49.736 Y128.77 E126.60948
G1 X48.273 Y127.972 E126.70646
G1 X46.931 Y127.04 E126.80154
G1 X45.708 Y125.98 E126.89572
G1 X44.601 Y124.794 E126.99013
G1 X43.623 Y123.492 E127.08489
G1 X42.775 Y122.065 E127.18149
G1 X42.104 Y120.597 E127.27542
G1 X41.587 Y119.048 E127.37045
G1 X41.234 Y117.425 E127.46711
G1 X41.061 Y115.801 E127.56215
G1 X41.062 Y114.173 E127.65689
G1 X41.238 Y112.549 E127.75195
G1 X41.58 Y110.978 E127.84552
G1 X42.094 Y109.427 E127.94061
G1 X42.772 Y107.941 E128.03566
G1 X43.605 Y106.535 E128.13076
G1 X44.574 Y105.239 E128.22493
G1 X45.72 Y104.007 E128.32285
G1 X46.957 Y102.94 E128.41792
G1 X48.301 Y102.01 E128.51303
G1 X49.571 Y101.32 E128.59714
M204 S2500
G1 E127.19714 F4800
;WIPE_START
G1 F5760
G1 X49.736 Y101.23 E127.04835
G1 X50.263 Y101.013 E126.59714
;WIPE_END
G92 E0
G1 X136.689 Y124.6 F7200
G1 E2 F4800
M204 S2000
;TYPE:External perimeter
G1 F3000
G1 X67.303 Y124.6 E6.03791
G1 X66.067 Y125.841 E6.13984
G1 X64.851 Y126.825 E6.23087
G1 X63.537 Y127.673 E6.32188
G1 X62.139 Y128.376 E6.41294
G1 X60.675 Y128.925 E6.50393
G1 X59.16 Y129.314 E6.59496
G1 X57.612 Y129.539 E6.68599
G1 X56.049 Y129.597 E6.77701
G1 X54.488 Y129.488 E6.86807
G1 X52.949 Y129.212 E6.95906
