; generated by AnycubicSlicer 1.1.1 on 2024-10-13 at 00:04:28 UTC

; 

; external perimeters extrusion width = 0.45mm
; perimeters extrusion width = 0.40mm
; infill extrusion width = 0.45mm
; solid infill extrusion width = 0.50mm
; top infill extrusion width = 0.45mm
; first layer extrusion width = 0.56mm

M73 P0 R4
M201 X2500 Y2500 Z800 E2500 ; sets maximum accelerations, mm/sec^2
M203 X300 Y250 Z8 E80 ; sets maximum feedrates, mm / sec
M204 P2500 R2500 T2500 ; sets acceleration (P, T) and retract acceleration (R), mm/sec^2
M205 X15.00 Y10.00 Z2.00 E10.00 ; sets the jerk limits, mm/sec
M205 S0 T0 ; sets the minimum extruding and travel feed rate, mm/sec
M107
;TYPE:Custom
G90 ; use absolute coordinates
M83 ; extruder relative mode
M104 S195 ; set extruder temp
M140 S40 ; set bed temp
M190 S40 ; wait for bed temp
M109 S195 ; wait for extruder temp
G28                                        ; move X/Y/Z to min endstops
G1 Z0.28                                   ; lift nozzle a bit 
G92 E0 
G1 Y3 F1800                                    ; zero the extruded length 
G1 X60  E25 F500                       ; Extrude 25mm of filament in a 5cm line. 
G92 E0                                     ; zero the extruded length again 
G1 E-2 F500                                ; Retract a little 
M73 P2 R4
G1 X70 F4000                              ; Quickly wipe away from the filament line
M117
G21 ; set units to millimeters
G90 ; use absolute coordinates
M82 ; use absolute distances for extrusion
G92 E0
; Filament gcode
M107
;LAYER_CHANGE
;Z:0.28
;HEIGHT:0.28
; BEFORE_LAYER_CHANGE 0 @ 0.28mm
M73 P3 R4
G1 E-2 F4800
G92 E0
G1 Z.28 F7200
; AFTER_LAYER_CHANGE 0 @ 0.28mm
G1 X109.852 Y110.221
G1 E2 F4800
M204 S2000
;TYPE:Skirt/Brim
;WIDTH:0.56
G1 F900
G1 X110.376 Y109.712 E2.04251
G1 X110.974 Y109.244 E2.0867
G1 X111.623 Y108.841 E2.13116
G1 X112.481 Y108.443 E2.1862
G1 X113.177 Y108.217 E2.22879
G1 X113.896 Y108.063 E2.27158
G1 X114.624 Y107.986 E2.31418
G1 X115.354 Y107.985 E2.35666
G1 X116.071 Y108.058 E2.3986
G1 X116.795 Y108.209 E2.44164
G1 X117.689 Y108.511 E2.49655
G1 X118.351 Y108.827 E2.53924
G1 X118.998 Y109.225 E2.58345
G1 X119.592 Y109.685 E2.62717
G1 X120.121 Y110.192 E2.66981
G1 X120.593 Y110.75 E2.71234
G1 X121.003 Y111.352 E2.75473
G1 X121.349 Y111.994 E2.79717
G1 X121.629 Y112.677 E2.84013
G1 X121.88 Y113.585 E2.89495
G1 X121.992 Y114.332 E2.93891
G1 X122.023 Y115.089 E2.983
G1 X121.98 Y115.789 E3.02381
G1 X121.861 Y116.505 E3.06605
G1 X121.669 Y117.206 E3.10835
G1 X121.415 Y117.86 E3.14918
M73 P4 R4
G1 X121.07 Y118.534 E3.19324
G1 X120.634 Y119.197 E3.23942
G1 X119.984 Y119.924 E3.29617
G1 X119.45 Y120.404 E3.33796
G1 X118.85 Y120.845 E3.38129
G1 X118.197 Y121.226 E3.42529
G1 X117.507 Y121.535 E3.46929
G1 X116.816 Y121.759 E3.51156
G1 X116.101 Y121.912 E3.55411
G1 X115.379 Y121.989 E3.59637
G1 X114.624 Y121.989 E3.64031
G1 X113.907 Y121.913 E3.68227
G1 X113.22 Y121.769 E3.72312
G1 X112.332 Y121.471 E3.77763
G1 X111.676 Y121.159 E3.8199
G1 X111.035 Y120.768 E3.8636
G1 X110.45 Y120.321 E3.90644
G1 X109.904 Y119.811 E3.94992
G1 X109.365 Y119.196 E3.99751
G1 X108.929 Y118.534 E4.04364
G1 X108.583 Y117.856 E4.08794
G1 X108.312 Y117.146 E4.13217
G1 X108.119 Y116.41 E4.17645
G1 X108.007 Y115.66 E4.22058
G1 X107.977 Y114.908 E4.26438
G1 X108.024 Y114.178 E4.30695
G1 X108.147 Y113.458 E4.34946
G1 X108.35 Y112.74 E4.39288
G1 X108.625 Y112.05 E4.43611
G1 X108.966 Y111.405 E4.47857
G1 X109.371 Y110.798 E4.52104
G1 X109.814 Y110.267 E4.56128
M204 S2500
M73 P4 R3
G1 X110.197 Y110.588 F7200
M204 S2000
G1 F900
G1 X110.714 Y110.081 E4.60342
G1 X111.271 Y109.647 E4.64451
G1 X111.873 Y109.274 E4.68572
G1 X112.651 Y108.914 E4.73561
G1 X113.295 Y108.702 E4.77507
G1 X113.963 Y108.559 E4.81482
G1 X114.663 Y108.485 E4.85578
G1 X115.341 Y108.485 E4.89524
G1 X116.006 Y108.554 E4.93415
G1 X116.677 Y108.695 E4.97405
G1 X117.488 Y108.969 E5.02387
G1 X118.102 Y109.26 E5.06341
G1 X118.703 Y109.629 E5.10445
G1 X119.256 Y110.055 E5.14507
G1 X119.765 Y110.544 E5.18615
G1 X120.202 Y111.062 E5.22559
G1 X120.581 Y111.622 E5.26494
G1 X120.902 Y112.219 E5.30439
M73 P5 R3
G1 X121.161 Y112.852 E5.34419
G1 X121.388 Y113.675 E5.39387
G1 X121.493 Y114.368 E5.43466
G1 X121.524 Y115.071 E5.47561
G1 X121.482 Y115.744 E5.51485
G1 X121.37 Y116.409 E5.55409
G1 X121.19 Y117.06 E5.5934
G1 X120.954 Y117.666 E5.63125
G1 X120.632 Y118.293 E5.67227
G1 X120.227 Y118.906 E5.71503
G1 X119.64 Y119.561 E5.76621
G1 X119.142 Y120.009 E5.80519
G1 X118.585 Y120.421 E5.84551
G1 X117.98 Y120.776 E5.88633
G1 X117.338 Y121.064 E5.92728
G1 X116.698 Y121.274 E5.96648
G1 X116.034 Y121.416 E6.006
G1 X115.364 Y121.489 E6.04522
G1 X114.662 Y121.49 E6.08607
G1 X113.997 Y121.421 E6.12498
G1 X113.337 Y121.283 E6.16422
G1 X112.532 Y121.013 E6.21363
G1 X111.924 Y120.725 E6.25278
G1 X111.327 Y120.362 E6.29344
G1 X110.781 Y119.946 E6.33339
G1 X110.271 Y119.471 E6.37395
G1 X109.773 Y118.905 E6.41782
G1 X109.368 Y118.293 E6.46053
G1 X109.045 Y117.664 E6.50168
G1 X108.792 Y117.005 E6.54276
G1 X108.611 Y116.322 E6.58388
G1 X108.506 Y115.625 E6.6249
G1 X108.476 Y114.927 E6.66556
G1 X108.522 Y114.224 E6.70656
G1 X108.637 Y113.557 E6.74595
G1 X108.827 Y112.89 E6.78631
G1 X109.084 Y112.249 E6.8265
G1 X109.401 Y111.651 E6.86589
G1 X109.779 Y111.088 E6.90535
G1 X110.159 Y110.634 E6.9398
M204 S2500
G1 X110.541 Y110.955 F7200
M204 S2000
G1 F900
G1 X111.051 Y110.451 E6.98153
G1 X111.566 Y110.05 E7.01951
G1 X112.122 Y109.708 E7.0575
G1 X112.821 Y109.384 E7.10234
G1 X113.415 Y109.188 E7.13874
G1 X114.03 Y109.054 E7.17537
G1 X114.678 Y108.984 E7.2133
G1 X115.302 Y108.983 E7.24961
G1 X115.941 Y109.05 E7.287
G1 X116.559 Y109.181 E7.32376
G1 X117.288 Y109.427 E7.36853
G1 X117.853 Y109.694 E7.4049
G1 X118.41 Y110.034 E7.44288
G1 X118.921 Y110.426 E7.48036
M73 P6 R3
G1 X119.392 Y110.877 E7.51831
G1 X119.796 Y111.355 E7.55473
G1 X120.147 Y111.87 E7.591
G1 X120.455 Y112.443 E7.62886
G1 X120.692 Y113.027 E7.66554
G1 X120.897 Y113.766 E7.71017
G1 X120.995 Y114.404 E7.74773
G1 X121.024 Y115.054 E7.78559
G1 X120.986 Y115.676 E7.82185
G1 X120.885 Y116.29 E7.85806
G1 X120.72 Y116.891 E7.89433
G1 X120.493 Y117.473 E7.93068
G1 X120.195 Y118.051 E7.96852
G1 X119.821 Y118.614 E8.00785
G1 X119.295 Y119.199 E8.05363
G1 X118.835 Y119.615 E8.08972
G1 X118.32 Y119.997 E8.12704
G1 X117.761 Y120.326 E8.16479
G1 X117.169 Y120.593 E8.20258
G1 X116.578 Y120.788 E8.2388
G1 X115.966 Y120.921 E8.27525
G1 X115.348 Y120.989 E8.31143
G1 X114.7 Y120.992 E8.34914
G1 X114.062 Y120.925 E8.38647
G1 X113.455 Y120.797 E8.42257
G1 X112.732 Y120.554 E8.46696
G1 X112.171 Y120.29 E8.50304
G1 X111.619 Y119.956 E8.54059
G1 X111.112 Y119.571 E8.57764
G1 X110.636 Y119.13 E8.6154
G1 X110.179 Y118.614 E8.65551
G1 X109.805 Y118.051 E8.69484
G1 X109.506 Y117.471 E8.73281
G1 X109.271 Y116.862 E8.7708
G1 X109.103 Y116.232 E8.80874
G1 X109.005 Y115.589 E8.84659
G1 X108.976 Y114.945 E8.88411
G1 X109.017 Y114.295 E8.92201
G1 X109.122 Y113.679 E8.95838
G1 X109.296 Y113.062 E8.99569
G1 X109.533 Y112.47 E9.0328
G1 X109.824 Y111.918 E9.06911
G1 X110.186 Y111.378 E9.10694
G1 X110.503 Y111.001 E9.1356
M204 S2500
G1 X110.885 Y111.321 F7200
M204 S2000
G1 F900
G1 X111.388 Y110.82 E9.17691
G1 X111.861 Y110.454 E9.21171
G1 X112.371 Y110.141 E9.24653
G1 X112.991 Y109.854 E9.28629
G1 X113.558 Y109.667 E9.32103
G1 X114.122 Y109.546 E9.3546
G1 X114.717 Y109.483 E9.38942
G1 X115.288 Y109.483 E9.42265
G1 X115.874 Y109.545 E9.45694
G1 X116.44 Y109.667 E9.49063
G1 X117.088 Y109.886 E9.53044
G1 X117.606 Y110.129 E9.56374
G1 X118.117 Y110.439 E9.59852
G1 X118.586 Y110.798 E9.63289
G1 X119.019 Y111.21 E9.66767
M73 P7 R3
G1 X119.406 Y111.667 E9.70252
G1 X119.726 Y112.139 E9.73571
G1 X120.007 Y112.666 E9.77047
G1 X120.223 Y113.201 E9.80405
G1 X120.405 Y113.858 E9.84372
G1 X120.496 Y114.441 E9.87806
G1 X120.524 Y115.039 E9.9129
G1 X120.491 Y115.608 E9.94607
G1 X120.399 Y116.17 E9.97921
G1 X120.241 Y116.746 E10.01397
G1 X120.033 Y117.277 E10.04716
G1 X119.758 Y117.808 E10.08196
G1 X119.415 Y118.321 E10.11787
G1 X118.95 Y118.837 E10.15829
G1 X118.526 Y119.222 E10.19162
G1 X118.053 Y119.574 E10.22593
G1 X117.542 Y119.877 E10.2605
G1 X117 Y120.123 E10.29514
G1 X116.435 Y120.309 E10.32976
G1 X115.874 Y120.429 E10.36315
G1 X115.308 Y120.491 E10.39629
G1 X114.713 Y120.492 E10.43092
G1 X114.128 Y120.43 E10.46515
G1 X113.573 Y120.311 E10.49818
G1 X112.93 Y120.095 E10.53765
G1 X112.417 Y119.855 E10.57061
G1 X111.91 Y119.549 E10.60507
G1 X111.442 Y119.195 E10.63922
G1 X111.001 Y118.788 E10.67414
G1 X110.585 Y118.321 E10.71054
G1 X110.242 Y117.808 E10.74645
G1 X109.967 Y117.277 E10.78125
G1 X109.75 Y116.719 E10.81609
G1 X109.595 Y116.142 E10.85086
G1 X109.503 Y115.551 E10.88567
G1 X109.476 Y114.961 E10.92004
G1 X109.512 Y114.364 E10.95485
G1 X109.607 Y113.801 E10.98808
G1 X109.766 Y113.234 E11.02235
G1 X109.982 Y112.69 E11.05641
G1 X110.247 Y112.185 E11.0896
G1 X110.579 Y111.688 E11.12438
G1 X110.847 Y111.367 E11.14872
M204 S2500
G1 X111.229 Y111.688 F7200
M204 S2000
G1 F900
G1 X111.331 Y111.567 E11.15793
G1 X111.724 Y111.191 E11.18958
G1 X112.155 Y110.859 E11.22124
G1 X112.619 Y110.576 E11.25287
G1 X113.162 Y110.324 E11.28771
G1 X113.678 Y110.153 E11.31934
G1 X114.189 Y110.041 E11.34978
G1 X114.73 Y109.983 E11.38144
G1 X115.274 Y109.983 E11.4131
G1 X115.806 Y110.041 E11.44424
G1 X116.32 Y110.152 E11.47484
G1 X116.889 Y110.344 E11.50979
G1 X117.381 Y110.575 E11.54142
G1 X117.845 Y110.859 E11.57308
G1 X118.27 Y111.186 E11.60429
G1 X118.664 Y111.562 E11.63598
G1 X119.014 Y111.978 E11.66762
G1 X119.304 Y112.407 E11.69775
G1 X119.559 Y112.888 E11.72943
G1 X119.754 Y113.374 E11.7599
G1 X119.913 Y113.95 E11.79467
G1 X119.997 Y114.48 E11.8259
M73 P8 R3
G1 X120.024 Y115.023 E11.85754
G1 X119.992 Y115.566 E11.88919
G1 X119.908 Y116.075 E11.91921
G1 X119.763 Y116.6 E11.95091
G1 X119.573 Y117.081 E11.98101
G1 X119.321 Y117.564 E12.01271
G1 X119.01 Y118.027 E12.04517
G1 X118.604 Y118.476 E12.0804
G1 X118.216 Y118.829 E12.11093
G1 X117.786 Y119.151 E12.14219
G1 X117.321 Y119.428 E12.17369
G1 X116.829 Y119.653 E12.20517
G1 X116.315 Y119.823 E12.23668
G1 X115.807 Y119.934 E12.26694
G1 X115.268 Y119.992 E12.29849
G1 X114.727 Y119.992 E12.32997
G1 X114.196 Y119.934 E12.36106
G1 X113.693 Y119.825 E12.39101
G1 X113.128 Y119.636 E12.42568
G1 X112.663 Y119.419 E12.45554
G1 X112.199 Y119.141 E12.48702
G1 X111.771 Y118.818 E12.51822
G1 X111.364 Y118.444 E12.55039
G1 X110.99 Y118.028 E12.58294
G1 X110.679 Y117.564 E12.61545
G1 X110.427 Y117.081 E12.64715
G1 X110.229 Y116.575 E12.67877
G1 X110.087 Y116.05 E12.71042
G1 X110.002 Y115.513 E12.74206
G1 X109.976 Y114.977 E12.77329
G1 X110.008 Y114.434 E12.80494
G1 X110.098 Y113.897 E12.83663
G1 X110.243 Y113.383 E12.86771
G1 X110.441 Y112.889 E12.89868
G1 X110.683 Y112.43 E12.92888
G1 X110.986 Y111.978 E12.96055
G1 X111.191 Y111.734 E12.9791
M204 S2500
G1 X111.572 Y112.056 F7200
M204 S2000
G1 F900
G1 X111.704 Y111.9 E12.99099
G1 X112.059 Y111.562 E13.01952
G1 X112.447 Y111.264 E13.04799
G1 X112.866 Y111.01 E13.0765
G1 X113.334 Y110.793 E13.10652
G1 X113.799 Y110.638 E13.13504
G1 X114.258 Y110.537 E13.16239
G1 X114.746 Y110.483 E13.19096
G1 X115.236 Y110.482 E13.21948
G1 X115.714 Y110.532 E13.24745
G1 X116.201 Y110.638 E13.27645
G1 X116.69 Y110.803 E13.30648
G1 X117.134 Y111.01 E13.33499
G1 X117.552 Y111.264 E13.36345
G1 X117.936 Y111.558 E13.39159
G1 X118.291 Y111.895 E13.42008
G1 X118.608 Y112.269 E13.44861
G1 X118.882 Y112.675 E13.47711
G1 X119.11 Y113.109 E13.50564
G1 X119.284 Y113.546 E13.53301
G1 X119.422 Y114.043 E13.56303
G1 X119.499 Y114.52 E13.59115
G1 X119.524 Y115.009 E13.61964
G1 X119.497 Y115.499 E13.6482
G1 X119.422 Y115.956 E13.67515
G1 X119.293 Y116.429 E13.70368
G1 X119.113 Y116.885 E13.73221
G1 X118.885 Y117.319 E13.76074
G1 X118.606 Y117.732 E13.78974
G1 X118.259 Y118.115 E13.81982
G1 X117.906 Y118.437 E13.84763
G1 X117.517 Y118.73 E13.87597
G1 X117.099 Y118.98 E13.90431
G1 X116.657 Y119.183 E13.93262
G1 X116.194 Y119.338 E13.96103
G1 X115.738 Y119.439 E13.98821
M73 P9 R3
G1 X115.253 Y119.492 E14.0166
G1 X114.766 Y119.493 E14.04494
G1 X114.288 Y119.443 E14.07291
G1 X113.812 Y119.34 E14.10125
G1 X113.325 Y119.176 E14.13115
G1 X112.907 Y118.983 E14.15794
G1 X112.488 Y118.733 E14.18633
G1 X112.099 Y118.441 E14.21464
G1 X111.727 Y118.1 E14.24401
G1 X111.394 Y117.733 E14.27285
G1 X111.115 Y117.319 E14.3019
G1 X110.887 Y116.885 E14.33043
G1 X110.707 Y116.429 E14.35896
G1 X110.578 Y115.957 E14.38744
G1 X110.5 Y115.473 E14.41597
G1 X110.476 Y114.991 E14.44405
G1 X110.503 Y114.502 E14.47255
G1 X110.583 Y114.018 E14.5011
G1 X110.713 Y113.555 E14.52909
G1 X110.889 Y113.11 E14.55694
G1 X111.118 Y112.675 E14.58555
G1 X111.392 Y112.269 E14.61405
G1 X111.534 Y112.102 E14.62681
M204 S2500
G1 E13.22681 F4800
;WIPE_START
G1 F5760
G1 X111.704 Y111.9 E13.0178
G1 X112.059 Y111.562 E12.62975
G1 X112.062 Y111.56 E12.62681
;WIPE_END
G92 E0
G1 X111.328 Y116.237 F7200
G1 E2 F4800
M204 S2000
;TYPE:External perimeter
G1 F900
G1 X111.216 Y115.833 E2.0244
G1 X111.148 Y115.419 E2.04882
G1 X111.126 Y115 E2.07324
G1 X111.148 Y114.581 E2.09766
G1 X111.216 Y114.167 E2.12208
G1 X111.326 Y113.771 E2.146
G1 X111.484 Y113.373 E2.17092
G1 X111.68 Y113.003 E2.19529
G1 X111.916 Y112.655 E2.21976
G1 X112.187 Y112.336 E2.24412
G1 X112.492 Y112.047 E2.26857
G1 X112.826 Y111.793 E2.29299
G1 X113.185 Y111.577 E2.31737
G1 X113.566 Y111.401 E2.34179
G1 X113.964 Y111.267 E2.36623
G1 X114.373 Y111.177 E2.3906
G1 X114.79 Y111.131 E2.41501
G1 X115.21 Y111.131 E2.43945
G1 X115.619 Y111.176 E2.4634
G1 X116.037 Y111.267 E2.4883
G1 X116.434 Y111.401 E2.51268
G1 X116.815 Y111.577 E2.5371
G1 X117.174 Y111.793 E2.56148
G1 X117.508 Y112.047 E2.5859
G1 X117.813 Y112.336 E2.61035
G1 X118.084 Y112.655 E2.63471
G1 X118.32 Y113.003 E2.65918
G1 X118.516 Y113.373 E2.68355
G1 X118.672 Y113.763 E2.70799
G1 X118.784 Y114.167 E2.73239
G1 X118.852 Y114.581 E2.75681
G1 X118.874 Y115 E2.78123
G1 X118.852 Y115.419 E2.80565
G1 X118.784 Y115.833 E2.83007
G1 X118.672 Y116.237 E2.85447
G1 X118.516 Y116.627 E2.87891
G1 X118.32 Y116.998 E2.90333
G1 X118.088 Y117.34 E2.92738
G1 X117.808 Y117.646 E2.95152
G1 X117.496 Y117.933 E2.97619
G1 X117.161 Y118.186 E3.00062
G1 X116.803 Y118.401 E3.02492
G1 X116.425 Y118.576 E3.04916
G1 X116.03 Y118.709 E3.07342
G1 X115.623 Y118.799 E3.09768
G1 X115.208 Y118.844 E3.12197
G1 X114.792 Y118.844 E3.14618
G1 X114.377 Y118.799 E3.17047
G1 X113.97 Y118.709 E3.19473
G1 X113.575 Y118.576 E3.21899
G1 X113.197 Y118.401 E3.24323
G1 X112.839 Y118.186 E3.26753
G1 X112.504 Y117.933 E3.29196
G1 X112.192 Y117.646 E3.31663
G1 X111.912 Y117.34 E3.34077
G1 X111.68 Y116.998 E3.36482
G1 X111.484 Y116.627 E3.38924
M73 P10 R3
G1 X111.351 Y116.293 E3.41016
M204 S2500
G1 X111.593 Y115.937 F7200
G1 E2.01016 F4800
;WIPE_START
G1 F5760
G1 X111.216 Y115.833 E1.63063
G1 X111.171 Y115.558 E1.41016
;WIPE_END
G92 E0
G1 X112.398 Y117.17 F7200
G1 E2 F4800
M204 S2000
G1 F900
G1 X112.098 Y116.722 E2.03138
G1 X111.929 Y116.399 E2.05259
G1 X111.796 Y116.06 E2.07378
G1 X111.702 Y115.714 E2.09465
G1 X111.644 Y115.349 E2.11616
G1 X111.626 Y114.985 E2.13737
G1 X111.647 Y114.621 E2.15859
G1 X111.708 Y114.261 E2.17984
G1 X111.807 Y113.911 E2.20101
G1 X111.942 Y113.573 E2.22219
G1 X112.111 Y113.257 E2.24304
G1 X112.319 Y112.951 E2.26457
G1 X112.556 Y112.674 E2.28579
G1 X112.821 Y112.424 E2.30699
G1 X113.111 Y112.204 E2.32817
G1 X113.424 Y112.016 E2.34942
G1 X113.749 Y111.866 E2.37025
G1 X114.099 Y111.748 E2.39174
G1 X114.456 Y111.67 E2.41301
G1 X114.818 Y111.63 E2.4342
G1 X115.182 Y111.63 E2.45538
G1 X115.544 Y111.67 E2.47657
G1 X115.9 Y111.748 E2.49778
G1 X116.239 Y111.862 E2.51859
G1 X116.576 Y112.016 E2.54015
G1 X116.889 Y112.204 E2.5614
G1 X117.174 Y112.42 E2.58221
G1 X117.444 Y112.673 E2.60374
G1 X117.681 Y112.951 E2.625
G1 X117.886 Y113.252 E2.64619
G1 X118.058 Y113.573 E2.66738
G1 X118.191 Y113.905 E2.68819
G1 X118.293 Y114.261 E2.70974
G1 X118.353 Y114.621 E2.73098
G1 X118.374 Y114.978 E2.75179
G1 X118.356 Y115.348 E2.77335
G1 X118.299 Y115.708 E2.79456
G1 X118.204 Y116.06 E2.81578
G1 X118.071 Y116.399 E2.83697
