; generated by AnycubicSlicer 1.1.1 on 2024-10-13 at 00:16:07 UTC

; 

; external perimeters extrusion width = 0.45mm
; perimeters extrusion width = 0.40mm
; infill extrusion width = 0.45mm
; solid infill extrusion width = 0.50mm
; top infill extrusion width = 0.45mm
; first layer extrusion width = 0.56mm

M73 P0 R5
M201 X2500 Y2500 Z800 E2500 ; sets maximum accelerations, mm/sec^2
M203 X300 Y250 Z8 E80 ; sets maximum feedrates, mm / sec
M204 P2500 R2500 T2500 ; sets acceleration (P, T) and retract acceleration (R), mm/sec^2
M205 X15.00 Y10.00 Z2.00 E10.00 ; sets the jerk limits, mm/sec
M205 S0 T0 ; sets the minimum extruding and travel feed rate, mm/sec
M107
;TYPE:Custom
G90 ; use absolute coordinates
M83 ; extruder relative mode
M104 S195 ; set extruder temp
M140 S40 ; set bed temp
M190 S40 ; wait for bed temp
M109 S195 ; wait for extruder temp
G28                                        ; move X/Y/Z to min endstops
G1 Z0.28                                   ; lift nozzle a bit 
G92 E0 
G1 Y3 F1800                                    ; zero the extruded length 
G1 X60  E25 F500                       ; Extrude 25mm of filament in a 5cm line. 
G92 E0                                     ; zero the extruded length again 
G1 E-2 F500                                ; Retract a little 
M73 P2 R5
G1 X70 F4000                              ; Quickly wipe away from the filament line
M117
G21 ; set units to millimeters
G90 ; use absolute coordinates
M82 ; use absolute distances for extrusion
G92 E0
; Filament gcode
M107
;LAYER_CHANGE
;Z:0.28
;HEIGHT:0.28
; BEFORE_LAYER_CHANGE 0 @ 0.28mm
G1 E-2 F4800
G92 E0
G1 Z.28 F7200
; AFTER_LAYER_CHANGE 0 @ 0.28mm
G1 X109.889 Y111.403
G1 E2 F4800
M204 S2000
;TYPE:Skirt/Brim
;WIDTH:0.56
G1 F903
G1 X110.374 Y110.936 E2.03918
G1 X111.068 Y110.401 E2.09017
G1 X111.735 Y110.003 E2.13537
G1 X112.43 Y109.685 E2.17985
G1 X113.14 Y109.449 E2.22339
G1 X113.849 Y109.293 E2.26564
G1 X114.56 Y109.212 E2.30728
G1 X115.412 Y109.21 E2.35686
G1 X116.195 Y109.3 E2.40273
G1 X116.946 Y109.473 E2.44758
G1 X117.689 Y109.733 E2.49339
G1 X118.377 Y110.063 E2.5378
G1 X119.021 Y110.463 E2.58192
G1 X119.557 Y110.877 E2.62133
G1 X120.067 Y111.357 E2.66209
G1 X120.595 Y111.976 E2.70944
G1 X121.053 Y112.658 E2.75725
G1 X121.404 Y113.337 E2.80173
G1 X121.681 Y114.054 E2.84646
G1 X121.878 Y114.798 E2.89125
M73 P3 R5
G1 X121.995 Y115.584 E2.9375
G1 X122.023 Y116.346 E2.98187
G1 X121.968 Y117.105 E3.02616
G1 X121.834 Y117.844 E3.06987
G1 X121.641 Y118.515 E3.1105
G1 X121.363 Y119.244 E3.1559
G1 X120.77 Y120.037 E3.21352
G1 X120.083 Y120.521 E3.26243
G1 X119.364 Y120.769 E3.30669
G1 X118.538 Y120.866 E3.35509
G1 X117.708 Y120.864 E3.40339
G1 X116.744 Y120.73 E3.46003
G1 X116.081 Y120.452 E3.50187
G1 X115.561 Y120.059 E3.5398
G1 X114.97 Y119.385 E3.59197
G1 X114.564 Y119.937 E3.63185
G1 X114.003 Y120.399 E3.67414
G1 X113.426 Y120.682 E3.71154
G1 X112.37 Y120.858 E3.77384
G1 X111.454 Y120.865 E3.82715
G1 X110.631 Y120.768 E3.87538
G1 X109.979 Y120.553 E3.91533
G1 X109.228 Y120.034 E3.96846
G1 X108.701 Y119.361 E4.0182
G1 X108.339 Y118.453 E4.07509
G1 X108.134 Y117.703 E4.12034
G1 X108.02 Y117.004 E4.16156
G1 X107.976 Y116.269 E4.20441
G1 X108.018 Y115.457 E4.25173
G1 X108.134 Y114.742 E4.29388
G1 X108.317 Y114.06 E4.33497
G1 X108.615 Y113.295 E4.38275
G1 X108.991 Y112.585 E4.4295
G1 X109.451 Y111.915 E4.4768
G1 X109.85 Y111.449 E4.5125
M204 S2500
G1 X110.23 Y111.774 F7200
M204 S2000
G1 F903
G1 X110.71 Y111.306 E4.55151
G1 X111.338 Y110.822 E4.59765
G1 X111.957 Y110.451 E4.63965
G1 X112.602 Y110.155 E4.68095
G1 X113.261 Y109.934 E4.7214
G1 X113.919 Y109.788 E4.76062
G1 X114.603 Y109.71 E4.80068
G1 X115.371 Y109.708 E4.84537
G1 X116.098 Y109.791 E4.88795
G1 X116.795 Y109.95 E4.92955
G1 X117.486 Y110.19 E4.97212
G1 X118.126 Y110.495 E5.01338
G1 X118.726 Y110.866 E5.05443
G1 X119.241 Y111.264 E5.09231
G1 X119.713 Y111.711 E5.13014
G1 X120.205 Y112.289 E5.17431
G1 X120.616 Y112.901 E5.21721
G1 X120.943 Y113.531 E5.25852
G1 X121.202 Y114.196 E5.30005
G1 X121.386 Y114.887 E5.34166
G1 X121.496 Y115.617 E5.38462
G1 X121.523 Y116.325 E5.42585
G1 X121.474 Y117.031 E5.46703
G1 X121.35 Y117.719 E5.50771
G1 X121.17 Y118.348 E5.54578
G1 X120.908 Y119.034 E5.58851
G1 X120.445 Y119.655 E5.63359
G1 X119.88 Y120.063 E5.67415
G1 X119.276 Y120.276 E5.71142
M73 P4 R5
G1 X118.523 Y120.366 E5.75555
G1 X117.724 Y120.364 E5.80205
G1 X116.901 Y120.254 E5.85037
G1 X116.355 Y120.033 E5.88465
G1 X115.884 Y119.677 E5.91901
G1 X115.601 Y119.348 E5.94426
G1 X114.989 Y117.987 E6.0311
G1 X114.511 Y119.156 E6.1046
G1 X114.218 Y119.574 E6.13431
G1 X113.707 Y119.996 E6.17288
G1 X113.306 Y120.195 E6.19893
G1 X112.308 Y120.362 E6.25782
G1 X111.468 Y120.365 E6.3067
G1 X110.717 Y120.275 E6.35072
G1 X110.176 Y120.092 E6.38396
G1 X109.549 Y119.65 E6.4286
G1 X109.122 Y119.089 E6.46963
G1 X108.81 Y118.285 E6.51982
G1 X108.625 Y117.609 E6.56061
G1 X108.518 Y116.961 E6.59883
G1 X108.476 Y116.253 E6.6401
G1 X108.514 Y115.522 E6.6827
G1 X108.62 Y114.859 E6.72177
G1 X108.796 Y114.203 E6.7613
G1 X109.064 Y113.515 E6.80427
G1 X109.412 Y112.855 E6.84769
G1 X109.84 Y112.229 E6.89182
G1 X110.191 Y111.82 E6.92318
M204 S2500
G1 X110.57 Y112.144 F7200
M204 S2000
G1 F903
G1 X111.047 Y111.676 E6.96207
G1 X111.609 Y111.243 E7.00336
G1 X112.178 Y110.899 E7.04205
G1 X112.798 Y110.614 E7.08176
G1 X113.383 Y110.419 E7.11765
G1 X113.989 Y110.283 E7.15379
G1 X114.646 Y110.208 E7.19227
G1 X115.329 Y110.207 E7.23202
G1 X116.002 Y110.282 E7.27143
G1 X116.645 Y110.427 E7.30979
G1 X117.285 Y110.648 E7.34919
G1 X117.876 Y110.928 E7.38725
G1 X118.432 Y111.271 E7.42527
G1 X118.907 Y111.636 E7.46013
G1 X119.36 Y112.065 E7.49644
G1 X119.799 Y112.58 E7.53582
G1 X120.179 Y113.146 E7.57549
G1 X120.483 Y113.726 E7.6136
G1 X120.723 Y114.34 E7.65196
G1 X120.894 Y114.977 E7.69034
G1 X120.997 Y115.652 E7.73008
G1 X121.023 Y116.305 E7.76811
G1 X120.979 Y116.957 E7.80614
G1 X120.866 Y117.594 E7.84379
G1 X120.699 Y118.18 E7.87925
G1 X120.455 Y118.821 E7.91916
G1 X120.074 Y119.318 E7.9556
G1 X119.625 Y119.632 E7.98749
G1 X119.19 Y119.783 E8.01429
G1 X118.48 Y119.868 E8.0559
G1 X117.744 Y119.864 E8.09873
G1 X117.003 Y119.764 E8.14224
G1 X116.582 Y119.587 E8.16882
G1 X116.214 Y119.301 E8.19594
G1 X116.008 Y119.056 E8.21457
G1 X115.713 Y118.382 E8.25739
G1 X115.656 Y118.067 E8.27602
G1 X115.754 Y117.34 E8.31871
G1 X115.888 Y117.057 E8.33693
G1 X116.101 Y116.769 E8.35778
G1 X116.203 Y116.434 E8.37816
G1 X116.211 Y116.088 E8.3983
G1 X116.143 Y115.787 E8.41626
G1 X115.89 Y115.379 E8.4442
G1 X115.543 Y115.125 E8.46923
G1 X115.2 Y115.02 E8.49011
G1 X114.931 Y115.005 E8.50579
G1 X114.583 Y115.072 E8.52641
M73 P5 R5
G1 X114.294 Y115.225 E8.54544
G1 X114.134 Y115.36 E8.55762
G1 X113.958 Y115.59 E8.57447
G1 X113.847 Y115.829 E8.58981
G1 X113.782 Y116.121 E8.60722
G1 X113.807 Y116.467 E8.62741
G1 X113.899 Y116.769 E8.64578
G1 X114.112 Y117.057 E8.66663
G1 X114.246 Y117.34 E8.68485
G1 X114.345 Y117.994 E8.72334
G1 X114.288 Y118.38 E8.74605
G1 X114.06 Y118.938 E8.78113
G1 X113.834 Y119.253 E8.80369
G1 X113.419 Y119.586 E8.83465
G1 X113.125 Y119.728 E8.85365
G1 X112.251 Y119.865 E8.90513
G1 X111.484 Y119.866 E8.94977
G1 X110.806 Y119.782 E8.98953
G1 X110.377 Y119.633 E9.01596
G1 X109.877 Y119.27 E9.05192
G1 X109.546 Y118.822 E9.08434
G1 X109.282 Y118.121 E9.12793
G1 X109.116 Y117.513 E9.16461
G1 X109.016 Y116.918 E9.19972
G1 X108.976 Y116.237 E9.23942
G1 X109.009 Y115.588 E9.27724
G1 X109.111 Y114.952 E9.31472
G1 X109.275 Y114.347 E9.3512
G1 X109.513 Y113.735 E9.38941
G1 X109.833 Y113.124 E9.42955
G1 X110.229 Y112.543 E9.47047
G1 X110.531 Y112.189 E9.49755
M204 S2500
G1 X110.912 Y112.514 F7200
M204 S2000
G1 F903
G1 X111.382 Y112.047 E9.53611
G1 X111.88 Y111.663 E9.57271
G1 X112.4 Y111.347 E9.60812
G1 X112.994 Y111.075 E9.64614
G1 X113.529 Y110.897 E9.67895
G1 X114.059 Y110.778 E9.71056
G1 X114.688 Y110.706 E9.7474
G1 X115.315 Y110.707 E9.78389
G1 X115.907 Y110.773 E9.81855
G1 X116.497 Y110.904 E9.85372
G1 X117.084 Y111.106 E9.88985
G1 X117.626 Y111.362 E9.92473
G1 X118.138 Y111.675 E9.95965
G1 X118.592 Y112.025 E9.99301
G1 X119.006 Y112.418 E10.02623
G1 X119.392 Y112.872 E10.06091
G1 X119.744 Y113.391 E10.0974
G1 X120.023 Y113.922 E10.13231
G1 X120.244 Y114.485 E10.16751
G1 X120.402 Y115.068 E10.20266
G1 X120.498 Y115.688 E10.23917
G1 X120.524 Y116.286 E10.274
G1 X120.484 Y116.884 E10.30888
G1 X120.381 Y117.471 E10.34356
G1 X120.227 Y118.013 E10.37635
G1 X120 Y118.61 E10.41352
G1 X119.751 Y118.936 E10.43739
G1 X119.419 Y119.175 E10.4612
G1 X119.1 Y119.29 E10.48093
G1 X118.464 Y119.368 E10.51822
G1 X117.794 Y119.367 E10.55721
G1 X117.103 Y119.273 E10.59779
G1 X116.863 Y119.172 E10.61294
G1 X116.545 Y118.925 E10.63637
G1 X116.42 Y118.771 E10.64791
G1 X116.186 Y118.218 E10.68285
G1 X116.155 Y118.026 E10.69417
G1 X116.224 Y117.512 E10.72435
G1 X116.306 Y117.332 E10.73586
G1 X116.554 Y116.997 E10.76012
G1 X116.687 Y116.564 E10.78648
G1 X116.712 Y116.406 E10.79579
G1 X116.71 Y116.028 E10.81779
G1 X116.627 Y115.66 E10.83974
G1 X116.563 Y115.5 E10.84977
G1 X116.364 Y115.171 E10.87215
G1 X116.247 Y115.034 E10.88263
G1 X116.117 Y114.912 E10.89301
G1 X115.798 Y114.696 E10.91543
G1 X115.642 Y114.624 E10.92543
G1 X115.278 Y114.523 E10.94741
G1 X114.907 Y114.503 E10.96903
G1 X114.534 Y114.564 E10.99103
G1 X114.371 Y114.619 E11.00104
G1 X114.031 Y114.799 E11.02343
G1 X113.888 Y114.907 E11.03386
G1 X113.758 Y115.03 E11.04427
G1 X113.528 Y115.33 E11.06627
G1 X113.371 Y115.667 E11.08791
G1 X113.289 Y116.035 E11.10985
G1 X113.279 Y116.207 E11.11988
G1 X113.315 Y116.57 E11.14111
G1 X113.446 Y116.997 E11.1671
G1 X113.694 Y117.332 E11.19136
G1 X113.777 Y117.514 E11.203
G1 X113.845 Y117.967 E11.22966
G1 X113.812 Y118.223 E11.24468
G1 X113.608 Y118.724 E11.27616
G1 X113.493 Y118.885 E11.28767
G1 X113.132 Y119.176 E11.31465
G1 X112.953 Y119.258 E11.32611
G1 X112.199 Y119.367 E11.37045
G1 X111.501 Y119.366 E11.41107
M73 P6 R5
G1 X110.898 Y119.29 E11.44644
G1 X110.581 Y119.175 E11.46606
G1 X110.249 Y118.936 E11.48987
G1 X110 Y118.61 E11.51374
G1 X109.761 Y117.977 E11.55312
G1 X109.607 Y117.418 E11.58686
G1 X109.512 Y116.849 E11.62043
G1 X109.476 Y116.223 E11.65692
G1 X109.505 Y115.653 E11.69013
G1 X109.597 Y115.069 E11.72453
G1 X109.754 Y114.491 E11.75939
G1 X109.963 Y113.953 E11.79298
G1 X110.255 Y113.392 E11.82979
G1 X110.619 Y112.857 E11.86745
G1 X110.873 Y112.559 E11.89024
M204 S2500
G1 X111.253 Y112.882 F7200
M204 S2000
G1 F903
G1 X111.718 Y112.418 E11.92847
G1 X112.173 Y112.068 E11.96188
G1 X112.646 Y111.783 E11.99402
G1 X113.166 Y111.544 E12.02732
G1 X113.651 Y111.382 E12.05708
G1 X114.156 Y111.269 E12.0872
G1 X114.703 Y111.206 E12.11924
G1 X115.275 Y111.205 E12.15253
G1 X115.813 Y111.264 E12.18403
G1 X116.349 Y111.382 E12.21597
G1 X116.885 Y111.565 E12.24893
G1 X117.378 Y111.796 E12.28061
G1 X117.844 Y112.08 E12.31237
G1 X118.276 Y112.412 E12.34408
G1 X118.651 Y112.771 E12.37429
G1 X118.987 Y113.164 E12.40438
G1 X119.308 Y113.637 E12.43765
G1 X119.563 Y114.12 E12.46943
G1 X119.766 Y114.631 E12.50143
G1 X119.911 Y115.16 E12.53335
G1 X120 Y115.725 E12.56664
G1 X120.024 Y116.269 E12.59833
G1 X119.989 Y116.813 E12.63005
G1 X119.897 Y117.348 E12.66164
G1 X119.756 Y117.845 E12.6917
G1 X119.546 Y118.397 E12.72607
G1 X119.422 Y118.559 E12.73794
G1 X119.203 Y118.723 E12.75386
G1 X119.007 Y118.798 E12.76607
G1 X118.42 Y118.87 E12.80049
G1 X117.814 Y118.867 E12.83576
G1 X117.204 Y118.782 E12.8716
G1 X117.144 Y118.757 E12.87538
G1 X116.881 Y118.553 E12.89475
G1 X116.841 Y118.5 E12.89861
G1 X116.663 Y118.065 E12.92596
G1 X116.654 Y118 E12.92978
G1 X116.699 Y117.67 E12.94916
G1 X116.724 Y117.609 E12.953
G1 X116.937 Y117.332 E12.97333
G1 X117.023 Y117.173 E12.98385
G1 X117.175 Y116.677 E13.01404
G1 X117.212 Y116.445 E13.02771
G1 X117.21 Y115.972 E13.05524
G1 X117.106 Y115.511 E13.08274
G1 X117.012 Y115.276 E13.09747
G1 X116.77 Y114.877 E13.12463
G1 X116.61 Y114.689 E13.139
G1 X116.431 Y114.52 E13.15333
G1 X116.045 Y114.259 E13.18045
G1 X115.814 Y114.153 E13.19524
G1 X115.359 Y114.027 E13.22272
G1 X114.88 Y114.001 E13.25064
G1 X114.414 Y114.077 E13.27812
G1 X114.173 Y114.158 E13.29292
G1 X113.761 Y114.376 E13.32005
G1 X113.565 Y114.525 E13.33438
G1 X113.385 Y114.694 E13.34875
G1 X113.098 Y115.069 E13.37623
G1 X112.895 Y115.504 E13.40417
G1 X112.792 Y115.965 E13.43166
G1 X112.777 Y116.218 E13.44641
G1 X112.823 Y116.67 E13.47285
G1 X112.977 Y117.173 E13.50346
G1 X113.063 Y117.332 E13.51398
G1 X113.276 Y117.609 E13.53431
G1 X113.301 Y117.67 E13.53815
G1 X113.346 Y118 E13.55753
G1 X113.337 Y118.065 E13.56135
G1 X113.159 Y118.5 E13.5887
G1 X113.119 Y118.553 E13.59256
G1 X112.856 Y118.757 E13.61193
G1 X112.795 Y118.783 E13.61579
G1 X112.151 Y118.87 E13.65361
G1 X111.548 Y118.868 E13.6887
G1 X110.992 Y118.798 E13.72131
G1 X110.797 Y118.723 E13.73347
G1 X110.578 Y118.559 E13.74939
G1 X110.454 Y118.397 E13.76126
G1 X110.239 Y117.832 E13.79644
G1 X110.097 Y117.321 E13.8273
G1 X110.01 Y116.805 E13.85775
G1 X109.976 Y116.233 E13.8911
G1 X110.001 Y115.716 E13.92122
G1 X110.084 Y115.185 E13.9525
G1 X110.225 Y114.659 E13.98419
G1 X110.424 Y114.148 E14.0161
G1 X110.691 Y113.637 E14.04965
G1 X111.009 Y113.17 E14.08253
G1 X111.214 Y112.928 E14.10099
M204 S2500
G1 X111.595 Y113.25 F7200
M204 S2000
G1 F903
G1 X111.699 Y113.128 E14.11032
G1 X112.053 Y112.789 E14.13884
G1 X112.465 Y112.475 E14.16899
G1 X112.891 Y112.219 E14.19791
M73 P7 R5
G1 X113.337 Y112.014 E14.22648
G1 X113.797 Y111.86 E14.25471
G1 X114.25 Y111.76 E14.28171
G1 X114.745 Y111.705 E14.31069
G1 X115.236 Y111.704 E14.33926
G1 X115.721 Y111.755 E14.36764
G1 X116.203 Y111.86 E14.39635
G1 X116.687 Y112.024 E14.42609
G1 X117.131 Y112.231 E14.4546
G1 X117.551 Y112.485 E14.48316
G1 X117.941 Y112.784 E14.51176
G1 X118.296 Y113.123 E14.54033
G1 X118.597 Y113.477 E14.56737
G1 X118.873 Y113.883 E14.59594
G1 X119.115 Y114.341 E14.62609
G1 X119.295 Y114.8 E14.65478
G1 X119.425 Y115.277 E14.68355
G1 X119.501 Y115.762 E14.71212
G1 X119.524 Y116.252 E14.74067
G1 X119.494 Y116.742 E14.76924
G1 X119.412 Y117.226 E14.79781
G1 X119.282 Y117.685 E14.82557
G1 X119.118 Y118.139 E14.85366
G1 X119.077 Y118.195 E14.8577
G1 X118.971 Y118.28 E14.86561
G1 X118.908 Y118.307 E14.8696
G1 X118.375 Y118.372 E14.90085
G1 X117.866 Y118.37 E14.93047
G1 X117.372 Y118.301 E14.9595
G1 X117.266 Y118.219 E14.9673
G1 X117.163 Y117.968 E14.98309
G1 X117.181 Y117.835 E14.9909
G1 X117.359 Y117.605 E15.00783
G1 X117.487 Y117.366 E15.02361
G1 X117.663 Y116.789 E15.05872
G1 X117.709 Y116.503 E15.07558
G1 X117.723 Y116.209 E15.09271
G1 X117.706 Y115.916 E15.10979
G1 X117.657 Y115.626 E15.12691
G1 X117.578 Y115.343 E15.14401
G1 X117.468 Y115.07 E15.16114
G1 X117.329 Y114.811 E15.17825
G1 X117.164 Y114.568 E15.19534
G1 X116.973 Y114.344 E15.21247
G1 X116.759 Y114.142 E15.2296
G1 X116.524 Y113.965 E15.24672
G1 X116.272 Y113.814 E15.26382
G1 X116.005 Y113.691 E15.28093
G1 X115.727 Y113.597 E15.29801
G1 X115.439 Y113.534 E15.31517
G1 X115.147 Y113.502 E15.33226
G1 X114.853 Y113.502 E15.34937
G1 X114.561 Y113.534 E15.36646
G1 X114.273 Y113.597 E15.38362
G1 X113.995 Y113.691 E15.4007
G1 X113.728 Y113.814 E15.41781
G1 X113.476 Y113.965 E15.43491
G1 X113.241 Y114.142 E15.45203
G1 X113.027 Y114.344 E15.46916
G1 X112.836 Y114.568 E15.48629
G1 X112.671 Y114.811 E15.50338
G1 X112.532 Y115.07 E15.52049
G1 X112.422 Y115.343 E15.53762
G1 X112.343 Y115.626 E15.55472
G1 X112.294 Y115.916 E15.57184
G1 X112.277 Y116.209 E15.58892
G1 X112.291 Y116.503 E15.60605
G1 X112.337 Y116.789 E15.62291
G1 X112.513 Y117.366 E15.65802
G1 X112.641 Y117.605 E15.6738
G1 X112.819 Y117.835 E15.69073
G1 X112.837 Y117.968 E15.69854
G1 X112.734 Y118.219 E15.71433
G1 X112.629 Y118.301 E15.72208
G1 X112.101 Y118.372 E15.75308
G1 X111.595 Y118.37 E15.78253
G1 X111.093 Y118.307 E15.81197
G1 X111.029 Y118.28 E15.81601
G1 X110.923 Y118.195 E15.82392
G1 X110.883 Y118.139 E15.82792
G1 X110.713 Y117.672 E15.85684
G1 X110.583 Y117.2 E15.88533
G1 X110.505 Y116.736 E15.91271
G1 X110.476 Y116.219 E15.94284
G1 X110.5 Y115.756 E15.96982
G1 X110.575 Y115.277 E15.99804
G1 X110.704 Y114.803 E16.02663
