; generated by AnycubicSlicer 1.1.1 on 2024-09-30 at 02:18:50 UTC

; 

; external perimeters extrusion width = 0.45mm
; perimeters extrusion width = 0.40mm
; infill extrusion width = 0.45mm
; solid infill extrusion width = 0.50mm
; top infill extrusion width = 0.45mm
; first layer extrusion width = 0.56mm

M73 P0 R41
M201 X2500 Y2500 Z800 E2500 ; sets maximum accelerations, mm/sec^2
M203 X300 Y250 Z8 E80 ; sets maximum feedrates, mm / sec
M204 P2500 R2500 T2500 ; sets acceleration (P, T) and retract acceleration (R), mm/sec^2
M205 X15.00 Y10.00 Z2.00 E10.00 ; sets the jerk limits, mm/sec
M205 S0 T0 ; sets the minimum extruding and travel feed rate, mm/sec
M107
;TYPE:Custom
G90 ; use absolute coordinates
M83 ; extruder relative mode
M104 S195 ; set extruder temp
M140 S40 ; set bed temp
M190 S40 ; wait for bed temp
M109 S195 ; wait for extruder temp
G28                                        ; move X/Y/Z to min endstops
G1 Z0.28                                   ; lift nozzle a bit 
G92 E0 
G1 Y3 F1800                                    ; zero the extruded length 
G1 X60  E25 F500                       ; Extrude 25mm of filament in a 5cm line. 
G92 E0                                     ; zero the extruded length again 
G1 E-2 F500                                ; Retract a little 
G1 X70 F4000                              ; Quickly wipe away from the filament line
M117
G21 ; set units to millimeters
G90 ; use absolute coordinates
M82 ; use absolute distances for extrusion
G92 E0
; Filament gcode
M107
;LAYER_CHANGE
;Z:0.28
;HEIGHT:0.28
; BEFORE_LAYER_CHANGE 0 @ 0.28mm
G1 E-2 F4800
G92 E0
G1 Z.28 F7200
; AFTER_LAYER_CHANGE 0 @ 0.28mm
G1 X104.27 Y84.721
G1 E2 F4800
M204 S2000
;TYPE:Skirt/Brim
;WIDTH:0.56
G1 F3000
G1 X104.881 Y84.122 E2.04979
G1 X105.463 Y83.659 E2.09307
G1 X106.081 Y83.259 E2.13591
G1 X106.806 Y82.886 E2.18336
G1 X107.594 Y82.583 E2.23249
G1 X108.375 Y82.376 E2.27951
G1 X109.193 Y82.25 E2.32767
G1 X109.93 Y82.211 E2.37062
G1 X115.963 Y82.211 E2.72171
G1 X116.691 Y82.25 E2.76414
G1 X117.429 Y82.359 E2.80755
G1 X118.38 Y82.611 E2.8648
G1 X119.1 Y82.894 E2.90982
G1 X119.783 Y83.244 E2.95448
G1 X120.429 Y83.662 E2.99926
G1 X121.046 Y84.155 E3.04522
G1 X121.578 Y84.676 E3.08855
G1 X122.067 Y85.259 E3.13283
G1 X122.616 Y86.087 E3.19064
G1 X122.956 Y86.752 E3.2341
G1 X123.234 Y87.463 E3.27853
G1 X123.437 Y88.179 E3.32184
G1 X123.573 Y88.934 E3.36648
G1 X123.635 Y89.756 E3.41445
G1 X123.608 Y90.591 E3.46307
G1 X121.254 Y116.233 E4.96158
G1 X127.715 Y144.409 E6.64384
G1 X127.723 Y145.08 E6.68289
G1 X127.57 Y145.739 E6.72226
G1 X127.338 Y146.215 E6.75308
G1 X126.951 Y146.73 E6.79057
G1 X126.503 Y147.126 E6.82537
G1 X125.975 Y147.417 E6.86045
G1 X125.29 Y147.605 E6.90179
G1 X121.392 Y147.789 E7.12889
G1 X116.123 Y147.781 E7.43552
G1 X115.405 Y147.599 E7.47863
G1 X114.792 Y147.263 E7.51931
G1 X114.248 Y146.771 E7.562
G1 X114.074 Y146.536 E7.57902
G1 X113.813 Y146.063 E7.61046
G1 X102.407 Y91.46 E10.85667
G1 X102.3 Y90.78 E10.89673
G1 X102.252 Y89.887 E10.94877
G1 X102.307 Y88.998 E11.0006
G1 X102.426 Y88.292 E11.04227
G1 X102.612 Y87.59 E11.08453
G1 X102.96 Y86.693 E11.14052
G1 X103.292 Y86.053 E11.18248
G1 X103.683 Y85.446 E11.2245
G1 X104.232 Y84.767 E11.27531
M204 S2500
G1 X104.62 Y85.081 F7200
M204 S2000
G1 F3000
G1 X105.203 Y84.504 E11.32304
G1 X105.745 Y84.072 E11.36337
G1 X106.342 Y83.686 E11.40474
G1 X107.022 Y83.337 E11.44922
G1 X107.76 Y83.055 E11.4952
G1 X108.489 Y82.863 E11.53907
G1 X109.256 Y82.746 E11.58422
G1 X109.936 Y82.711 E11.62384
G1 X115.957 Y82.711 E11.97423
G1 X116.652 Y82.748 E12.01473
G1 X117.342 Y82.851 E12.05533
G1 X118.211 Y83.082 E12.10766
G1 X118.884 Y83.345 E12.14971
G1 X119.523 Y83.672 E12.19148
G1 X120.128 Y84.061 E12.23334
G1 X120.706 Y84.522 E12.27637
G1 X121.22 Y85.025 E12.31822
G1 X121.675 Y85.569 E12.35949
G1 X122.178 Y86.327 E12.41243
G1 X122.495 Y86.947 E12.45295
G1 X122.757 Y87.611 E12.49449
G1 X122.953 Y88.303 E12.53635
G1 X123.079 Y89.009 E12.57808
G1 X123.135 Y89.779 E12.62301
G1 X123.109 Y90.552 E12.66802
G1 X120.749 Y116.267 E14.17079
G1 X127.221 Y144.493 E15.85603
G1 X127.223 Y145.049 E15.88839
G1 X127.092 Y145.591 E15.92084
G1 X126.902 Y145.968 E15.94541
G1 X126.57 Y146.406 E15.97739
G1 X126.198 Y146.729 E16.00606
G1 X125.763 Y146.964 E16.03483
G1 X125.239 Y147.107 E16.06644
G1 X121.386 Y147.289 E16.29092
G1 X116.216 Y147.289 E16.59179
G1 X115.559 Y147.122 E16.63124
G1 X115.104 Y146.872 E16.66145
G1 X114.632 Y146.449 E16.69833
G1 X114.503 Y146.278 E16.7108
G1 X114.269 Y145.854 E16.73898
G1 X102.898 Y91.364 E19.97833
G1 X102.796 Y90.715 E20.01656
G1 X102.752 Y89.903 E20.06388
G1 X102.802 Y89.067 E20.11262
G1 X102.917 Y88.387 E20.15275
G1 X103.092 Y87.733 E20.19215
G1 X103.41 Y86.91 E20.2435
G1 X103.719 Y86.313 E20.28262
G1 X104.096 Y85.728 E20.32312
G1 X104.582 Y85.127 E20.3681
M204 S2500
G1 X104.97 Y85.443 F7200
M204 S2000
G1 F3000
G1 X105.524 Y84.887 E20.41378
G1 X106.047 Y84.471 E20.45267
G1 X106.602 Y84.113 E20.4911
G1 X107.237 Y83.789 E20.53259
G1 X107.924 Y83.528 E20.57536
G1 X108.602 Y83.35 E20.61615
G1 X109.318 Y83.242 E20.65829
G1 X109.942 Y83.211 E20.69465
G1 X115.95 Y83.211 E21.04429
G1 X116.613 Y83.247 E21.08293
G1 X117.253 Y83.343 E21.12059
G1 X118.042 Y83.553 E21.1681
G1 X118.69 Y83.806 E21.20858
G1 X119.284 Y84.11 E21.24741
G1 X119.846 Y84.474 E21.28638
G1 X120.383 Y84.904 E21.32641
G1 X120.86 Y85.372 E21.3653
G1 X121.282 Y85.878 E21.40364
G1 X121.739 Y86.567 E21.45175
G1 X122.045 Y87.164 E21.49079
G1 X122.287 Y87.782 E21.52941
G1 X122.468 Y88.426 E21.56834
G1 X122.584 Y89.083 E21.60717
G1 X122.635 Y89.776 E21.64761
G1 X122.611 Y90.514 E21.69058
G1 X120.243 Y116.301 E23.19757
G1 X126.728 Y144.578 E24.88587
G1 X126.73 Y144.961 E24.90816
G1 X126.613 Y145.444 E24.93708
G1 X126.491 Y145.683 E24.9527
G1 X126.189 Y146.081 E24.98177
G1 X125.898 Y146.328 E25.00398
G1 X125.556 Y146.508 E25.02647
G1 X125.188 Y146.609 E25.04868
G1 X121.38 Y146.789 E25.27053
G1 X116.25 Y146.789 E25.56907
G1 X115.719 Y146.648 E25.60104
G1 X115.414 Y146.479 E25.62133
G1 X115.012 Y146.123 E25.65258
G1 X114.931 Y146.019 E25.66025
G1 X114.725 Y145.645 E25.6851
G1 X103.389 Y91.268 E28.9176
G1 X103.292 Y90.65 E28.954
G1 X103.252 Y89.891 E28.99823
G1 X103.298 Y89.136 E29.04225
G1 X103.403 Y88.504 E29.07953
G1 X103.571 Y87.875 E29.11742
G1 X103.86 Y87.128 E29.16403
G1 X104.157 Y86.554 E29.20164
G1 X104.508 Y86.011 E29.23927
G1 X104.932 Y85.489 E29.27841
M204 S2500
G1 X105.319 Y85.803 F7200
M204 S2000
G1 F3000
G1 X105.847 Y85.269 E29.32211
G1 X106.328 Y84.884 E29.35796
G1 X106.862 Y84.54 E29.39493
G1 X107.451 Y84.241 E29.43337
G1 X108.065 Y84.007 E29.47161
G1 X108.692 Y83.842 E29.50934
G1 X109.356 Y83.74 E29.54843
G1 X109.949 Y83.711 E29.58298
G1 X115.943 Y83.711 E29.9318
G1 X116.551 Y83.743 E29.96723
G1 X117.165 Y83.835 E30.00336
G1 X117.874 Y84.024 E30.04606
G1 X118.474 Y84.257 E30.08352
G1 X119.024 Y84.538 E30.11946
G1 X119.544 Y84.873 E30.15546
G1 X120.043 Y85.27 E30.19257
G1 X120.485 Y85.702 E30.22854
G1 X120.889 Y86.188 E30.26532
G1 X121.301 Y86.808 E30.30864
G1 X121.584 Y87.358 E30.34464
G1 X121.817 Y87.952 E30.38177
G1 X121.983 Y88.548 E30.41777
G1 X122.09 Y89.156 E30.4537
G1 X122.135 Y89.798 E30.49115
G1 X122.112 Y90.475 E30.53057
G1 X119.738 Y116.335 E32.04182
G1 X126.234 Y144.663 E33.73316
G1 X126.236 Y144.88 E33.74579
G1 X126.15 Y145.253 E33.76807
G1 X126.077 Y145.401 E33.77767
G1 X125.807 Y145.758 E33.80372
G1 X125.641 Y145.899 E33.81639
G1 X125.347 Y146.053 E33.8357
G1 X125.137 Y146.111 E33.84838
G1 X121.374 Y146.289 E34.06761
G1 X116.287 Y146.289 E34.36365
G1 X115.886 Y146.176 E34.3879
G1 X115.723 Y146.085 E34.39876
G1 X115.384 Y145.79 E34.42491
G1 X115.181 Y145.437 E34.44861
G1 X103.879 Y91.173 E37.67427
G1 X103.788 Y90.586 E37.70884
G1 X103.752 Y89.906 E37.74847
G1 X103.793 Y89.205 E37.78933
G1 X103.894 Y88.599 E37.82508
G1 X104.05 Y88.018 E37.86009
G1 X104.311 Y87.345 E37.9021
G1 X104.584 Y86.815 E37.93679
G1 X104.92 Y86.294 E37.97287
G1 X105.281 Y85.85 E38.00617
M204 S2500
G1 X105.668 Y86.164 F7200
M204 S2000
G1 F3000
G1 X106.17 Y85.651 E38.04794
G1 X106.63 Y85.283 E38.08222
G1 X107.12 Y84.968 E38.11612
G1 X107.664 Y84.693 E38.15159
G1 X108.229 Y84.48 E38.18673
G1 X108.805 Y84.329 E38.22138
G1 X109.394 Y84.239 E38.25605
G1 X109.955 Y84.21 E38.28874
G1 X115.937 Y84.211 E38.63686
G1 X116.511 Y84.241 E38.67031
G1 X117.076 Y84.328 E38.70358
G1 X117.707 Y84.495 E38.74157
G1 X118.259 Y84.709 E38.77602
G1 X118.764 Y84.965 E38.80897
G1 X119.263 Y85.286 E38.8435
G1 X119.72 Y85.652 E38.87757
G1 X120.125 Y86.05 E38.91061
G1 X120.496 Y86.496 E38.94437
G1 X120.863 Y87.05 E38.98304
G1 X121.124 Y87.554 E39.01607
G1 X121.339 Y88.1 E39.05022
G1 X121.498 Y88.67 E39.08466
G1 X121.595 Y89.228 E39.11762
G1 X121.636 Y89.819 E39.1521
G1 X121.614 Y90.436 E39.18803
G1 X119.233 Y116.369 E40.70355
G1 X125.741 Y144.748 E42.39793
G1 X125.66 Y145.124 E42.42031
G1 X125.425 Y145.434 E42.44295
G1 X125.138 Y145.598 E42.46219
G1 X121.368 Y145.79 E42.68187
G1 X116.327 Y145.79 E42.97523
G1 X116.032 Y145.691 E42.99334
G1 X115.762 Y145.456 E43.01417
G1 X115.637 Y145.228 E43.0293
G1 X104.37 Y91.077 E46.2481
G1 X104.284 Y90.522 E46.28078
G1 X104.252 Y89.895 E46.31732
G1 X104.289 Y89.273 E46.35358
G1 X104.38 Y88.716 E46.38642
G1 X104.53 Y88.16 E46.41993
G1 X104.761 Y87.562 E46.45724
G1 X105.022 Y87.055 E46.49042
G1 X105.332 Y86.577 E46.52357
G1 X105.63 Y86.211 E46.55104
M204 S2500
G1 X106.017 Y86.525 F7200
M204 S2000
G1 F3000
G1 X106.494 Y86.032 E46.59096
G1 X106.913 Y85.696 E46.62222
G1 X107.359 Y85.408 E46.65312
G1 X107.855 Y85.155 E46.68552
G1 X108.369 Y84.96 E46.71751
G1 X108.895 Y84.821 E46.74917
G1 X109.433 Y84.738 E46.78085
G1 X109.962 Y84.71 E46.81168
G1 X115.93 Y84.71 E47.15899
G1 X116.472 Y84.74 E47.19058
G1 X116.986 Y84.82 E47.22085
G1 X117.541 Y84.967 E47.25426
G1 X118.046 Y85.161 E47.28574
G1 X118.506 Y85.393 E47.31572
G1 X118.961 Y85.685 E47.34718
G1 X119.379 Y86.018 E47.37828
G1 X119.765 Y86.397 E47.40976
G1 X120.102 Y86.805 E47.44056
G1 X120.425 Y87.292 E47.47457
G1 X120.673 Y87.772 E47.50601
G1 X120.869 Y88.27 E47.53715
G1 X121.013 Y88.791 E47.56861
G1 X121.1 Y89.299 E47.5986
G1 X121.136 Y89.839 E47.6301
G1 X121.115 Y90.397 E47.6626
G1 X118.728 Y116.403 E49.18238
G1 X125.235 Y144.779 E50.87658
G1 X125.212 Y144.888 E50.88306
M73 P1 R41
G1 X125.077 Y145.065 E50.89601
G1 X124.979 Y145.117 E50.90247
G1 X121.362 Y145.29 E51.1132
G1 X116.375 Y145.29 E51.40342
G1 X116.294 Y145.261 E51.40843
G1 X116.161 Y145.153 E51.4184
G1 X116.116 Y145.079 E51.42344
G1 X104.861 Y90.982 E54.63902
G1 X104.78 Y90.458 E54.66988
G1 X104.752 Y89.909 E54.70187
G1 X104.784 Y89.341 E54.73498
G1 X104.871 Y88.81 E54.76629
G1 X105.009 Y88.304 E54.79681
G1 X105.212 Y87.779 E54.82957
G1 X105.461 Y87.295 E54.86125
G1 X105.744 Y86.861 E54.8914
G1 X105.979 Y86.572 E54.91308
M204 S2500
G1 E53.51308 F4800
;WIPE_START
G1 F5760
G1 X106.494 Y86.032 E52.92233
G1 X106.503 Y86.025 E52.91308
;WIPE_END
G92 E0
G1 X118.077 Y116.472 F7200
G1 E2 F4800
M204 S2000
;TYPE:External perimeter
G1 F3000
G1 X124.502 Y144.489 E3.67277
G1 X121.354 Y144.64 E3.85618
G1 X116.689 Y144.64 E4.12766
G1 X105.499 Y90.858 E7.32453
G1 X105.425 Y90.377 E7.35285
G1 X105.402 Y89.902 E7.38052
G1 X105.428 Y89.427 E7.4082
G1 X105.505 Y88.957 E7.43592
G1 X105.629 Y88.497 E7.46365
G1 X105.801 Y88.054 E7.49131
G1 X106.018 Y87.63 E7.51903
G1 X106.278 Y87.232 E7.5467
G1 X106.571 Y86.871 E7.57376
G1 X106.916 Y86.526 E7.60215
G1 X107.286 Y86.227 E7.62983
G1 X107.676 Y85.975 E7.65685
G1 X108.111 Y85.753 E7.68527
G1 X108.555 Y85.583 E7.71294
G1 X109.015 Y85.46 E7.74065
G1 X109.485 Y85.386 E7.76834
G1 X109.971 Y85.36 E7.79666
G1 X115.918 Y85.36 E8.14275
G1 X116.39 Y85.385 E8.17026
G1 X116.869 Y85.459 E8.19847
G1 X117.326 Y85.581 E8.226
G1 X117.769 Y85.749 E8.25357
G1 X118.191 Y85.962 E8.28108
G1 X118.589 Y86.218 E8.30862
G1 X118.959 Y86.514 E8.33619
G1 X119.296 Y86.847 E8.36376
G1 X119.589 Y87.204 E8.39064
G1 X119.857 Y87.608 E8.41885
G1 X120.076 Y88.028 E8.44642
G1 X120.249 Y88.468 E8.47393
G1 X120.377 Y88.924 E8.50149
G1 X120.456 Y89.391 E8.52905
G1 X120.486 Y89.863 E8.55657
G1 X120.467 Y90.346 E8.5847
G1 X118.074 Y116.413 E10.10805
M204 S2500
G1 X117.757 Y116.712 F7200
G1 X117.579 Y116.537
M204 S2000
;TYPE:Perimeter
G1 F3000
G1 X123.881 Y144.018 E11.74882
G1 X121.342 Y144.14 E11.89675
G1 X117.095 Y144.14 E12.1439
G1 X105.991 Y90.769 E15.31633
G1 X105.923 Y90.327 E15.34235
G1 X105.902 Y89.904 E15.367
G1 X105.926 Y89.481 E15.39166
G1 X105.994 Y89.063 E15.41631
G1 X106.105 Y88.654 E15.44097
G1 X106.258 Y88.258 E15.46568
G1 X106.451 Y87.881 E15.49033
G1 X106.683 Y87.527 E15.51496
G1 X106.943 Y87.207 E15.53895
G1 X107.251 Y86.898 E15.56434
G1 X107.58 Y86.633 E15.58892
G1 X107.926 Y86.409 E15.61291
G1 X108.314 Y86.21 E15.63829
G1 X108.709 Y86.059 E15.6629
G1 X109.119 Y85.95 E15.68759
G1 X109.537 Y85.884 E15.71222
G1 X109.984 Y85.86 E15.73827
G1 X115.905 Y85.86 E16.08284
G1 X116.338 Y85.883 E16.10807
G1 X116.766 Y85.949 E16.13327
G1 X117.173 Y86.057 E16.15778
G1 X117.567 Y86.207 E16.18231
G1 X117.943 Y86.397 E16.20683
G1 X118.297 Y86.625 E16.23133
G1 X118.626 Y86.888 E16.25584
G1 X118.926 Y87.184 E16.28037
G1 X119.186 Y87.501 E16.30423
G1 X119.426 Y87.862 E16.32946
G1 X119.62 Y88.235 E16.35393
G1 X119.775 Y88.627 E16.37846
G1 X119.888 Y89.033 E16.40299
G1 X119.959 Y89.449 E16.42755
G1 X119.986 Y89.869 E16.45204
G1 X119.968 Y90.314 E16.47796
G1 X117.566 Y116.478 E18.00698
M204 S2500
G1 X117.088 Y116.631 F7200
M204 S2000
G1 F3000
G1 X123.26 Y143.548 E19.61406
G1 X121.33 Y143.64 E19.7265
G1 X117.502 Y143.64 E19.94927
G1 X106.483 Y90.68 E23.09728
G1 X106.421 Y90.277 E23.12101
G1 X106.403 Y89.906 E23.14263
G1 X106.424 Y89.535 E23.16425
G1 X106.483 Y89.168 E23.18588
G1 X106.58 Y88.81 E23.20746
G1 X106.715 Y88.463 E23.22913
G1 X106.884 Y88.133 E23.25071
G1 X107.087 Y87.822 E23.27232
G1 X107.315 Y87.542 E23.29333
G1 X107.586 Y87.27 E23.31567
G1 X107.874 Y87.038 E23.33719
G1 X108.177 Y86.842 E23.35819
G1 X108.518 Y86.668 E23.38047
G1 X108.864 Y86.535 E23.40204
G1 X109.222 Y86.439 E23.42361
G1 X109.589 Y86.381 E23.44523
G1 X109.997 Y86.36 E23.469
G1 X115.892 Y86.36 E23.81206
G1 X116.287 Y86.381 E23.83508
G1 X116.664 Y86.439 E23.85728
G1 X117.019 Y86.533 E23.87865
G1 X117.364 Y86.665 E23.90015
G1 X117.694 Y86.831 E23.92165
G1 X118.005 Y87.031 E23.94317
G1 X118.293 Y87.262 E23.96466
G1 X118.556 Y87.522 E23.98618
G1 X118.784 Y87.799 E24.00706
G1 X118.995 Y88.117 E24.02927
G1 X119.165 Y88.443 E24.05067
G1 X119.3 Y88.787 E24.07218
G1 X119.4 Y89.142 E24.09364
G1 X119.462 Y89.507 E24.11519
G1 X119.485 Y89.875 E24.13665
G1 X119.469 Y90.281 E24.1603
G1 X117.061 Y116.515 E25.6934
G1 X117.074 Y116.573 E25.69686
M204 S2500
G1 E24.29686 F4800
;WIPE_START
G1 F5760
G1 X117.243 Y117.312 E23.69686
;WIPE_END
G92 E0
G1 X117.28 Y86.846 F7200
G1 E2 F4800
M204 S2000
;TYPE:Solid infill
;WIDTH:0.560434
G1 F3000
G1 X118.243 Y87.81 E2.07936
G1 X118.442 Y88.052 E2.09761
G1 X118.628 Y88.333 E2.11724
G1 X118.778 Y88.62 E2.1361
G1 X118.897 Y88.922 E2.15501
G1 X118.989 Y89.264 E2.17564
G1 X116.583 Y86.857 E2.37387
G1 X116.243 Y86.804 E2.39391
G1 X115.814 Y86.796 E2.4189
G1 X119.054 Y90.036 E2.68578
G1 X119.005 Y90.694 E2.72421
G1 X115.105 Y86.794 E3.04546
G1 X114.396 Y86.793 E3.08676
G1 X118.945 Y91.342 E3.46147
G1 X118.886 Y91.99 E3.49937
G1 X113.687 Y86.792 E3.92758
G1 X112.978 Y86.791 E3.96888
G1 X118.826 Y92.639 E4.45059
G1 X118.767 Y93.287 E4.48849
G1 X112.269 Y86.789 E5.02374
G1 X111.56 Y86.788 E5.06504
G1 X118.707 Y93.935 E5.65375
G1 X118.648 Y94.583 E5.69165
G1 X110.851 Y86.787 E6.33386
G1 X110.142 Y86.785 E6.37516
G1 X118.588 Y95.231 E7.07087
G1 X118.529 Y95.879 E7.10877
G1 X109.479 Y86.829 E7.85423
G1 X109.311 Y86.856 E7.86414
G1 X108.913 Y86.971 E7.88827
G1 X118.469 Y96.527 E8.67541
G1 X118.41 Y97.175 E8.71331
G1 X108.426 Y87.192 E9.53567
G1 X108.123 Y87.383 E9.55653
G1 X108.005 Y87.478 E9.56535
G1 X118.35 Y97.823 E10.41748
G1 X118.291 Y98.471 E10.45538
G1 X107.638 Y87.819 E11.33284
G1 X107.431 Y88.073 E11.35193
G1 X107.333 Y88.222 E11.36232
G1 X118.231 Y99.12 E12.26
G1 X118.172 Y99.768 E12.2979
