; generated by AnycubicSlicer 1.1.1 on 2024-10-06 at 15:17:32 UTC

; 

; external perimeters extrusion width = 0.45mm
; perimeters extrusion width = 0.40mm
; infill extrusion width = 0.45mm
; solid infill extrusion width = 0.50mm
; top infill extrusion width = 0.45mm
; first layer extrusion width = 0.56mm

M73 P0 R107
M201 X2500 Y2500 Z800 E2500 ; sets maximum accelerations, mm/sec^2
M203 X300 Y250 Z8 E80 ; sets maximum feedrates, mm / sec
M204 P2500 R2500 T2500 ; sets acceleration (P, T) and retract acceleration (R), mm/sec^2
M205 X15.00 Y10.00 Z2.00 E10.00 ; sets the jerk limits, mm/sec
M205 S0 T0 ; sets the minimum extruding and travel feed rate, mm/sec
M107
;TYPE:Custom
G90 ; use absolute coordinates
M83 ; extruder relative mode
M104 S195 ; set extruder temp
M140 S40 ; set bed temp
M190 S40 ; wait for bed temp
M109 S195 ; wait for extruder temp
G28                                        ; move X/Y/Z to min endstops
G1 Z0.28                                   ; lift nozzle a bit 
G92 E0 
G1 Y3 F1800                                    ; zero the extruded length 
G1 X60  E25 F500                       ; Extrude 25mm of filament in a 5cm line. 
G92 E0                                     ; zero the extruded length again 
G1 E-2 F500                                ; Retract a little 
G1 X70 F4000                              ; Quickly wipe away from the filament line
M117
G21 ; set units to millimeters
G90 ; use absolute coordinates
M82 ; use absolute distances for extrusion
G92 E0
; Filament gcode
M107
;LAYER_CHANGE
;Z:0.28
;HEIGHT:0.28
; BEFORE_LAYER_CHANGE 0 @ 0.28mm
G1 E-2 F4800
G92 E0
G1 Z.28 F7200
; AFTER_LAYER_CHANGE 0 @ 0.28mm
G1 X80.394 Y82.101
G1 E2 F4800
M204 S2000
;TYPE:Skirt/Brim
;WIDTH:0.56
G1 F3000
G1 X84.133 Y78.57 E2.29928
G1 X88.252 Y75.446 E2.60013
G1 X92.68 Y72.789 E2.90065
G1 X97.349 Y70.633 E3.19993
G1 X102.249 Y68.985 E3.50078
G1 X107.279 Y67.879 E3.80049
G1 X112.418 Y67.321 E4.10131
G1 X117.562 Y67.32 E4.40066
G1 X122.662 Y67.875 E4.69921
G1 X127.695 Y68.97 E4.99896
G1 X132.754 Y70.674 E5.30962
G1 X137.418 Y72.841 E5.60891
G1 X141.84 Y75.508 E5.90943
G1 X145.931 Y78.624 E6.2087
G1 X149.683 Y82.181 E6.50957
G1 X153.011 Y86.101 E6.80882
G1 X155.898 Y90.357 E7.1081
G1 X158.311 Y94.898 E7.40736
G1 X160.224 Y99.679 E7.70704
G1 X161.614 Y104.651 E8.00748
G1 X162.46 Y109.752 E8.30839
G1 X162.749 Y115.079 E8.61885
G1 X162.463 Y120.214 E8.91814
G1 X161.632 Y125.268 E9.21621
G1 X160.257 Y130.223 E9.51546
G1 X158.369 Y134.977 E9.81314
G1 X155.955 Y139.549 E10.11402
G1 X153.061 Y143.833 E10.41488
G1 X149.606 Y147.899 E10.72539
G1 X145.867 Y151.43 E11.02467
G1 X141.748 Y154.554 E11.32552
G1 X137.32 Y157.211 E11.62604
G1 X132.651 Y159.367 E11.92532
G1 X127.776 Y161.008 E12.22466
G1 X122.727 Y162.12 E12.52553
G1 X117.588 Y162.679 E12.82636
G1 X112.439 Y162.68 E13.12601
G1 X107.332 Y162.129 E13.42494
G1 X102.308 Y161.031 E13.72421
G1 X97.246 Y159.326 E14.03505
G1 X92.582 Y157.159 E14.33434
G1 X88.16 Y154.492 E14.63486
G1 X84.069 Y151.376 E14.93413
G1 X80.317 Y147.819 E15.235
G1 X76.989 Y143.899 E15.53425
G1 X74.102 Y139.643 E15.83353
G1 X71.689 Y135.102 E16.13279
G1 X69.776 Y130.321 E16.43247
G1 X68.392 Y125.352 E16.73265
G1 X67.54 Y120.244 E17.03402
G1 X67.251 Y114.914 E17.34465
G1 X67.534 Y109.813 E17.64196
G1 X68.361 Y104.765 E17.93964
G1 X69.733 Y99.822 E18.23817
G1 X71.63 Y95.025 E18.53837
G1 X74.13 Y90.309 E18.84899
G1 X77.04 Y86.035 E19.14989
G1 X80.355 Y82.146 E19.44727
M204 S2500
G1 X80.734 Y82.469 F7200
M204 S2000
G1 F3000
G1 X84.446 Y78.96 E19.74453
G1 X88.521 Y75.867 E20.04225
G1 X92.902 Y73.237 E20.33961
G1 X97.547 Y71.093 E20.63733
G1 X102.396 Y69.463 E20.93503
G1 X107.372 Y68.371 E21.2315
G1 X112.459 Y67.819 E21.52928
G1 X117.548 Y67.82 E21.82543
G1 X122.594 Y68.37 E22.12082
G1 X127.575 Y69.455 E22.41749
G1 X132.556 Y71.133 E22.72337
G1 X137.196 Y73.289 E23.02112
G1 X141.57 Y75.929 E23.31844
G1 X145.617 Y79.013 E23.61454
G1 X149.329 Y82.534 E23.91228
G1 X152.621 Y86.414 E24.2084
G1 X155.477 Y90.626 E24.50455
G1 X157.864 Y95.121 E24.80073
G1 X159.755 Y99.852 E25.09723
G1 X161.129 Y104.772 E25.3945
G1 X161.964 Y109.82 E25.69226
G1 X162.249 Y115.065 E25.99794
G1 X161.968 Y120.146 E26.29408
G1 X161.147 Y125.147 E26.58901
G1 X159.788 Y130.051 E26.88515
G1 X157.909 Y134.78 E27.18128
G1 X155.519 Y139.303 E27.47898
G1 X152.654 Y143.542 E27.77673
G1 X149.253 Y147.545 E28.08241
G1 X145.554 Y151.04 E28.37856
G1 X141.479 Y154.133 E28.67628
G1 X137.098 Y156.763 E28.97364
G1 X132.453 Y158.907 E29.27136
G1 X127.63 Y160.53 E29.5675
G1 X122.633 Y161.628 E29.86524
G1 X117.547 Y162.18 E30.16296
G1 X112.452 Y162.18 E30.45946
G1 X107.4 Y161.634 E30.75517
G1 X102.429 Y160.546 E31.0513
G1 X97.444 Y158.867 E31.35741
G1 X92.804 Y156.711 E31.65516
G1 X88.43 Y154.071 E31.95248
G1 X84.383 Y150.987 E32.24858
G1 X80.671 Y147.466 E32.54632
G1 X77.379 Y143.586 E32.84244
G1 X74.523 Y139.374 E33.13859
G1 X72.137 Y134.879 E33.43474
G1 X70.245 Y130.148 E33.73126
G1 X68.877 Y125.231 E34.02827
G1 X68.035 Y120.176 E34.3265
G1 X67.751 Y114.928 E34.63235
G1 X68.029 Y109.881 E34.92651
G1 X68.846 Y104.885 E35.22111
G1 X70.211 Y99.968 E35.51808
G1 X72.09 Y95.222 E35.81513
G1 X74.551 Y90.579 E36.12094
G1 X77.429 Y86.349 E36.41868
G1 X80.695 Y82.515 E36.71178
M204 S2500
G1 X81.075 Y82.838 F7200
M204 S2000
G1 F3000
G1 X84.759 Y79.35 E37.00702
G1 X88.791 Y76.289 E37.30162
G1 X93.124 Y73.685 E37.59581
G1 X97.719 Y71.562 E37.89038
G1 X102.516 Y69.948 E38.18492
G1 X107.44 Y68.866 E38.47831
G1 X112.472 Y68.319 E38.77287
G1 X117.534 Y68.32 E39.06745
G1 X122.527 Y68.866 E39.35975
G1 X127.455 Y69.941 E39.65328
G1 X132.358 Y71.593 E39.95437
G1 X136.949 Y73.724 E40.24892
G1 X141.277 Y76.335 E40.54307
G1 X145.283 Y79.385 E40.83608
G1 X148.956 Y82.868 E41.13065
G1 X152.215 Y86.706 E41.42366
G1 X155.042 Y90.872 E41.71665
G1 X157.416 Y95.343 E42.01124
G1 X159.286 Y100.024 E42.30458
G1 X160.644 Y104.894 E42.5988
G1 X161.469 Y109.888 E42.89336
G1 X161.749 Y115.051 E43.19426
G1 X161.473 Y120.078 E43.48725
G1 X160.655 Y125.053 E43.78066
G1 X159.31 Y129.904 E44.07361
G1 X157.45 Y134.583 E44.36663
G1 X155.084 Y139.058 E44.66121
G1 X152.248 Y143.251 E44.95579
G1 X148.9 Y147.191 E45.25668
G1 X145.241 Y150.65 E45.5497
G1 X141.209 Y153.711 E45.8443
G1 X136.876 Y156.315 E46.13849
G1 X132.281 Y158.438 E46.43306
G1 X127.483 Y160.052 E46.72765
G1 X122.539 Y161.137 E47.02221
G1 X117.507 Y161.682 E47.31676
G1 X112.466 Y161.68 E47.61012
G1 X107.467 Y161.138 E47.90274
G1 X102.549 Y160.061 E48.19573
G1 X97.642 Y158.407 E48.49708
G1 X93.051 Y156.276 E48.79163
G1 X88.723 Y153.665 E49.08578
G1 X84.717 Y150.615 E49.37879
G1 X81.044 Y147.132 E49.67336
G1 X77.785 Y143.294 E49.96637
G1 X74.958 Y139.128 E50.25936
G1 X72.584 Y134.657 E50.55395
G1 X70.714 Y129.975 E50.84735
G1 X69.362 Y125.11 E51.1412
G1 X68.531 Y120.108 E51.43628
G1 X68.251 Y114.942 E51.73736
G1 X68.528 Y109.922 E52.02994
G1 X69.337 Y104.98 E52.32137
G1 X70.689 Y100.115 E52.61522
G1 X72.549 Y95.419 E52.90916
G1 X74.973 Y90.849 E53.21021
G1 X77.819 Y86.662 E53.50483
G1 X81.036 Y82.884 E53.7936
M204 S2500
G1 X81.416 Y83.207 F7200
M204 S2000
G1 F3000
G1 X85.072 Y79.739 E54.08685
G1 X89.06 Y76.71 E54.37828
G1 X93.346 Y74.133 E54.66932
G1 X97.891 Y72.032 E54.96071
G1 X102.637 Y70.434 E55.25214
G1 X107.508 Y69.362 E55.54239
G1 X112.486 Y68.819 E55.8338
G1 X117.494 Y68.818 E56.12524
G1 X122.433 Y69.357 E56.41437
G1 X127.335 Y70.426 E56.70635
G1 X132.16 Y72.052 E57.00266
G1 X136.703 Y74.159 E57.29409
G1 X140.986 Y76.741 E57.58513
G1 X144.949 Y79.757 E57.87495
G1 X148.584 Y83.202 E58.1664
G1 X151.825 Y87.02 E58.45785
G1 X154.62 Y91.142 E58.74768
G1 X156.968 Y95.565 E59.0391
G1 X158.816 Y100.197 E59.32932
G1 X160.158 Y105.015 E59.62038
G1 X160.973 Y109.956 E59.91181
G1 X161.249 Y115.038 E60.20799
G1 X160.977 Y120.011 E60.49783
G1 X160.17 Y124.932 E60.78803
G1 X158.832 Y129.758 E61.07947
G1 X156.99 Y134.386 E61.36934
G1 X154.648 Y138.812 E61.66075
G1 X151.841 Y142.959 E61.95217
G1 X148.546 Y146.838 E62.24836
G1 X144.928 Y150.261 E62.53821
G1 X140.94 Y153.29 E62.82964
G1 X136.654 Y155.867 E63.12068
G1 X132.109 Y157.968 E63.41207
G1 X127.363 Y159.566 E63.7035
G1 X122.472 Y160.642 E63.99494
G1 X117.493 Y161.182 E64.28639
G1 X112.506 Y161.182 E64.57661
G1 X107.534 Y160.643 E64.86765
G1 X102.67 Y159.575 E65.15745
G1 X97.84 Y157.948 E65.45405
G1 X93.297 Y155.841 E65.74548
G1 X89.014 Y153.259 E66.03652
G1 X85.051 Y150.243 E66.32634
G1 X81.416 Y146.798 E66.61779
G1 X78.175 Y142.98 E66.90924
G1 X75.38 Y138.858 E67.19907
G1 X73.032 Y134.435 E67.49049
G1 X71.184 Y129.803 E67.78071
G1 X69.847 Y124.989 E68.07146
G1 X69.026 Y120.039 E68.36346
G1 X68.751 Y114.956 E68.6597
G1 X69.023 Y109.989 E68.94919
G1 X69.828 Y105.074 E69.23903
G1 X71.159 Y100.287 E69.52818
G1 X73.009 Y95.616 E69.82055
G1 X75.394 Y91.118 E70.11683
G1 X78.208 Y86.976 E70.40824
G1 X81.377 Y83.253 E70.69276
M204 S2500
G1 X81.756 Y83.576 F7200
M204 S2000
G1 F3000
G1 X85.406 Y80.112 E70.9856
G1 X89.351 Y77.117 E71.27384
G1 X93.592 Y74.569 E71.56176
G1 X98.089 Y72.491 E71.85005
G1 X102.784 Y70.912 E72.13831
G1 X107.602 Y69.853 E72.42539
G1 X112.526 Y69.318 E72.71363
G1 X117.48 Y69.318 E73.00193
G1 X122.34 Y69.848 E73.28643
G1 X127.215 Y70.912 E73.57681
G1 X131.962 Y72.511 E73.86831
M73 P0 R106
G1 X136.456 Y74.594 E74.15657
G1 X140.694 Y77.147 E74.44449
G1 X144.636 Y80.147 E74.73277
G1 X148.23 Y83.555 E75.021
G1 X151.435 Y87.333 E75.30932
G1 X154.199 Y91.411 E75.59601
G1 X156.52 Y95.787 E75.88427
G1 X158.347 Y100.37 E76.17139
G1 X159.673 Y105.136 E76.45928
G1 X160.478 Y110.023 E76.74751
G1 X160.749 Y115.024 E77.03897
G1 X160.479 Y119.97 E77.32723
G1 X159.679 Y124.838 E77.61432
G1 X158.353 Y129.611 E77.9026
G1 X156.531 Y134.188 E78.18929
G1 X154.213 Y138.566 E78.47758
G1 X151.435 Y142.667 E78.76584
G1 X148.193 Y146.484 E79.05728
G1 X144.594 Y149.888 E79.34557
G1 X140.649 Y152.883 E79.63381
G1 X136.408 Y155.431 E79.92173
G1 X131.911 Y157.509 E80.21002
G1 X127.216 Y159.088 E80.49828
G1 X122.378 Y160.15 E80.78653
G1 X117.453 Y160.684 E81.07482
G1 X112.52 Y160.682 E81.3619
G1 X107.602 Y160.147 E81.64979
G1 X102.79 Y159.09 E81.9365
G1 X98.038 Y157.489 E82.22832
G1 X93.544 Y155.406 E82.51658
G1 X89.306 Y152.853 E82.8045
G1 X85.364 Y149.853 E83.09278
G1 X81.77 Y146.445 E83.38101
G1 X78.565 Y142.667 E83.66933
G1 X75.801 Y138.589 E83.95602
G1 X73.48 Y134.213 E84.24428
G1 X71.653 Y129.63 E84.5314
G1 X70.338 Y124.894 E84.81744
G1 X69.522 Y119.971 E85.10784
G1 X69.251 Y114.97 E85.3993
G1 X69.521 Y110.03 E85.68721
G1 X70.32 Y105.168 E85.97395
G1 X71.628 Y100.458 E86.25842
G1 X73.469 Y95.813 E86.54919
G1 X75.815 Y91.388 E86.84066
G1 X78.598 Y87.289 E87.12899
G1 X81.718 Y83.621 E87.40923
M204 S2500
G1 X82.097 Y83.944 F7200
M204 S2000
G1 F3000
G1 X85.719 Y80.502 E87.70001
G1 X89.62 Y77.538 E87.98512
G1 X93.814 Y75.017 E88.26989
G1 X98.261 Y72.961 E88.555
G1 X102.904 Y71.397 E88.84012
G1 X107.669 Y70.348 E89.12406
G1 X112.54 Y69.818 E89.4092
G1 X117.44 Y69.816 E89.69436
G1 X122.246 Y70.339 E89.9757
G1 X127.095 Y71.397 E90.26453
G1 X131.764 Y72.971 E90.55127
G1 X136.21 Y75.029 E90.83638
G1 X140.402 Y77.553 E91.12114
G1 X144.302 Y80.519 E91.40628
G1 X147.858 Y83.889 E91.69139
G1 X151.029 Y87.624 E91.97652
G1 X153.778 Y91.68 E92.26166
G1 X156.072 Y96.01 E92.54682
G1 X157.877 Y100.542 E92.83071
G1 X159.188 Y105.256 E93.11545
G1 X159.982 Y110.091 E93.40059
G1 X160.249 Y115.01 E93.68727
G1 X159.983 Y119.903 E93.97244
G1 X159.194 Y124.717 E94.25633
G1 X157.884 Y129.439 E94.54151
G1 X156.072 Y133.99 E94.82658
G1 X153.778 Y138.32 E95.11174
G1 X151.029 Y142.376 E95.39688
G1 X147.839 Y146.13 E95.68357
G1 X144.281 Y149.498 E95.96868
G1 X140.38 Y152.462 E96.25379
G1 X136.186 Y154.983 E96.53856
G1 X131.739 Y157.039 E96.82367
G1 X127.096 Y158.603 E97.10879
G1 X122.31 Y159.655 E97.39396
G1 X117.44 Y160.184 E97.67904
G1 X112.56 Y160.184 E97.96303
G1 X107.696 Y159.656 E98.24775
G1 X102.911 Y158.605 E98.53285
G1 X98.236 Y157.029 E98.81995
G1 X93.79 Y154.971 E99.10506
G1 X89.598 Y152.447 E99.38982
G1 X85.698 Y149.481 E99.67496
G1 X82.142 Y146.111 E99.96007
G1 X78.971 Y142.376 E100.2452
G1 X76.222 Y138.32 E100.53034
G1 X73.928 Y133.99 E100.8155
G1 X72.123 Y129.458 E101.09939
G1 X70.829 Y124.799 E101.38078
G1 X70.017 Y119.903 E101.66959
G1 X69.751 Y114.983 E101.95633
G1 X70.017 Y110.098 E102.24103
G1 X70.811 Y105.263 E102.52617
G1 X72.098 Y100.63 E102.806
G1 X73.928 Y96.01 E103.09518
G1 X76.236 Y91.657 E103.38191
G1 X78.987 Y87.603 E103.66702
G1 X82.058 Y83.99 E103.94297
M204 S2500
G1 E102.54297 F4800
;WIPE_START
G1 F5760
G1 X82.607 Y83.467 E101.94297
;WIPE_END
G92 E0
G1 X79.495 Y141.99 F7200
G1 E2 F4800
M204 S2000
;TYPE:External perimeter
G1 F3000
G1 X76.785 Y137.993 E2.28103
G1 X74.523 Y133.727 E2.56203
G1 X72.735 Y129.241 E2.84306
G1 X72.101 Y126.958 E2.98095
G1 X71.468 Y124.675 E3.11882
G1 X70.662 Y119.822 E3.40511
G1 X70.401 Y115 E3.68614
G1 X70.662 Y110.178 E3.96717
G1 X71.443 Y105.412 E4.24823
G1 X72.711 Y100.847 E4.52395
G1 X74.523 Y96.273 E4.81026
G1 X76.785 Y92.007 E5.09126
G1 X79.495 Y88.01 E5.37229
G1 X82.621 Y84.329 E5.65333
G1 X86.127 Y81.008 E5.93436
G1 X89.971 Y78.086 E6.21535
G1 X94.109 Y75.596 E6.4964
G1 X98.492 Y73.568 E6.77745
G1 X103.068 Y72.026 E7.05846
G1 X107.785 Y70.988 E7.33953
G1 X112.585 Y70.466 E7.62051
G1 X117.415 Y70.466 E7.90159
G1 X122.125 Y70.978 E8.1773
G1 X126.932 Y72.026 E8.46361
G1 X131.508 Y73.568 E8.74462
G1 X135.891 Y75.596 E9.02567
G1 X140.029 Y78.086 E9.30672
G1 X143.873 Y81.008 E9.58771
G1 X147.379 Y84.329 E9.86874
G1 X150.505 Y88.01 E10.14978
G1 X153.215 Y92.007 E10.43081
G1 X155.477 Y96.273 E10.71181
G1 X157.265 Y100.759 E10.99284
G1 X158.557 Y105.412 E11.27387
G1 X159.338 Y110.178 E11.55493
G1 X159.599 Y115 E11.83596
G1 X159.338 Y119.822 E12.11699
G1 X158.557 Y124.588 E12.39805
G1 X157.265 Y129.241 E12.67908
G1 X155.477 Y133.727 E12.96011
G1 X153.215 Y137.993 E13.24111
G1 X150.505 Y141.99 E13.52214
G1 X147.379 Y145.671 E13.80318
G1 X143.873 Y148.992 E14.08421
G1 X140.029 Y151.914 E14.3652
G1 X135.891 Y154.404 E14.64625
G1 X131.508 Y156.432 E14.9273
G1 X126.932 Y157.974 E15.20831
G1 X122.215 Y159.012 E15.48938
G1 X117.415 Y159.534 E15.77036
G1 X112.585 Y159.534 E16.05144
G1 X107.785 Y159.012 E16.33242
G1 X103.068 Y157.974 E16.61349
G1 X98.492 Y156.432 E16.8945
G1 X94.109 Y154.404 E17.17555
G1 X89.971 Y151.914 E17.4566
G1 X86.127 Y148.992 E17.73759
G1 X82.621 Y145.671 E18.01862
G1 X79.534 Y142.036 E18.29615
M204 S2500
G1 X79.649 Y141.622 F7200
G1 X79.893 Y141.687
M204 S2000
;TYPE:Perimeter
G1 F3000
G1 X77.214 Y137.735 E18.574
G1 X74.977 Y133.517 E18.85185
G1 X73.21 Y129.081 E19.12973
G1 X72.583 Y126.824 E19.26605
G1 X71.956 Y124.567 E19.40237
G1 X71.16 Y119.767 E19.68552
G1 X70.901 Y115 E19.96334
G1 X71.16 Y110.232 E20.24122
G1 X71.932 Y105.52 E20.51909
G1 X73.186 Y101.006 E20.79173
G1 X74.977 Y96.483 E21.07483
G1 X77.214 Y92.265 E21.35268
G1 X79.893 Y88.313 E21.63053
G1 X82.984 Y84.673 E21.90843
G1 X86.451 Y81.39 E22.1863
G1 X90.252 Y78.5 E22.46418
G1 X94.344 Y76.038 E22.74209
G1 X98.677 Y74.033 E23.01994
G1 X103.202 Y72.509 E23.29781
G1 X107.866 Y71.482 E23.57573
G1 X112.613 Y70.966 E23.85361
G1 X117.387 Y70.966 E24.13143
G1 X122.045 Y71.472 E24.4041
G1 X126.799 Y72.509 E24.68726
G1 X131.323 Y74.033 E24.96507
G1 X135.656 Y76.038 E25.24292
G1 X139.748 Y78.5 E25.52083
G1 X143.549 Y81.39 E25.79871
G1 X147.016 Y84.673 E26.07658
G1 X150.107 Y88.313 E26.35448
G1 X152.786 Y92.265 E26.63233
G1 X155.023 Y96.483 E26.91018
G1 X156.79 Y100.919 E27.18806
G1 X158.068 Y105.52 E27.46595
G1 X158.84 Y110.232 E27.74382
G1 X159.099 Y115 E28.0217
G1 X158.84 Y119.768 E28.29958
G1 X158.068 Y124.48 E28.57745
G1 X156.79 Y129.081 E28.85534
G1 X155.023 Y133.517 E29.13322
G1 X152.786 Y137.735 E29.41107
G1 X150.107 Y141.687 E29.68892
G1 X147.016 Y145.327 E29.96682
G1 X143.549 Y148.61 E30.24469
G1 X139.748 Y151.5 E30.52257
G1 X135.656 Y153.962 E30.80048
G1 X131.323 Y155.967 E31.07833
G1 X126.798 Y157.491 E31.3562
G1 X122.134 Y158.518 E31.63412
G1 X117.387 Y159.034 E31.912
G1 X112.613 Y159.034 E32.18982
G1 X107.866 Y158.518 E32.4677
G1 X103.202 Y157.491 E32.74562
