; generated by AnycubicSlicer 1.1.1 on 2024-09-27 at 02:03:09 UTC

; 

; external perimeters extrusion width = 0.45mm
; perimeters extrusion width = 0.40mm
; infill extrusion width = 0.45mm
; solid infill extrusion width = 0.50mm
; top infill extrusion width = 0.45mm
; first layer extrusion width = 0.56mm

M73 P0 R5
M201 X2500 Y2500 Z800 E2500 ; sets maximum accelerations, mm/sec^2
M203 X300 Y250 Z8 E80 ; sets maximum feedrates, mm / sec
M204 P2500 R2500 T2500 ; sets acceleration (P, T) and retract acceleration (R), mm/sec^2
M205 X15.00 Y10.00 Z2.00 E10.00 ; sets the jerk limits, mm/sec
M205 S0 T0 ; sets the minimum extruding and travel feed rate, mm/sec
M107
;TYPE:Custom
G90 ; use absolute coordinates
M83 ; extruder relative mode
M104 S195 ; set extruder temp
M140 S40 ; set bed temp
M190 S40 ; wait for bed temp
M109 S195 ; wait for extruder temp
G28                                        ; move X/Y/Z to min endstops
G1 Z0.28                                   ; lift nozzle a bit 
G92 E0 
G1 Y3 F1800                                    ; zero the extruded length 
G1 X60  E25 F500                       ; Extrude 25mm of filament in a 5cm line. 
G92 E0                                     ; zero the extruded length again 
G1 E-2 F500                                ; Retract a little 
M73 P2 R5
G1 X70 F4000                              ; Quickly wipe away from the filament line
M117
G21 ; set units to millimeters
G90 ; use absolute coordinates
M82 ; use absolute distances for extrusion
G92 E0
; Filament gcode
M107
;LAYER_CHANGE
;Z:0.28
;HEIGHT:0.28
; BEFORE_LAYER_CHANGE 0 @ 0.28mm
G1 E-2 F4800
G92 E0
G1 Z.28 F7200
; AFTER_LAYER_CHANGE 0 @ 0.28mm
G1 X110.052 Y110.41
G1 E2 F4800
M204 S2000
;TYPE:Skirt/Brim
;WIDTH:0.56
G1 F976
G1 X110.564 Y109.914 E2.04148
G1 X111.294 Y109.359 E2.09485
G1 X111.921 Y108.994 E2.13707
G1 X112.586 Y108.697 E2.17945
G1 X113.251 Y108.481 E2.22014
G1 X113.941 Y108.335 E2.26118
G1 X114.639 Y108.261 E2.30203
G1 X115.34 Y108.259 E2.34282
G1 X116.029 Y108.33 E2.38313
G1 X116.721 Y108.474 E2.42426
G1 X117.588 Y108.767 E2.47752
G1 X118.223 Y109.07 E2.51847
G1 X118.844 Y109.452 E2.5609
G1 X119.415 Y109.895 E2.60296
G1 X119.922 Y110.382 E2.64387
G1 X120.374 Y110.917 E2.68463
G1 X120.767 Y111.494 E2.72526
G1 X121.099 Y112.11 E2.76598
G1 X121.367 Y112.761 E2.80695
G1 X121.569 Y113.453 E2.8489
G1 X121.699 Y114.179 E2.89182
G1 X121.749 Y115.095 E2.94521
G1 X121.703 Y115.787 E2.98557
G1 X121.592 Y116.448 E3.02458
G1 X121.415 Y117.096 E3.06367
G1 X121.166 Y117.745 E3.10412
G1 X120.835 Y118.392 E3.14641
G1 X120.427 Y119.012 E3.1896
G1 X119.832 Y119.712 E3.24306
G1 X119.315 Y120.189 E3.284
G1 X118.731 Y120.624 E3.32638
G1 X118.108 Y120.991 E3.36846
G1 X117.468 Y121.282 E3.40937
G1 X116.775 Y121.512 E3.45186
M73 P3 R5
G1 X116.089 Y121.661 E3.49271
G1 X115.365 Y121.739 E3.53509
G1 X114.66 Y121.741 E3.57612
G1 X113.945 Y121.666 E3.61796
G1 X113.258 Y121.52 E3.65883
G1 X112.572 Y121.297 E3.70081
G1 X111.926 Y121.009 E3.74197
G1 X111.133 Y120.532 E3.79582
G1 X110.58 Y120.101 E3.83662
G1 X110.092 Y119.633 E3.87597
G1 X109.566 Y119.003 E3.92373
G1 X109.165 Y118.391 E3.96631
G1 X108.832 Y117.74 E4.00886
G1 X108.572 Y117.057 E4.05139
G1 X108.39 Y116.359 E4.09337
G1 X108.28 Y115.628 E4.13639
G1 X108.252 Y114.899 E4.17885
G1 X108.298 Y114.206 E4.21927
G1 X108.416 Y113.516 E4.26001
G1 X108.614 Y112.816 E4.30234
G1 X108.874 Y112.167 E4.34303
G1 X109.201 Y111.548 E4.38377
G1 X109.59 Y110.964 E4.42461
G1 X110.014 Y110.456 E4.46312
M204 S2500
G1 X110.397 Y110.777 F7200
M204 S2000
G1 F976
G1 X110.9 Y110.283 E4.50415
G1 X111.559 Y109.783 E4.55229
G1 X112.138 Y109.445 E4.59131
G1 X112.754 Y109.168 E4.63062
G1 X113.369 Y108.967 E4.66827
G1 X114.007 Y108.83 E4.70624
G1 X114.678 Y108.759 E4.74551
G1 X115.326 Y108.759 E4.78322
G1 X115.964 Y108.826 E4.82055
G1 X116.603 Y108.96 E4.85855
G1 X117.387 Y109.225 E4.90671
G1 X117.974 Y109.504 E4.94453
G1 X118.549 Y109.857 E4.98379
G1 X119.078 Y110.265 E5.02267
G1 X119.566 Y110.733 E5.06202
G1 X119.983 Y111.228 E5.09969
G1 X120.346 Y111.763 E5.13731
G1 X120.652 Y112.334 E5.17501
G1 X120.899 Y112.938 E5.21299
G1 X121.085 Y113.579 E5.25183
G1 X121.204 Y114.251 E5.29155
G1 X121.249 Y115.078 E5.33975
G1 X121.208 Y115.717 E5.37701
G1 X121.101 Y116.353 E5.41454
G1 X120.937 Y116.951 E5.45063
G1 X120.704 Y117.552 E5.48814
G1 X120.397 Y118.151 E5.52731
G1 X120.019 Y118.724 E5.56726
G1 X119.482 Y119.355 E5.61548
G1 X119.005 Y119.797 E5.65332
G1 X118.464 Y120.201 E5.69261
G1 X117.889 Y120.541 E5.73148
G1 X117.274 Y120.821 E5.7708
G1 X116.631 Y121.032 E5.81018
G1 X115.997 Y121.169 E5.84793
G1 X115.326 Y121.241 E5.8872
G1 X114.674 Y121.241 E5.92514
G1 X114.011 Y121.17 E5.96394
G1 X113.376 Y121.034 E6.00173
G1 X112.74 Y120.826 E6.04067
G1 X112.144 Y120.559 E6.07868
G1 X111.428 Y120.128 E6.12731
G1 X110.917 Y119.731 E6.16497
G1 X110.448 Y119.282 E6.20275
G1 X109.976 Y118.716 E6.24564
G1 X109.603 Y118.15 E6.28509
G1 X109.294 Y117.548 E6.32447
G1 X109.052 Y116.916 E6.36385
G1 X108.882 Y116.27 E6.40272
G1 X108.779 Y115.594 E6.44251
G1 X108.751 Y114.918 E6.48188
G1 X108.796 Y114.253 E6.52067
G1 X108.906 Y113.615 E6.55835
G1 X109.091 Y112.966 E6.59762
G1 X109.333 Y112.367 E6.63522
G1 X109.636 Y111.793 E6.67299
M73 P4 R5
G1 X109.998 Y111.254 E6.71077
G1 X110.359 Y110.823 E6.74349
M204 S2500
G1 X110.741 Y111.145 F7200
M204 S2000
G1 F976
G1 X111.237 Y110.654 E6.78411
G1 X111.826 Y110.206 E6.82718
G1 X112.356 Y109.895 E6.86294
G1 X112.924 Y109.639 E6.8992
G1 X113.489 Y109.453 E6.93382
G1 X114.075 Y109.326 E6.96871
G1 X114.693 Y109.259 E7.00489
G1 X115.288 Y109.258 E7.03952
G1 X115.899 Y109.322 E7.07527
G1 X116.485 Y109.446 E7.11013
G1 X117.187 Y109.683 E7.15325
G1 X117.725 Y109.938 E7.1879
G1 X118.256 Y110.261 E7.22407
G1 X118.743 Y110.636 E7.25984
G1 X119.193 Y111.066 E7.29606
G1 X119.577 Y111.521 E7.33071
G1 X119.912 Y112.012 E7.3653
G1 X120.205 Y112.559 E7.40141
G1 X120.431 Y113.114 E7.43628
G1 X120.601 Y113.704 E7.47201
G1 X120.709 Y114.322 E7.50852
G1 X120.749 Y115.062 E7.55165
G1 X120.713 Y115.648 E7.58582
G1 X120.615 Y116.233 E7.62034
G1 X120.458 Y116.806 E7.65491
G1 X120.243 Y117.358 E7.68938
G1 X119.959 Y117.909 E7.72545
G1 X119.61 Y118.435 E7.76219
G1 X119.13 Y118.999 E7.80529
G1 X118.694 Y119.405 E7.83996
G1 X118.197 Y119.778 E7.87612
G1 X117.669 Y120.092 E7.91187
G1 X117.103 Y120.351 E7.94809
G1 X116.512 Y120.547 E7.98433
G1 X115.929 Y120.674 E8.01905
G1 X115.311 Y120.741 E8.05523
G1 X114.712 Y120.742 E8.09009
G1 X114.102 Y120.679 E8.12578
G1 X113.494 Y120.549 E8.16196
G1 X112.91 Y120.356 E8.19775
G1 X112.364 Y120.109 E8.23262
G1 X111.722 Y119.723 E8.27621
G1 X111.252 Y119.36 E8.31077
G1 X110.822 Y118.949 E8.34539
G1 X110.385 Y118.428 E8.38496
G1 X110.041 Y117.908 E8.42124
G1 X109.755 Y117.355 E8.45747
G1 X109.531 Y116.774 E8.49371
G1 X109.374 Y116.181 E8.52941
G1 X109.278 Y115.558 E8.56609
G1 X109.251 Y114.936 E8.60232
G1 X109.291 Y114.324 E8.63801
G1 X109.391 Y113.738 E8.67261
G1 X109.56 Y113.14 E8.70877
G1 X109.781 Y112.589 E8.74332
G1 X110.072 Y112.039 E8.77953
G1 X110.405 Y111.545 E8.8142
G1 X110.703 Y111.191 E8.84113
M204 S2500
G1 X111.084 Y111.513 F7200
M204 S2000
G1 F976
G1 X111.572 Y111.025 E8.88129
G1 X112.093 Y110.629 E8.91937
G1 X112.576 Y110.344 E8.95201
G1 X113.093 Y110.109 E8.98506
G1 X113.632 Y109.932 E9.01808
G1 X114.166 Y109.817 E9.04987
G1 X114.732 Y109.758 E9.08299
G1 X115.274 Y109.758 E9.11453
G1 X115.832 Y109.817 E9.14718
G1 X116.366 Y109.932 E9.17897
G1 X116.987 Y110.141 E9.2171
G1 X117.477 Y110.372 E9.24863
G1 X117.963 Y110.667 E9.28172
G1 X118.408 Y111.008 E9.31435
G1 X118.82 Y111.399 E9.3474
G1 X119.187 Y111.833 E9.38048
G1 X119.49 Y112.281 E9.41195
G1 X119.758 Y112.782 E9.44502
G1 X119.962 Y113.288 E9.47677
G1 X120.116 Y113.828 E9.50945
G1 X120.214 Y114.393 E9.54282
G1 X120.249 Y115.047 E9.58093
G1 X120.217 Y115.58 E9.612
G1 X120.13 Y116.114 E9.64349
G1 X119.98 Y116.661 E9.6765
G1 X119.783 Y117.163 E9.70788
G1 X119.522 Y117.666 E9.74086
G1 X119.203 Y118.145 E9.77435
G1 X118.778 Y118.644 E9.81249
G1 X118.382 Y119.014 E9.84403
G1 X117.929 Y119.356 E9.87706
M73 P5 R5
G1 X117.447 Y119.644 E9.90974
G1 X116.931 Y119.881 E9.94278
G1 X116.392 Y120.061 E9.97585
G1 X115.837 Y120.182 E10.00891
G1 X115.272 Y120.242 E10.04198
G1 X114.726 Y120.242 E10.07375
G1 X114.169 Y120.183 E10.10635
G1 X113.614 Y120.063 E10.13939
G1 X113.081 Y119.886 E10.17207
G1 X112.583 Y119.66 E10.2039
G1 X112.015 Y119.318 E10.24248
G1 X111.587 Y118.988 E10.27393
G1 X111.195 Y118.616 E10.30538
G1 X110.793 Y118.139 E10.34168
G1 X110.478 Y117.666 E10.37475
G1 X110.216 Y117.161 E10.40786
G1 X110.011 Y116.631 E10.44093
G1 X109.865 Y116.09 E10.47354
G1 X109.777 Y115.521 E10.50705
G1 X109.751 Y114.954 E10.54008
G1 X109.786 Y114.394 E10.57273
G1 X109.876 Y113.859 E10.6043
G1 X110.03 Y113.312 E10.63737
G1 X110.23 Y112.809 E10.66887
G1 X110.494 Y112.307 E10.70188
G1 X110.812 Y111.836 E10.73495
G1 X111.046 Y111.559 E10.75605
M204 S2500
G1 X111.426 Y111.882 F7200
M204 S2000
G1 F976
G1 X111.546 Y111.74 E10.76687
G1 X111.907 Y111.396 E10.79589
G1 X112.36 Y111.052 E10.82899
G1 X112.796 Y110.793 E10.8585
G1 X113.264 Y110.579 E10.88845
G1 X113.752 Y110.418 E10.91835
G1 X114.234 Y110.313 E10.94706
G1 X114.745 Y110.257 E10.97698
G1 X115.26 Y110.258 E11.00695
G1 X115.765 Y110.313 E11.03651
G1 X116.247 Y110.417 E11.06521
G1 X116.787 Y110.6 E11.09839
G1 X117.252 Y110.818 E11.12828
G1 X117.69 Y111.086 E11.15816
G1 X118.092 Y111.395 E11.18767
G1 X118.464 Y111.751 E11.21763
G1 X118.795 Y112.145 E11.24758
G1 X119.068 Y112.549 E11.27596
G1 X119.31 Y113.004 E11.30595
G1 X119.493 Y113.462 E11.33465
G1 X119.632 Y113.95 E11.36418
G1 X119.719 Y114.462 E11.3944
G1 X119.749 Y115.031 E11.42756
G1 X119.719 Y115.537 E11.45706
G1 X119.639 Y116.018 E11.48544
G1 X119.502 Y116.514 E11.51539
G1 X119.323 Y116.967 E11.54374
G1 X119.085 Y117.422 E11.57362
G1 X118.795 Y117.855 E11.60395
G1 X118.426 Y118.289 E11.6371
G1 X118.051 Y118.64 E11.66699
G1 X117.64 Y118.948 E11.69688
G1 X117.204 Y119.207 E11.72639
G1 X116.736 Y119.421 E11.75634
G1 X116.248 Y119.582 E11.78624
G1 X115.745 Y119.691 E11.81619
G1 X115.234 Y119.744 E11.84609
G1 X114.741 Y119.742 E11.87478
G1 X114.237 Y119.688 E11.90428
G1 X113.735 Y119.578 E11.93419
G1 X113.253 Y119.416 E11.96378
G1 X112.804 Y119.211 E11.9925
G1 X112.309 Y118.913 E12.02612
G1 X111.902 Y118.6 E12.056
G1 X111.55 Y118.264 E12.08432
G1 X111.2 Y117.849 E12.11591
G1 X110.915 Y117.422 E12.14579
G1 X110.677 Y116.966 E12.17572
G1 X110.489 Y116.487 E12.20567
G1 X110.357 Y115.997 E12.2352
G1 X110.275 Y115.483 E12.26549
G1 X110.251 Y114.969 E12.29543
G1 X110.281 Y114.463 E12.32493
G1 X110.367 Y113.956 E12.35486
G1 X110.507 Y113.461 E12.3848
G1 X110.688 Y113.008 E12.41319
G1 X110.929 Y112.554 E12.4431
G1 X111.218 Y112.128 E12.47306
G1 X111.387 Y111.927 E12.48834
M204 S2500
G1 X111.767 Y112.251 F7200
M204 S2000
G1 F976
G1 X111.918 Y112.075 E12.50184
G1 X112.241 Y111.768 E12.52777
G1 X112.629 Y111.474 E12.5561
G1 X113.018 Y111.241 E12.58249
G1 X113.436 Y111.049 E12.60926
G1 X113.873 Y110.903 E12.63607
G1 X114.303 Y110.808 E12.6617
G1 X114.761 Y110.757 E12.68852
G1 X115.221 Y110.756 E12.71529
G1 X115.672 Y110.804 E12.74168
G1 X116.127 Y110.903 E12.76878
G1 X116.588 Y111.059 E12.7971
G1 X117.005 Y111.253 E12.82386
G1 X117.398 Y111.492 E12.85063
G1 X117.758 Y111.767 E12.87699
G1 X118.091 Y112.084 E12.90375
G1 X118.389 Y112.436 E12.93059
G1 X118.646 Y112.817 E12.95733
G1 X118.861 Y113.225 E12.98417
G1 X119.024 Y113.634 E13.00979
G1 X119.146 Y114.071 E13.03619
G1 X119.223 Y114.531 E13.06333
G1 X119.249 Y115.016 E13.0916
M73 P6 R5
G1 X119.224 Y115.469 E13.118
G1 X119.148 Y115.923 E13.14479
G1 X119.024 Y116.366 E13.17156
G1 X118.864 Y116.769 E13.19679
G1 X118.65 Y117.177 E13.2236
G1 X118.389 Y117.564 E13.25076
G1 X118.074 Y117.934 E13.27904
G1 X117.739 Y118.249 E13.3058
G1 X117.371 Y118.526 E13.3326
G1 X116.982 Y118.759 E13.35899
G1 X116.564 Y118.951 E13.38576
G1 X116.128 Y119.097 E13.41252
G1 X115.678 Y119.195 E13.43932
G1 X115.22 Y119.244 E13.46613
G1 X114.78 Y119.244 E13.49174
G1 X114.328 Y119.196 E13.51819
G1 X113.879 Y119.099 E13.54492
G1 X113.448 Y118.956 E13.57135
G1 X113.025 Y118.762 E13.59843
G1 X112.602 Y118.508 E13.62714
G1 X112.236 Y118.228 E13.65396
G1 X111.922 Y117.93 E13.67915
G1 X111.607 Y117.558 E13.70752
G1 X111.35 Y117.177 E13.73426
G1 X111.137 Y116.77 E13.76099
G1 X110.968 Y116.341 E13.78782
G1 X110.848 Y115.904 E13.81419
G1 X110.774 Y115.443 E13.84136
G1 X110.751 Y114.984 E13.8681
G1 X110.776 Y114.531 E13.8945
G1 X110.852 Y114.077 E13.92129
G1 X110.976 Y113.634 E13.94806
G1 X111.147 Y113.207 E13.97483
G1 X111.364 Y112.801 E14.00162
G1 X111.623 Y112.421 E14.02838
G1 X111.728 Y112.297 E14.03784
M204 S2500
G1 E12.63784 F4800
;WIPE_START
G1 F5760
G1 X111.918 Y112.075 E12.40651
G1 X112.241 Y111.768 E12.05373
G1 X112.257 Y111.756 E12.03784
;WIPE_END
G92 E0
G1 X118.599 Y115 F7200
G1 E2 F4800
M204 S2000
;TYPE:External perimeter
G1 F976
G1 X118.578 Y115.389 E2.02267
G1 X118.515 Y115.774 E2.04537
G1 X118.411 Y116.149 E2.06802
G1 X118.267 Y116.511 E2.09069
G1 X118.084 Y116.856 E2.11342
G1 X117.865 Y117.178 E2.13608
G1 X117.613 Y117.475 E2.15875
G1 X117.33 Y117.743 E2.18143
G1 X117.02 Y117.979 E2.2041
G1 X116.686 Y118.18 E2.22679
G1 X116.332 Y118.344 E2.24949
G1 X115.963 Y118.468 E2.27214
G1 X115.582 Y118.552 E2.29484
G1 X115.195 Y118.594 E2.31749
G1 X114.805 Y118.594 E2.34019
G1 X114.418 Y118.552 E2.36284
G1 X114.037 Y118.468 E2.38554
G1 X113.673 Y118.346 E2.40788
G1 X113.314 Y118.18 E2.4309
G1 X112.98 Y117.979 E2.45359
G1 X112.67 Y117.743 E2.47626
G1 X112.387 Y117.475 E2.49894
G1 X112.135 Y117.178 E2.52161
G1 X111.916 Y116.856 E2.54427
G1 X111.733 Y116.511 E2.567
G1 X111.589 Y116.149 E2.58967
G1 X111.486 Y115.779 E2.61202
G1 X111.422 Y115.389 E2.63502
G1 X111.401 Y115 E2.65769
G1 X111.422 Y114.611 E2.68036
G1 X111.485 Y114.226 E2.70306
G1 X111.589 Y113.851 E2.72571
G1 X111.733 Y113.489 E2.74838
G1 X111.916 Y113.144 E2.77111
G1 X112.135 Y112.822 E2.79377
G1 X112.383 Y112.529 E2.81611
G1 X112.67 Y112.256 E2.83916
G1 X112.98 Y112.021 E2.8618
G1 X113.314 Y111.82 E2.88449
G1 X113.668 Y111.656 E2.90719
G1 X114.037 Y111.532 E2.92984
G1 X114.418 Y111.448 E2.95254
G1 X114.805 Y111.406 E2.97519
G1 X115.195 Y111.406 E2.99789
G1 X115.577 Y111.447 E3.02025
G1 X115.963 Y111.532 E3.04325
G1 X116.332 Y111.656 E3.0659
G1 X116.686 Y111.82 E3.0886
G1 X117.02 Y112.021 E3.11129
G1 X117.33 Y112.257 E3.13396
G1 X117.613 Y112.525 E3.15664
G1 X117.865 Y112.822 E3.17931
G1 X118.084 Y113.144 E3.20197
G1 X118.267 Y113.489 E3.2247
G1 X118.411 Y113.851 E3.24737
G1 X118.514 Y114.221 E3.26972
G1 X118.578 Y114.611 E3.29272
G1 X118.596 Y114.94 E3.31189
M204 S2500
G1 X118.262 Y115.195 F7200
G1 X118.099 Y115
M204 S2000
;TYPE:Perimeter
G1 F976
G1 X118.081 Y115.335 E3.33141
G1 X118.026 Y115.666 E3.35094
G1 X117.937 Y115.989 E3.37044
G1 X117.812 Y116.301 E3.39
G1 X117.655 Y116.598 E3.40955
G1 X117.467 Y116.875 E3.42903
G1 X117.25 Y117.131 E3.44856
G1 X117.006 Y117.362 E3.46811
G1 X116.739 Y117.565 E3.48763
G1 X116.451 Y117.738 E3.50718
G1 X116.147 Y117.879 E3.52668
G1 X115.829 Y117.986 E3.54621
G1 X115.501 Y118.058 E3.56575
G1 X115.168 Y118.094 E3.58524
G1 X114.832 Y118.094 E3.60479
G1 X114.499 Y118.058 E3.62428
G1 X114.171 Y117.986 E3.64382
G1 X113.858 Y117.88 E3.66305
G1 X113.548 Y117.737 E3.68292
G1 X113.261 Y117.565 E3.70239
G1 X112.994 Y117.362 E3.72191
G1 X112.75 Y117.131 E3.74146
G1 X112.533 Y116.875 E3.76099
G1 X112.345 Y116.598 E3.78047
G1 X112.188 Y116.301 E3.80002
G1 X112.063 Y115.989 E3.81958
G1 X111.975 Y115.671 E3.83878
G1 X111.919 Y115.334 E3.85866
G1 X111.901 Y115 E3.87813
G1 X111.919 Y114.665 E3.89765
G1 X111.974 Y114.334 E3.91718
G1 X112.063 Y114.011 E3.93668
G1 X112.188 Y113.699 E3.95624
G1 X112.345 Y113.402 E3.97579
G1 X112.533 Y113.125 E3.99527
G1 X112.747 Y112.873 E4.01451
G1 X112.994 Y112.638 E4.03435
G1 X113.261 Y112.435 E4.05387
M73 P7 R5
G1 X113.548 Y112.262 E4.07337
G1 X113.853 Y112.121 E4.09292
G1 X114.171 Y112.014 E4.11245
G1 X114.499 Y111.942 E4.13199
G1 X114.832 Y111.906 E4.15148
G1 X115.168 Y111.906 E4.17103
