; generated by AnycubicSlicer 1.1.1 on 2024-09-30 at 01:14:50 UTC

; 

; external perimeters extrusion width = 0.45mm
; perimeters extrusion width = 0.40mm
; infill extrusion width = 0.45mm
; solid infill extrusion width = 0.50mm
; top infill extrusion width = 0.45mm
; first layer extrusion width = 0.56mm

M73 P0 R43
M201 X2500 Y2500 Z800 E2500 ; sets maximum accelerations, mm/sec^2
M203 X300 Y250 Z8 E80 ; sets maximum feedrates, mm / sec
M204 P2500 R2500 T2500 ; sets acceleration (P, T) and retract acceleration (R), mm/sec^2
M205 X15.00 Y10.00 Z2.00 E10.00 ; sets the jerk limits, mm/sec
M205 S0 T0 ; sets the minimum extruding and travel feed rate, mm/sec
M107
;TYPE:Custom
G90 ; use absolute coordinates
M83 ; extruder relative mode
M104 S195 ; set extruder temp
M140 S40 ; set bed temp
M190 S40 ; wait for bed temp
M109 S195 ; wait for extruder temp
G28                                        ; move X/Y/Z to min endstops
G1 Z0.28                                   ; lift nozzle a bit 
G92 E0 
G1 Y3 F1800                                    ; zero the extruded length 
G1 X60  E25 F500                       ; Extrude 25mm of filament in a 5cm line. 
G92 E0                                     ; zero the extruded length again 
G1 E-2 F500                                ; Retract a little 
G1 X70 F4000                              ; Quickly wipe away from the filament line
M117
G21 ; set units to millimeters
G90 ; use absolute coordinates
M82 ; use absolute distances for extrusion
G92 E0
; Filament gcode
M107
;LAYER_CHANGE
;Z:0.28
;HEIGHT:0.28
; BEFORE_LAYER_CHANGE 0 @ 0.28mm
G1 E-2 F4800
G92 E0
G1 Z.28 F7200
; AFTER_LAYER_CHANGE 0 @ 0.28mm
G1 X105.635 Y83.049
G1 E2 F4800
M204 S2000
;TYPE:Skirt/Brim
;WIDTH:0.56
G1 F3000
G1 X106.207 Y82.609 E2.042
G1 X106.652 Y82.402 E2.07056
G1 X107.167 Y82.27 E2.1015
G1 X122.815 Y82.268 E3.01213
G1 X123.298 Y82.383 E3.04102
G1 X123.802 Y82.605 E3.07307
G1 X124.192 Y82.879 E3.10081
G1 X124.602 Y83.285 E3.13439
G1 X124.908 Y83.726 E3.16563
G1 X125.125 Y84.222 E3.19714
G1 X125.25 Y84.848 E3.23429
G1 X125.25 Y145.153 E6.74374
G1 X125.154 Y145.682 E6.77503
G1 X124.955 Y146.187 E6.80662
G1 X124.624 Y146.688 E6.84156
G1 X124.033 Y147.248 E6.88894
G1 X123.663 Y147.466 E6.91393
G1 X123.154 Y147.663 E6.94569
G1 X122.644 Y147.75 E6.9758
G1 X117.316 Y147.75 E7.28586
G1 X116.517 Y147.548 E7.33382
G1 X115.934 Y147.228 E7.37252
G1 X115.566 Y146.917 E7.40056
G1 X115.303 Y146.627 E7.42334
G1 X114.819 Y145.637 E7.48747
G1 X104.763 Y85.302 E11.0471
G1 X104.76 Y84.847 E11.07358
G1 X104.92 Y84.146 E11.11542
G1 X105.115 Y83.712 E11.14311
G1 X105.598 Y83.096 E11.18866
M204 S2500
G1 X105.988 Y83.407 F7200
M204 S2000
G1 F3000
G1 X106.442 Y83.051 E11.22223
G1 X106.84 Y82.866 E11.24777
G1 X107.257 Y82.763 E11.27277
G1 X122.732 Y82.761 E12.17334
G1 X123.119 Y82.85 E12.19645
G1 X123.575 Y83.052 E12.22547
G1 X123.883 Y83.272 E12.2475
G1 X124.231 Y83.62 E12.27614
G1 X124.481 Y83.986 E12.30193
G1 X124.654 Y84.393 E12.32767
G1 X124.75 Y84.873 E12.35616
G1 X124.75 Y145.129 E15.86275
G1 X124.668 Y145.563 E15.88845
G1 X124.502 Y145.974 E15.91425
G1 X124.225 Y146.386 E15.94314
G1 X123.752 Y146.834 E15.98105
G1 X123.462 Y147.008 E16.00073
G1 X122.997 Y147.188 E16.02975
G1 X122.624 Y147.25 E16.05175
G1 X117.349 Y147.25 E16.35873
G1 X116.675 Y147.073 E16.39928
G1 X116.239 Y146.831 E16.4283
G1 X115.903 Y146.547 E16.4539
G1 X115.699 Y146.319 E16.4717
G1 X115.306 Y145.519 E16.52357
G1 X105.26 Y85.241 E20.07983
G1 X105.26 Y84.879 E20.1009
G1 X105.4 Y84.288 E20.13625
G1 X105.556 Y83.95 E20.15791
G1 X105.951 Y83.454 E20.19481
M204 S2500
G1 X106.338 Y83.768 F7200
M204 S2000
G1 F3000
G1 X106.677 Y83.493 E20.22021
G1 X107.026 Y83.331 E20.2426
G1 X107.342 Y83.256 E20.2615
G1 X122.653 Y83.255 E21.15252
G1 X122.941 Y83.318 E21.16968
G1 X123.348 Y83.498 E21.19558
G1 X123.543 Y83.639 E21.20958
G1 X123.86 Y83.956 E21.23567
G1 X124.05 Y84.241 E21.2556
G1 X124.183 Y84.561 E21.27577
G1 X124.25 Y84.897 E21.29571
G1 X124.25 Y145.103 E24.79939
G1 X124.183 Y145.439 E24.81933
G1 X124.05 Y145.759 E24.8395
G1 X123.859 Y146.045 E24.85951
G1 X123.466 Y146.423 E24.89124
G1 X123.259 Y146.55 E24.90537
G1 X122.842 Y146.712 E24.9314
G1 X122.605 Y146.75 E24.94537
G1 X117.384 Y146.75 E25.24921
G1 X116.839 Y146.6 E25.28211
G1 X116.544 Y146.435 E25.30178
G1 X116.24 Y146.177 E25.32498
G1 X116.095 Y146.013 E25.33772
G1 X115.793 Y145.4 E25.37749
G1 X105.756 Y85.182 E28.93022
G1 X105.759 Y84.916 E28.9457
G1 X105.879 Y84.435 E28.97455
G1 X105.993 Y84.193 E28.99012
G1 X106.3 Y83.815 E29.01846
M204 S2500
G1 X106.684 Y84.133 F7200
M204 S2000
G1 F3000
G1 X106.74 Y84.066 E29.02354
G1 X106.911 Y83.935 E29.03608
G1 X107.21 Y83.797 E29.05524
G1 X107.421 Y83.75 E29.06782
G1 X122.624 Y83.755 E29.95256
G1 X122.766 Y83.787 E29.96103
G1 X123.084 Y83.923 E29.98116
G1 X123.206 Y84.009 E29.98985
G1 X123.489 Y84.292 E30.01314
G1 X123.598 Y84.455 E30.02455
G1 X123.712 Y84.729 E30.04182
G1 X123.75 Y84.922 E30.05327
G1 X123.75 Y145.078 E33.55404
G1 X123.712 Y145.271 E33.56549
G1 X123.598 Y145.545 E33.58276
G1 X123.489 Y145.707 E33.59412
G1 X123.174 Y146.017 E33.61984
G1 X123.049 Y146.096 E33.62845
G1 X122.728 Y146.224 E33.64856
G1 X122.581 Y146.25 E33.65725
G1 X117.422 Y146.25 E33.95748
G1 X117.009 Y146.129 E33.98252
G1 X116.85 Y146.039 E33.99315
G1 X116.579 Y145.809 E34.01384
G1 X116.494 Y145.711 E34.02139
G1 X116.28 Y145.281 E34.04934
G1 X106.254 Y85.125 E37.5984
G1 X106.258 Y84.96 E37.608
G1 X106.355 Y84.589 E37.63032
G1 X106.427 Y84.444 E37.63974
G1 X106.646 Y84.179 E37.65975
M204 S2500
G1 X107.026 Y84.501 F7200
M204 S2000
G1 F3000
G1 X107.146 Y84.377 E37.66979
G1 X107.449 Y84.25 E37.68891
G1 X122.554 Y84.25 E38.56794
G1 X122.872 Y84.382 E38.58798
G1 X123.118 Y84.628 E38.60823
G1 X123.24 Y84.898 E38.62547
G1 X123.25 Y145.054 E42.12624
G1 X123.118 Y145.372 E42.14628
G1 X122.872 Y145.618 E42.16653
G1 X122.602 Y145.74 E42.18377
G1 X117.464 Y145.75 E42.48278
G1 X117.157 Y145.644 E42.50168
G1 X116.897 Y145.414 E42.52188
G1 X116.766 Y145.159 E42.53856
G1 X106.752 Y85.073 E46.08349
G1 X106.828 Y84.753 E46.10263
G1 X106.987 Y84.547 E46.11777
M204 S2500
G1 X107.369 Y84.87 F7200
M204 S2000
G1 F3000
G1 X107.431 Y84.796 E46.12339
G1 X107.531 Y84.75 E46.1298
G1 X122.479 Y84.75 E46.9997
G1 X122.571 Y84.788 E47.00549
G1 X122.712 Y84.929 E47.01709
G1 X122.75 Y85.021 E47.02288
G1 X122.75 Y144.979 E50.51213
G1 X122.712 Y145.071 E50.51792
G1 X122.571 Y145.212 E50.52952
G1 X122.479 Y145.25 E50.53531
G1 X117.513 Y145.25 E50.82431
G1 X117.43 Y145.219 E50.82947
G1 X117.295 Y145.105 E50.83975
G1 X117.251 Y145.028 E50.84491
G1 X107.259 Y85.072 E54.38217
G1 X107.288 Y84.965 E54.38862
M73 P1 R43
G1 X107.33 Y84.916 E54.39238
M204 S2500
G1 X107.972 Y85.4 F7200
M204 S2000
;TYPE:External perimeter
G1 F3000
G1 X122.1 Y85.4 E55.21456
G1 X122.1 Y144.6 E58.6597
M73 P1 R42
G1 X117.839 Y144.6 E58.90767
G1 X107.982 Y85.459 E62.39685
M204 S2500
G1 X108.333 Y85.572 F7200
G1 X108.562 Y85.9
M204 S2000
;TYPE:Perimeter
G1 F3000
G1 X121.6 Y85.9 E63.1556
G1 X121.6 Y144.1 E66.54255
G1 X118.262 Y144.1 E66.7368
G1 X108.572 Y85.959 E70.16698
M204 S2500
G1 X109.152 Y86.4 F7200
M204 S2000
G1 F3000
G1 X121.1 Y86.4 E70.86229
G1 X121.1 Y143.6 E74.19104
G1 X118.686 Y143.6 E74.33152
G1 X109.162 Y86.459 E77.70271
M204 S2500
G1 E76.30271 F4800
;WIPE_START
G1 F5760
G1 X109.92 Y86.455 E75.70271
;WIPE_END
G92 E0
G1 X120.9 Y87.615 F7200
G1 E2 F4800
M204 S2000
;TYPE:Solid infill
;WIDTH:0.562232
G1 F3000
G1 X120.11 Y86.825 E2.06531
G1 X119.4 Y86.825 E2.10681
G1 X120.675 Y88.1 E2.21221
G1 X120.675 Y88.81 E2.25371
G1 X118.69 Y86.825 E2.41781
G1 X117.979 Y86.825 E2.45937
G1 X120.675 Y89.521 E2.68224
G1 X120.675 Y90.231 E2.72374
G1 X117.269 Y86.825 E3.00531
G1 X116.559 Y86.825 E3.04681
G1 X120.675 Y90.941 E3.38707
G1 X120.675 Y91.651 E3.42857
G1 X115.849 Y86.825 E3.82752
G1 X115.139 Y86.825 E3.86902
G1 X120.675 Y92.361 E4.32667
G1 X120.675 Y93.071 E4.36817
G1 X114.429 Y86.825 E4.88451
G1 X113.719 Y86.825 E4.92601
G1 X120.675 Y93.781 E5.50105
G1 X120.675 Y94.492 E5.54261
G1 X113.008 Y86.825 E6.17642
G1 X112.298 Y86.825 E6.21792
G1 X120.675 Y95.202 E6.91043
G1 X120.675 Y95.912 E6.95193
G1 X111.588 Y86.825 E7.70313
G1 X110.878 Y86.825 E7.74463
G1 X120.675 Y96.622 E8.55452
G1 X120.675 Y97.332 E8.59602
G1 X110.168 Y86.825 E9.46461
G1 X109.654 Y86.825 E9.49466
G1 X109.693 Y87.06 E9.50858
G1 X120.675 Y98.042 E10.41644
G1 X120.675 Y98.752 E10.45794
G1 X109.835 Y87.912 E11.35406
G1 X109.977 Y88.765 E11.40461
G1 X120.675 Y99.462 E12.28895
G1 X120.675 Y100.173 E12.33051
G1 X110.119 Y89.617 E13.20315
G1 X110.261 Y90.469 E13.25364
G1 X120.675 Y100.883 E14.11454
G1 X120.675 Y101.593 E14.15604
G1 X110.403 Y91.321 E15.0052
G1 X110.545 Y92.173 E15.05569
G1 X120.675 Y102.303 E15.89311
G1 X120.675 Y103.013 E15.93461
G1 X110.687 Y93.025 E16.76029
G1 X110.83 Y93.878 E16.81085
G1 X120.675 Y103.723 E17.62471
G1 X120.675 Y104.433 E17.66621
G1 X110.972 Y94.73 E18.46833
G1 X111.114 Y95.582 E18.51882
G1 X120.675 Y105.144 E19.30925
G1 X120.675 Y105.854 E19.35075
G1 X111.256 Y96.434 E20.12944
G1 X111.398 Y97.286 E20.17993
G1 X120.675 Y106.564 E20.94688
G1 X120.675 Y107.274 E20.98838
G1 X111.54 Y98.138 E21.74359
G1 X111.682 Y98.991 E21.79414
G1 X120.675 Y107.984 E22.53757
G1 X120.675 Y108.694 E22.57907
G1 X111.824 Y99.843 E23.31076
G1 X111.966 Y100.695 E23.36125
G1 X120.675 Y109.404 E24.0812
G1 X120.675 Y110.115 E24.12276
G1 X112.108 Y101.547 E24.83101
G1 X112.25 Y102.399 E24.8815
G1 X120.675 Y110.825 E25.57802
G1 X120.675 Y111.535 E25.61952
G1 X112.392 Y103.251 E26.3043
G1 X112.534 Y104.104 E26.35485
G1 X120.675 Y112.245 E27.02785
G1 X120.675 Y112.955 E27.06935
G1 X112.676 Y104.956 E27.73061
G1 X112.818 Y105.808 E27.7811
G1 X120.675 Y113.665 E28.43062
G1 X120.675 Y114.375 E28.47212
G1 X112.96 Y106.66 E29.1099
G1 X113.102 Y107.512 E29.16039
G1 X120.675 Y115.086 E29.78647
G1 X120.675 Y115.796 E29.82797
G1 X113.244 Y108.364 E30.44231
G1 X113.386 Y109.217 E30.49286
G1 X120.675 Y116.506 E31.09542
G1 X120.675 Y117.216 E31.13692
G1 X113.528 Y110.069 E31.72775
G1 X113.67 Y110.921 E31.77824
G1 X120.675 Y117.926 E32.35733
G1 X120.675 Y118.636 E32.39883
G1 X113.812 Y111.773 E32.96618
G1 X113.954 Y112.625 E33.01667
G1 X120.675 Y119.346 E33.57228
G1 X120.675 Y120.057 E33.61384
G1 X114.096 Y113.477 E34.15775
G1 X114.238 Y114.33 E34.2083
G1 X120.675 Y120.767 E34.74043
G1 X120.675 Y121.477 E34.78193
G1 X114.38 Y115.182 E35.30232
G1 X114.522 Y116.034 E35.35281
G1 X120.675 Y122.187 E35.86146
G1 X120.675 Y122.897 E35.90296
G1 X114.664 Y116.886 E36.39987
G1 X114.806 Y117.738 E36.45036
G1 X120.675 Y123.607 E36.93554
G1 X120.675 Y124.317 E36.97704
G1 X114.948 Y118.59 E37.45048
G1 X115.09 Y119.443 E37.50103
G1 X120.675 Y125.027 E37.96269
G1 X120.675 Y125.738 E38.00425
G1 X115.232 Y120.295 E38.45421
G1 X115.374 Y121.147 E38.5047
G1 X120.675 Y126.448 E38.94292
G1 X120.675 Y127.158 E38.98442
G1 X115.516 Y121.999 E39.4109
G1 X115.658 Y122.851 E39.46139
G1 X120.675 Y127.868 E39.87613
G1 X120.675 Y128.578 E39.91763
G1 X115.8 Y123.703 E40.32063
G1 X115.943 Y124.556 E40.37119
G1 X120.675 Y129.288 E40.76237
G1 X120.675 Y129.998 E40.80387
G1 X116.085 Y125.408 E41.18331
G1 X116.227 Y126.26 E41.2338
G1 X120.675 Y130.709 E41.60155
G1 X120.675 Y131.419 E41.64305
G1 X116.369 Y127.112 E41.99906
G1 X116.511 Y127.964 E42.04955
G1 X120.675 Y132.129 E42.39382
G1 X120.675 Y132.839 E42.43532
G1 X116.653 Y128.816 E42.76785
G1 X116.795 Y129.669 E42.8184
G1 X120.675 Y133.549 E43.13915
G1 X120.675 Y134.259 E43.18065
G1 X116.937 Y130.521 E43.48966
G1 X117.079 Y131.373 E43.54015
G1 X120.675 Y134.969 E43.83742
G1 X120.675 Y135.68 E43.87898
G1 X117.221 Y132.225 E44.16456
G1 X117.363 Y133.077 E44.21505
G1 X120.675 Y136.39 E44.48889
G1 X120.675 Y137.1 E44.53039
G1 X117.505 Y133.929 E44.79249
G1 X117.647 Y134.782 E44.84304
G1 X120.675 Y137.81 E45.09336
G1 X120.675 Y138.52 E45.13486
G1 X117.789 Y135.634 E45.37344
G1 X117.931 Y136.486 E45.42393
G1 X120.675 Y139.23 E45.65077
G1 X120.675 Y139.94 E45.69227
G1 X118.073 Y137.338 E45.90737
G1 X118.215 Y138.19 E45.95786
G1 X120.675 Y140.651 E46.16126
G1 X120.675 Y141.361 E46.20276
M73 P2 R42
G1 X118.357 Y139.042 E46.39442
G1 X118.499 Y139.895 E46.44497
G1 X120.675 Y142.071 E46.62485
G1 X120.675 Y142.781 E46.66635
G1 X118.641 Y140.747 E46.8345
G1 X118.783 Y141.599 E46.88499
G1 X120.359 Y143.175 E47.01527
G1 X119.649 Y143.175 E47.05677
G1 X118.651 Y142.177 E47.13927
M204 S2500
M106 S255
;LAYER_CHANGE
;Z:0.48
;HEIGHT:0.2
; BEFORE_LAYER_CHANGE 1 @ 0.48mm
G1 E45.73927 F4800
;WIPE_START
G1 F5760
G1 X119.187 Y142.713 E45.13927
;WIPE_END
G92 E0
G1 Z.48 F7200
; AFTER_LAYER_CHANGE 1 @ 0.48mm
M104 S190 ; set temperature
G1 X107.789 Y85.245
G1 E2 F4800
;TYPE:External perimeter
;WIDTH:0.45
G1 F4382
G1 X122.255 Y85.245 E2.48966
G1 X122.255 Y144.755 E4.504
G1 X117.708 Y144.755 E4.65791
G1 X107.799 Y85.304 E6.69802
G1 X108.15 Y85.417 F7200
G1 X108.24 Y85.627
;TYPE:Perimeter
;WIDTH:0.4
G1 F4382
G1 X121.873 Y85.627 E7.1028
G1 X121.873 Y144.373 E8.84704
G1 X118.031 Y144.373 E8.96111
G1 X108.25 Y85.686 E10.72764
G1 X108.662 Y85.984 F7200
G1 F4382
G1 X121.516 Y85.984 E11.10929
G1 X121.516 Y144.016 E12.83234
G1 X118.334 Y144.016 E12.92682
G1 X108.672 Y86.043 E14.67186
G1 E13.27186 F4800
;WIPE_START
G1 F5760
G1 X109.43 Y86.04 E12.67186
;WIPE_END
G92 E0
G1 X121.376 Y142.943 F7200
G1 E2 F4800
;TYPE:Solid infill
;WIDTH:0.503814
G1 F4382
G1 X120.649 Y143.67 E2.0394
G1 X119.997 Y143.67 E2.06439
G1 X121.17 Y142.497 E2.12796
G1 X121.17 Y141.846 E2.15291
G1 X119.346 Y143.67 E2.25177
G1 X118.694 Y143.67 E2.27676
G1 X121.17 Y141.194 E2.41095
G1 X121.17 Y140.542 E2.43594
G1 X118.543 Y143.168 E2.57829
G1 X118.45 Y142.61 E2.59997
G1 X121.17 Y139.89 E2.74739
G1 X121.17 Y139.238 E2.77238
G1 X118.357 Y142.051 E2.92484
G1 X118.264 Y141.492 E2.94656
G1 X121.17 Y138.587 E3.10403
G1 X121.17 Y137.935 E3.12902
G1 X118.171 Y140.934 E3.29156
G1 X118.078 Y140.375 E3.31328
G1 X121.17 Y137.283 E3.48086
G1 X121.17 Y136.631 E3.50585
G1 X117.985 Y139.816 E3.67847
G1 X117.891 Y139.258 E3.70016
G1 X121.17 Y135.979 E3.87787
G1 X121.17 Y135.328 E3.90282
G1 X117.798 Y138.699 E4.08555
G1 X117.705 Y138.14 E4.10727
G1 X121.17 Y134.676 E4.29504
G1 X121.17 Y134.024 E4.32003
G1 X117.612 Y137.582 E4.51287
G1 X117.519 Y137.023 E4.53459
G1 X121.17 Y133.372 E4.73247
G1 X121.17 Y132.72 E4.75746
G1 X117.426 Y136.464 E4.96038
G1 X117.333 Y135.906 E4.98206
G1 X121.17 Y132.068 E5.19004
G1 X121.17 Y131.417 E5.21499
G1 X117.24 Y135.347 E5.42799
G1 X117.147 Y134.788 E5.44971
G1 X121.17 Y130.765 E5.66775
G1 X121.17 Y130.113 E5.69274
G1 X117.053 Y134.229 E5.91584
G1 X116.96 Y133.671 E5.93752
G1 X121.17 Y129.461 E6.16569
G1 X121.17 Y128.809 E6.19068
G1 X116.867 Y133.112 E6.42389
G1 X116.774 Y132.553 E6.44561
G1 X121.17 Y128.158 E6.68384
G1 X121.17 Y127.506 E6.70883
G1 X116.681 Y131.995 E6.95212
G1 X116.588 Y131.436 E6.97384
G1 X121.17 Y126.854 E7.22217
G1 X121.17 Y126.202 E7.24716
G1 X116.495 Y130.877 E7.50053
G1 X116.402 Y130.319 E7.52221
G1 X121.17 Y125.55 E7.78065
G1 X121.17 Y124.899 E7.8056
G1 X116.309 Y129.76 E8.06905
G1 X116.215 Y129.201 E8.09077
G1 X121.17 Y124.247 E8.35929
G1 X121.17 Y123.595 E8.38428
G1 X116.122 Y128.643 E8.65787
G1 X116.029 Y128.084 E8.67959
G1 X121.17 Y122.943 E8.95822
G1 X121.17 Y122.291 E8.98321
G1 X115.936 Y127.525 E9.26688
G1 X115.843 Y126.967 E9.28856
G1 X121.17 Y121.64 E9.57727
G1 X121.17 Y120.988 E9.60226
G1 X115.75 Y126.408 E9.89601
G1 X115.657 Y125.849 E9.91773
G1 X121.17 Y120.336 E10.21652
G1 X121.17 Y119.684 E10.24151
G1 X115.564 Y125.29 E10.54534
G1 X115.47 Y124.732 E10.56703
G1 X121.17 Y119.032 E10.87596
G1 X121.17 Y118.381 E10.90091
G1 X115.377 Y124.173 E11.21485
G1 X115.284 Y123.614 E11.23657
G1 X121.17 Y117.729 E11.55555
G1 X121.17 Y117.077 E11.58054
G1 X115.191 Y123.056 E11.90459
G1 X115.098 Y122.497 E11.92631
G1 X121.17 Y116.425 E12.2554
G1 X121.17 Y115.773 E12.28039
G1 X115.005 Y121.938 E12.61452
G1 X114.912 Y121.38 E12.6362
G1 X121.17 Y115.122 E12.97537
G1 X121.17 Y114.47 E13.00036
G1 X114.819 Y120.821 E13.34457
G1 X114.726 Y120.262 E13.36629
G1 X121.17 Y113.818 E13.71554
G1 X121.17 Y113.166 E13.74053
