; generated by AnycubicSlicer 1.1.1 on 2024-09-30 at 00:36:40 UTC

; 

; external perimeters extrusion width = 0.45mm
; perimeters extrusion width = 0.40mm
; infill extrusion width = 0.45mm
; solid infill extrusion width = 0.50mm
; top infill extrusion width = 0.45mm
; first layer extrusion width = 0.56mm

M73 P0 R49
M201 X2500 Y2500 Z800 E2500 ; sets maximum accelerations, mm/sec^2
M203 X300 Y250 Z8 E80 ; sets maximum feedrates, mm / sec
M204 P2500 R2500 T2500 ; sets acceleration (P, T) and retract acceleration (R), mm/sec^2
M205 X15.00 Y10.00 Z2.00 E10.00 ; sets the jerk limits, mm/sec
M205 S0 T0 ; sets the minimum extruding and travel feed rate, mm/sec
M107
;TYPE:Custom
G90 ; use absolute coordinates
M83 ; extruder relative mode
M104 S195 ; set extruder temp
M140 S40 ; set bed temp
M190 S40 ; wait for bed temp
M109 S195 ; wait for extruder temp
G28                                        ; move X/Y/Z to min endstops
G1 Z0.28                                   ; lift nozzle a bit 
G92 E0 
G1 Y3 F1800                                    ; zero the extruded length 
G1 X60  E25 F500                       ; Extrude 25mm of filament in a 5cm line. 
G92 E0                                     ; zero the extruded length again 
G1 E-2 F500                                ; Retract a little 
G1 X70 F4000                              ; Quickly wipe away from the filament line
M117
G21 ; set units to millimeters
G90 ; use absolute coordinates
M82 ; use absolute distances for extrusion
G92 E0
; Filament gcode
M107
;LAYER_CHANGE
;Z:0.28
;HEIGHT:0.28
; BEFORE_LAYER_CHANGE 0 @ 0.28mm
G1 E-2 F4800
G92 E0
G1 Z.28 F7200
; AFTER_LAYER_CHANGE 0 @ 0.28mm
G1 X75.019 Y94.967
G1 E2 F4800
M204 S2000
;TYPE:Skirt/Brim
;WIDTH:0.56
G1 F3000
G1 X75.583 Y94.652 E2.03759
G1 X75.999 Y94.514 E2.0631
G1 X76.51 Y94.437 E2.09317
G1 X77.146 Y94.475 E2.13025
G1 X114.817 Y104.356 E4.39667
G1 X118.019 Y92.212 E5.12754
G1 X118.243 Y91.786 E5.15555
G1 X118.511 Y91.432 E5.18139
G1 X118.988 Y91.01 E5.21845
G1 X119.45 Y90.74 E5.24959
G1 X119.881 Y90.571 E5.27653
G1 X120.472 Y90.471 E5.31141
G1 X120.906 Y90.472 E5.33667
G1 X165.441 Y102.127 E8.01566
G1 X165.935 Y102.357 E8.04737
G1 X166.417 Y102.719 E8.08245
G1 X166.767 Y103.12 E8.11342
G1 X167.065 Y103.622 E8.14739
G1 X167.249 Y104.126 E8.17861
G1 X167.332 Y104.661 E8.21012
G1 X167.294 Y105.298 E8.24726
G1 X155.799 Y149.121 E10.88381
G1 X155.569 Y149.614 E10.91547
G1 X155.208 Y150.096 E10.95051
G1 X154.806 Y150.447 E10.98157
G1 X154.305 Y150.744 E11.01546
G1 X153.8 Y150.928 E11.04674
G1 X153.265 Y151.011 E11.07825
G1 X152.628 Y150.973 E11.11539
G1 X108.107 Y139.269 E13.79432
G1 X107.728 Y139.057 E13.81959
G1 X107.262 Y138.679 E13.85451
G1 X106.97 Y138.321 E13.8814
G1 X106.699 Y137.859 E13.91257
G1 X106.492 Y137.257 E13.94962
G1 X106.431 Y136.817 E13.97547
G1 X106.446 Y136.336 E14.00348
G1 X109.616 Y124.184 E14.73433
G1 X71.944 Y114.303 E17.00081
G1 X71.401 Y114.041 E17.0359
G1 X70.923 Y113.668 E17.07118
G1 X70.584 Y113.259 E17.10209
G1 X70.269 Y112.695 E17.13968
G1 X70.131 Y112.279 E17.16519
G1 X70.054 Y111.768 E17.19526
G1 X70.092 Y111.132 E17.23234
G1 X73.975 Y96.327 E18.12306
G1 X74.237 Y95.784 E18.15815
G1 X74.61 Y95.306 E18.19343
G1 X74.973 Y95.005 E18.22087
M204 S2500
G1 X75.282 Y95.392 F7200
M204 S2000
G1 F3000
G1 X75.804 Y95.101 E18.25565
G1 X76.129 Y94.997 E18.27551
G1 X76.555 Y94.935 E18.30056
G1 X77.043 Y94.965 E18.32901
G1 X115.174 Y104.966 E20.6231
G1 X118.476 Y92.416 E21.3783
G1 X118.655 Y92.07 E21.40097
G1 X118.894 Y91.754 E21.42403
G1 X119.261 Y91.429 E21.45256
G1 X119.687 Y91.181 E21.48125
G1 X119.991 Y91.06 E21.50029
G1 X120.532 Y90.967 E21.53224
G1 X120.869 Y90.971 E21.55185
G1 X165.291 Y102.604 E24.22416
G1 X165.695 Y102.797 E24.25022
G1 X166.091 Y103.099 E24.2792
G1 X166.372 Y103.427 E24.30433
G1 X166.621 Y103.852 E24.333
G1 X166.769 Y104.269 E24.35875
G1 X166.834 Y104.707 E24.38452
G1 X166.804 Y105.195 E24.41297
G1 X155.322 Y148.97 E27.04663
G1 X155.13 Y149.374 E27.07266
G1 X154.828 Y149.77 E27.10164
G1 X154.499 Y150.051 E27.12682
G1 X154.074 Y150.3 E27.15549
G1 X153.657 Y150.449 E27.18126
G1 X153.219 Y150.513 E27.20702
G1 X152.731 Y150.484 E27.23547
G1 X108.319 Y138.816 E29.90773
G1 X108.024 Y138.654 E29.92732
G1 X107.598 Y138.308 E29.95926
G1 X107.392 Y138.053 E29.97834
G1 X107.143 Y137.628 E30.00701
G1 X106.983 Y137.165 E30.03552
G1 X106.93 Y136.772 E30.0586
G1 X106.944 Y136.383 E30.08125
G1 X110.227 Y123.827 E30.83651
G1 X72.096 Y113.826 E33.1306
G1 X71.647 Y113.606 E33.1597
G1 X71.256 Y113.294 E33.18881
G1 X71.009 Y112.996 E33.21133
G1 X70.718 Y112.474 E33.24611
G1 X70.614 Y112.149 E33.26597
G1 X70.552 Y111.723 E33.29102
G1 X70.582 Y111.235 E33.31947
G1 X74.452 Y96.479 E34.20724
G1 X74.672 Y96.03 E34.23634
G1 X74.984 Y95.639 E34.26545
G1 X75.236 Y95.431 E34.28447
M204 S2500
G1 X75.545 Y95.818 F7200
M204 S2000
G1 F3000
G1 X76.023 Y95.551 E34.31633
G1 X76.253 Y95.481 E34.33032
G1 X76.598 Y95.434 E34.35058
G1 X76.94 Y95.454 E34.37052
G1 X115.53 Y105.577 E36.69224
G1 X118.935 Y92.616 E37.4721
G1 X119.067 Y92.353 E37.48922
G1 X119.278 Y92.076 E37.50948
G1 X119.534 Y91.848 E37.52943
G1 X119.921 Y91.623 E37.55548
G1 X120.145 Y91.536 E37.56946
G1 X120.587 Y91.465 E37.59551
G1 X120.828 Y91.47 E37.60954
G1 X165.139 Y103.081 E40.27527
G1 X165.45 Y103.233 E40.29541
G1 X165.763 Y103.476 E40.31847
G1 X165.951 Y103.698 E40.3354
G1 X166.176 Y104.082 E40.3613
G1 X166.288 Y104.407 E40.3813
G1 X166.335 Y104.75 E40.40145
G1 X166.314 Y105.092 E40.42139
G1 X154.845 Y148.819 E43.05215
G1 X154.693 Y149.129 E43.07224
G1 X154.45 Y149.442 E43.0953
G1 X154.228 Y149.631 E43.11227
G1 X153.844 Y149.855 E43.13814
G1 X153.52 Y149.967 E43.15809
G1 X153.177 Y150.014 E43.17824
G1 X152.834 Y149.994 E43.19823
G1 X108.528 Y138.361 E45.86401
G1 X108.316 Y138.247 E45.87802
G1 X107.966 Y137.969 E45.90403
G1 X107.813 Y137.783 E45.91805
G1 X107.587 Y137.397 E45.94408
G1 X107.475 Y137.072 E45.96408
G1 X107.428 Y136.728 E45.98429
G1 X107.442 Y136.434 E46.00142
G1 X110.837 Y123.471 E46.78124
G1 X72.247 Y113.349 E49.10295
G1 X71.937 Y113.197 E49.12304
G1 X71.589 Y112.92 E49.14892
G1 X71.435 Y112.733 E49.16302
G1 X71.168 Y112.255 E49.19488
G1 X71.098 Y112.025 E49.20887
G1 X71.051 Y111.68 E49.22913
G1 X71.072 Y111.338 E49.24907
G1 X74.929 Y96.63 E50.13394
G1 X75.081 Y96.32 E50.15403
G1 X75.358 Y95.971 E50.17996
G1 X75.499 Y95.856 E50.19055
M204 S2500
G1 X75.815 Y96.239 F7200
M204 S2000
G1 F3000
G1 X76.202 Y96.018 E50.21648
G1 X76.344 Y95.973 E50.22515
G1 X76.641 Y95.932 E50.2426
G1 X76.837 Y95.944 E50.25403
G1 X115.887 Y106.187 E52.60342
G1 X119.396 Y92.811 E53.40818
G1 X119.481 Y92.635 E53.41955
G1 X119.661 Y92.398 E53.43687
G1 X119.808 Y92.268 E53.44829
G1 X120.153 Y92.066 E53.47156
G1 X120.292 Y92.014 E53.4802
G1 X120.635 Y91.963 E53.50038
G1 X120.781 Y91.968 E53.50888
G1 X164.989 Y103.559 E56.16852
G1 X165.164 Y103.644 E56.17984
G1 X165.434 Y103.855 E56.19978
G1 X165.53 Y103.968 E56.20841
G1 X165.732 Y104.313 E56.23168
G1 X165.796 Y104.499 E56.24313
G1 X165.836 Y104.793 E56.2604
G1 X165.825 Y104.989 E56.27182
G1 X154.368 Y148.668 E58.8997
G1 X154.283 Y148.843 E58.91102
G1 X154.072 Y149.114 E58.93101
G1 X153.958 Y149.21 E58.93968
G1 X153.613 Y149.411 E58.96292
G1 X153.428 Y149.475 E58.97431
G1 X153.133 Y149.516 E58.99164
G1 X152.937 Y149.504 E59.00307
G1 X108.732 Y137.904 E61.66268
G1 X108.602 Y137.837 E61.67119
G1 X108.329 Y137.624 E61.69134
G1 X108.233 Y137.511 E61.69997
G1 X108.031 Y137.166 E61.72324
G1 X107.967 Y136.98 E61.73469
G1 X107.927 Y136.686 E61.75196
G1 X107.939 Y136.49 E61.76339
G1 X111.447 Y123.114 E62.56813
G1 X72.397 Y112.871 E64.91752
G1 X72.222 Y112.786 E64.92884
M73 P1 R49
G1 X71.952 Y112.575 E64.94878
G1 X71.856 Y112.463 E64.95736
G1 X71.635 Y112.076 E64.98329
G1 X71.59 Y111.934 E64.99196
G1 X71.549 Y111.637 E65.00941
G1 X71.561 Y111.441 E65.02084
G1 X75.407 Y96.78 E65.9029
G1 X75.492 Y96.605 E65.91422
G1 X75.703 Y96.334 E65.93421
G1 X75.77 Y96.278 E65.93929
M204 S2500
G1 X76.092 Y96.656 F7200
M204 S2000
G1 F3000
G1 X76.392 Y96.481 E65.9595
G1 X76.734 Y96.434 E65.97959
G1 X116.244 Y106.797 E68.35665
G1 X119.873 Y92.961 E69.18907
M73 P1 R48
G1 X120.081 Y92.687 E69.20909
G1 X120.381 Y92.512 E69.2293
G1 X120.723 Y92.465 E69.24939
G1 X164.882 Y104.058 E71.9063
G1 X165.113 Y104.244 E71.92356
G1 X165.288 Y104.544 E71.94377
G1 X165.335 Y104.886 E71.96386
G1 X153.869 Y148.562 E74.59171
G1 X153.682 Y148.792 E74.60896
G1 X153.382 Y148.967 E74.62917
G1 X153.041 Y149.014 E74.6492
G1 X108.881 Y137.421 E77.30617
G1 X108.651 Y137.235 E77.32338
G1 X108.475 Y136.935 E77.34362
G1 X108.429 Y136.593 E77.3637
G1 X112.058 Y122.757 E78.19612
G1 X72.548 Y112.394 E80.57318
G1 X72.273 Y112.186 E80.59325
G1 X72.098 Y111.885 E80.61351
G1 X72.051 Y111.544 E80.63354
G1 X75.884 Y96.931 E81.51271
G1 X76.049 Y96.697 E81.52937
M204 S2500
G1 X76.409 Y97.05 F7200
M204 S2000
G1 F3000
G1 X76.581 Y96.95 E81.54095
G1 X76.679 Y96.936 E81.54671
G1 X116.601 Y107.408 E83.94857
G1 X120.338 Y93.16 E84.80578
G1 X120.398 Y93.081 E84.81155
G1 X120.569 Y92.981 E84.82308
G1 X120.668 Y92.967 E84.8289
G1 X164.639 Y104.501 E87.47436
G1 X164.719 Y104.561 E87.48018
G1 X164.819 Y104.732 E87.49171
G1 X164.832 Y104.831 E87.49752
G1 X153.426 Y148.319 E90.1139
G1 X153.366 Y148.398 E90.11967
G1 X153.194 Y148.498 E90.13125
G1 X153.095 Y148.512 E90.13707
G1 X109.124 Y136.978 E92.78253
G1 X109.045 Y136.918 E92.7883
G1 X108.945 Y136.746 E92.79988
G1 X108.931 Y136.648 E92.80564
G1 X112.668 Y122.4 E93.66285
G1 X72.747 Y111.929 E96.06464
G1 X72.667 Y111.869 E96.07046
G1 X72.567 Y111.697 E96.08204
G1 X72.553 Y111.599 E96.0878
G1 X76.349 Y97.129 E96.95837
G1 X76.373 Y97.098 E96.96065
M204 S2500
G1 E95.56065 F4800
;WIPE_START
G1 F5760
G1 X76.581 Y96.95 E95.35855
G1 X76.679 Y96.936 E95.28018
G1 X77.069 Y97.038 E94.96065
;WIPE_END
G92 E0
G1 X113.462 Y121.937 F7200
G1 E2 F4800
M204 S2000
;TYPE:External perimeter
G1 F3000
G1 X73.278 Y111.397 E4.41761
G1 X76.881 Y97.661 E5.24402
G1 X117.064 Y108.201 E7.66157
G1 X120.87 Y93.692 E8.53449
G1 X164.107 Y105.033 E11.13578
G1 X152.893 Y147.787 E13.70801
G1 X109.656 Y136.446 E16.3093
G1 X113.446 Y121.995 E17.17872
M204 S2500
G1 X113.398 Y121.542 F7200
G1 E15.77872 F4800
;WIPE_START
G1 F5760
G1 X112.713 Y121.802 E15.17872
;WIPE_END
G92 E0
G1 X116.054 Y113.829 F7200
G1 E2 F4800
M204 S2000
;TYPE:Perimeter
G1 F3000
G1 X114.024 Y121.567 E2.46555
G1 X73.889 Y111.04 E4.88021
G1 X77.238 Y98.272 E5.64838
G1 X117.421 Y108.812 E8.06593
G1 X121.227 Y94.303 E8.93885
G1 X163.497 Y105.39 E11.48196
G1 X158.372 Y124.929 E12.65749
G1 X116.112 Y113.844 E15.20001
M204 S2500
G1 X115.697 Y113.219 F7200
M204 S2000
G1 F3000
G1 X113.667 Y120.957 E15.66556
G1 X74.499 Y110.683 E18.02205
G1 X77.595 Y98.882 E18.73205
G1 X117.778 Y109.422 E21.1496
G1 X121.584 Y94.913 E22.02252
G1 X162.887 Y105.747 E24.50746
G1 X158.015 Y124.319 E25.62483
G1 X115.755 Y113.234 E28.16735
M204 S2500
G1 E26.76735 F4800
;WIPE_START
G1 F5760
G1 X115.557 Y113.966 E26.16735
;WIPE_END
G92 E0
G1 X116.41 Y114.439 F7200
G1 E2 F4800
M204 S2000
;TYPE:External perimeter
G1 F3000
G1 X157.81 Y125.298 E4.49077
G1 X152.279 Y146.385 E5.75944
G1 X110.879 Y135.526 E8.25021
G1 X116.395 Y114.498 E9.51533
M204 S2500
G1 X116.366 Y114.042 F7200
M73 P2 R48
G1 E8.11533 F4800
;WIPE_START
G1 F5760
G1 X117.128 Y114.689 E7.51533
;WIPE_END
G92 E0
G1 X113.985 Y121.815 F7200
G1 E2 F4800
M204 S2000
;TYPE:Gap fill
;WIDTH:0.510178
G1 F3000
G1 X110.356 Y135.647 E2.74926
G1 X110.363 Y135.708 E2.75248
;WIDTH:0.597697
G1 X110.376 Y135.83 E2.76016
;WIDTH:0.685216
G1 X110.39 Y135.952 E2.7691
;WIDTH:0.772735
G1 X110.396 Y136.013 E2.77418
G1 X110.485 Y136.043 E2.78197
G1 X152.368 Y147.029 E6.3741
G1 X152.461 Y147.047 E6.38196
G1 X152.532 Y146.947 E6.39213
;WIDTH:0.685215
G1 X152.604 Y146.847 E6.4011
;WIDTH:0.597696
G1 X152.675 Y146.747 E6.40878
;WIDTH:0.510178
G1 X158.333 Y125.177 E7.57718
M204 S2500
G1 E6.17718 F4800
;WIPE_START
G1 F5760
G1 X158.141 Y125.91 E5.57718
;WIPE_END
G92 E0
G1 X161.27 Y105.529 F7200
G1 E2 F4800
M204 S2000
;TYPE:Solid infill
;WIDTH:0.560176
G1 F3000
G1 X162.248 Y106.507 E2.08052
G1 X162.101 Y107.067 E2.11423
G1 X160.627 Y105.593 E2.23558
G1 X159.668 Y105.342 E2.29329
G1 X161.954 Y107.628 E2.48149
G1 X161.807 Y108.188 E2.5152
G1 X158.709 Y105.09 E2.77026
G1 X157.75 Y104.839 E2.82797
G1 X161.66 Y108.748 E3.14984
G1 X161.513 Y109.309 E3.1836
G1 X156.792 Y104.587 E3.57232
G1 X155.833 Y104.336 E3.63003
G1 X161.366 Y109.869 E4.08556
G1 X161.219 Y110.429 E4.11927
G1 X154.874 Y104.084 E4.64165
G1 X153.916 Y103.833 E4.6993
G1 X161.072 Y110.989 E5.28845
G1 X160.925 Y111.55 E5.32221
G1 X152.957 Y103.581 E5.97825
G1 X151.998 Y103.33 E6.03596
G1 X160.778 Y112.11 E6.75881
G1 X160.631 Y112.67 E6.79252
G1 X151.04 Y103.078 E7.58218
G1 X150.081 Y102.827 E7.63989
G1 X160.484 Y113.23 E8.49636
G1 X160.337 Y113.791 E8.53012
G1 X149.122 Y102.575 E9.45348
G1 X148.164 Y102.324 E9.51113
G1 X160.191 Y114.351 E10.5013
G1 X160.044 Y114.911 E10.53501
G1 X147.205 Y102.073 E11.59199
G1 X146.246 Y101.821 E11.64971
G1 X159.897 Y115.472 E12.77358
G1 X159.75 Y116.032 E12.80729
G1 X145.287 Y101.57 E13.99797
G1 X144.329 Y101.318 E14.05564
G1 X159.603 Y116.592 E15.31313
G1 X159.456 Y117.152 E15.34684
G1 X143.37 Y101.067 E16.67115
G1 X142.411 Y100.815 E16.72887
G1 X159.309 Y117.713 E18.12007
G1 X159.162 Y118.273 E18.15378
G1 X141.453 Y100.564 E19.61175
G1 X140.494 Y100.312 E19.66947
G1 X159.015 Y118.833 E21.19429
G1 X158.868 Y119.393 E21.228
G1 X139.535 Y100.061 E22.81963
G1 X138.577 Y99.809 E22.8773
G1 X158.721 Y119.954 E24.53578
G1 X158.574 Y120.514 E24.56949
G1 X137.618 Y99.558 E26.29478
G1 X136.659 Y99.306 E26.3525
G1 X158.427 Y121.074 E28.14464
G1 X158.28 Y121.635 E28.1784
G1 X135.701 Y99.055 E30.03735
G1 X134.742 Y98.804 E30.09506
G1 X158.133 Y122.195 E32.02082
G1 X157.986 Y122.755 E32.05453
G1 X133.783 Y98.552 E34.04714
G1 X132.824 Y98.301 E34.10485
G1 X157.839 Y123.315 E36.16427
G1 X157.712 Y123.8 E36.19346
G1 X157.582 Y123.766 E36.20128
G1 X131.866 Y98.049 E38.3185
G1 X130.907 Y97.798 E38.37621
G1 X156.624 Y123.514 E40.49343
G1 X155.665 Y123.263 E40.55114
G1 X129.948 Y97.546 E42.6684
G1 X128.99 Y97.295 E42.72605
G1 X154.706 Y123.011 E44.84323
G1 X153.748 Y122.76 E44.90088
G1 X128.031 Y97.043 E47.01814
G1 X127.072 Y96.792 E47.07585
G1 X152.789 Y122.509 E49.19311
G1 X151.83 Y122.257 E49.25083
G1 X126.114 Y96.54 E51.36805
G1 X125.155 Y96.289 E51.42576
G1 X150.872 Y122.006 E53.54302
G1 X149.913 Y121.754 E53.60074
G1 X124.196 Y96.037 E55.718
G1 X123.238 Y95.786 E55.77565
G1 X148.954 Y121.503 E57.89287
G1 X147.995 Y121.251 E57.95059
G1 X122.279 Y95.535 E60.06777
G1 X121.887 Y95.432 E60.09137
G1 X121.8 Y95.763 E60.11129
G1 X147.037 Y121 E62.18903
G1 X146.078 Y120.748 E62.24675
G1 X121.653 Y96.323 E64.25764
G1 X121.506 Y96.883 E64.29135
G1 X145.119 Y120.497 E66.23543
G1 X144.161 Y120.245 E66.2931
G1 X121.359 Y97.444 E68.17033
G1 X121.212 Y98.004 E68.20404
G1 X143.202 Y119.994 E70.01446
G1 X142.243 Y119.742 E70.07218
G1 X121.065 Y98.564 E71.81575
G1 X120.918 Y99.124 E71.84946
G1 X141.285 Y119.491 E73.52626
G1 X140.326 Y119.24 E73.58397
G1 X120.771 Y99.685 E75.19392
G1 X120.624 Y100.245 E75.22763
G1 X139.367 Y118.988 E76.77072
G1 X138.409 Y118.737 E76.82837
G1 X120.477 Y100.805 E78.3047
G1 X120.33 Y101.366 E78.33846
M73 P3 R48
G1 X137.45 Y118.485 E79.74789
G1 X136.491 Y118.234 E79.8056
G1 X120.183 Y101.926 E81.14822
G1 X120.036 Y102.486 E81.18193
G1 X135.532 Y117.982 E82.4577
G1 X134.574 Y117.731 E82.51535
G1 X119.889 Y103.046 E83.72435
G1 X119.742 Y103.607 E83.75811
G1 X133.615 Y117.479 E84.90022
G1 X132.656 Y117.228 E84.95793
M73 P3 R47
G1 X119.596 Y104.167 E86.03319
G1 X119.449 Y104.727 E86.0669
G1 X131.698 Y116.976 E87.07535
G1 X130.739 Y116.725 E87.13306
G1 X119.302 Y105.288 E88.07466
G1 X119.155 Y105.848 E88.10837
G1 X129.78 Y116.473 E88.98312
G1 X128.822 Y116.222 E89.04077
G1 X119.008 Y106.408 E89.84875
G1 X118.861 Y106.968 E89.88246
G1 X127.863 Y115.971 E90.62363
G1 X126.904 Y115.719 E90.68135
G1 X118.714 Y107.529 E91.35563
G1 X118.567 Y108.089 E91.38934
G1 X125.946 Y115.468 E91.99685
G1 X124.987 Y115.216 E92.05457
